Ceciluh/Robotics_Control_Lab_4.1/best_PD5_cmd_deg.csv
time_s,cmd_shoulder_pan_deg,cmd_shoulder_lift_deg,cmd_elbow_flex_deg,cmd_wrist_flex_deg,cmd_wrist_roll_deg
0.0,-4.400300129844152,-92.24587511796308,89.95405213359008,55.118342772340554,0.0
0.002,-4.389011630316074,-92.00922818775172,89.72328463021647,54.97694255689751,0.0
0.004,-4.379309920335971,-91.80584598634563,89.52495540275852,54.85541853344867,0.0
0.006,-4.370279645272038,-91.6165394387811,89.34035212345663,54.742304931736214,0.0
0.008,-4.360530200465863,-91.41215654635971,89.14104706687195,54.62018297986705,0.0
0.01,-4.351730206595834,-91.22767750819865,88.9611513588517,54.5099538899845,0.0
0.012,-4.3429286390502195,-91.04316548022392,88.78122348064046,54.399705088176006,0.0
0.014,-4.333493404802471,-90.8453695539362,88.58834173885694,54.281518950853794,0.0
0.016,-4.325366419524195,-90.6749991594304,88.42220414918373,54.17971999463358,0.0
0.018000000000000002,-4.317047445824576,-90.50060400765429,88.25214179620966,54.075516183448116,0.0
0.020000000000000004,-4.308899478205169,-90.32979374896594,88.08557527065656,53.973454401548636,0.0
0.022000000000000006,-4.30022275558928,-90.14789891287737,87.90819956093058,53.86476941253175,0.0
0.024000000000000007,-4.291628913220855,-89.96774154030986,87.73251814793012,53.75712258494795,0.0
0.02600000000000001,-4.283830826139795,-89.80426601686553,87.57310412817398,53.65944342125017,0.0
0.02800000000000001,-4.26578129174102,-89.42588385043231,87.20412276090713,53.43335420130688,0.0
0.030000000000000013,-4.255055643513761,-89.20103627691783,86.98486146251119,53.29900428471004,0.0
0.032000000000000015,-4.245394324540334,-88.99850081406315,86.787357936622,53.17798620069378,0.0
0.034000000000000016,-4.236688751205391,-88.81600116472356,86.6093924400612,53.06893982636791,0.0
0.03600000000000002,-4.226269969717162,-88.59758660487886,86.39640432890847,52.93843373533028,0.0
0.03800000000000002,-4.2163358803090425,-88.38933290765104,86.19332463658088,52.81399891748361,0.0
0.04000000000000002,-4.20636035077719,-88.18021047866267,85.98939779589054,52.689045018920396,0.0
0.04200000000000002,-4.196629790078033,-87.97622346400557,85.79047878159777,52.56715961016257,0.0
0.044000000000000025,-4.187472571850261,-87.78425573813664,85.60328044022262,52.45245591309058,0.0
0.04600000000000003,-4.179601046575245,-87.61924069005337,85.4423651448869,52.35385685951538,0.0
0.04800000000000003,-4.170981500838936,-87.43854448386224,85.26615828543359,52.245888070474486,0.0
0.05000000000000003,-4.162777930015534,-87.26656858509016,85.09845507979884,52.14312980052496,0.0
0.05200000000000003,-4.149522860565022,-86.98869538436938,84.82748556108378,51.97709624829307,0.0
0.054000000000000034,-4.138811899976554,-86.76415571578268,84.60852451780376,51.84293030967172,0.0
0.056000000000000036,-4.128655397752454,-86.55123945821984,84.4008981051495,51.715709539624875,0.0
0.05800000000000004,-4.110754837975704,-86.17598032748272,84.03496218262976,51.49148638200434,0.0
0.06000000000000004,-4.096075067562448,-85.86824034876688,83.73486791767108,51.30760696615055,0.0
0.06200000000000004,-4.08183802454704,-85.56978150430282,83.4438241997778,51.129273172129196,0.0
0.06400000000000004,-4.069024108818793,-85.30115644802014,83.18187305793715,50.96876552980379,0.0
0.06600000000000004,-4.057751870605091,-85.06485041255026,82.95143797987043,50.82756900426218,0.0
0.06800000000000005,-4.04703566443134,-84.84020077791791,82.73236970262046,50.69333735922101,0.0
0.07000000000000005,-4.035277160461945,-84.59370089001746,82.4919940355376,50.5460498485625,0.0
0.07200000000000005,-4.020833965944933,-84.29092037995986,82.19673602262453,50.36513379224239,0.0
0.07400000000000005,-3.993487680749869,-83.71764539084374,81.63770389038135,50.02259308446001,0.0
0.07600000000000005,-3.98182936745937,-83.47324585441496,81.39937639212489,49.876560566419975,0.0
0.07800000000000006,-3.9715821166098806,-83.25842718426259,81.18989483179016,49.748203075310315,0.0
0.08000000000000006,-3.9618352945963484,-83.05409927486402,80.99064339219048,49.62611397665106,0.0
0.08200000000000006,-3.9534643896024324,-82.87861545923609,80.8195194229137,49.52125967190942,0.0
0.08400000000000006,-3.944957623949698,-82.70028352302616,80.64561809381472,49.41470357089456,0.0
0.08600000000000006,-3.9342073214716113,-82.47491910909719,80.42585279575994,49.28004483412459,0.0
0.08800000000000006,-3.924292116170508,-82.26706128963366,80.22315914572424,49.15584655938925,0.0
0.09000000000000007,-3.9118076231980057,-82.00534210101699,79.96794229719767,48.99946528022827,0.0
0.09200000000000007,-3.901305436903784,-81.78517908104666,79.75324916592241,48.867914457115575,0.0
0.09400000000000007,-3.8923916138331225,-81.59831377969529,79.57102648075383,48.75625953792303,0.0
0.09600000000000007,-3.8841355871568948,-81.42523822046681,79.40225093541939,48.65284420377535,0.0
0.09800000000000007,-3.87491909381543,-81.23202787828217,79.21384085018359,48.537398024159444,0.0
0.10000000000000007,-3.8637717005314527,-80.99833903469845,78.98595794060213,48.397765311409444,0.0
0.10200000000000008,-3.8543118120328765,-80.80002626799623,78.79257219915976,48.27927035391409,0.0
0.10400000000000008,-3.8439953194576573,-80.58375604604144,78.58167515042143,48.15004553806288,0.0
0.10600000000000008,-3.833724988032925,-80.36845352528827,78.37172176061883,48.02139893870603,0.0
0.10800000000000008,-3.8242047753035995,-80.16887614906123,78.17710282852181,47.9021483573828,0.0
0.11000000000000008,-3.8145843718953767,-79.96719842136251,77.98043572759838,47.7816427834411,0.0
0.11200000000000009,-3.8050054086108864,-79.76638942542434,77.78461577503771,47.661656290215944,0.0
0.11400000000000009,-3.796488676346115,-79.5878485537277,77.6105107013958,47.554975347003435,0.0
0.11600000000000009,-3.7879504371816854,-79.40885682124394,77.435965968477,47.448025007469674,0.0
0.11800000000000009,-3.768227036519244,-78.99538448964789,77.03276624139298,47.200968868963244,0.0
0.12000000000000009,-3.7559429249045353,-78.73786600397457,76.78164573051922,47.04709757503921,0.0
0.1220000000000001,-3.7467395455262764,-78.54493057690402,76.59350373020834,46.93181566147285,0.0
0.1240000000000001,-3.7365746503657236,-78.33183837366815,76.38570574320211,46.804489761154294,0.0
0.12600000000000008,-3.7279823816728834,-78.15171399091435,76.21005650039264,46.69686264549644,0.0
0.12800000000000009,-3.7197001270702432,-77.97808860145769,76.04074478520835,46.59311877924968,0.0
0.1300000000000001,-3.705823980322276,-77.68719542093346,75.75707876444895,46.419305586911634,0.0
0.1320000000000001,-3.6969358606194995,-77.50086895320571,75.5753815257332,46.307972629176184,0.0
0.1340000000000001,-3.686865385994033,-77.28975613879132,75.36951375018643,46.181829444414305,0.0
0.1360000000000001,-3.671370976186395,-76.96493843318801,75.05276604969154,45.987745821563166,0.0
0.1380000000000001,-3.661732213229683,-76.76287582432957,74.85572362987322,45.86701027515211,0.0
0.1400000000000001,-3.648056972398038,-76.47619434335326,74.57616467016365,45.69571363869299,0.0
0.1420000000000001,-3.6346361424525977,-76.19484621559035,74.30180655799757,45.52760376359493,0.0
0.1440000000000001,-3.623749454757164,-75.9666226844748,74.07925317672358,45.391236659909765,0.0
0.1460000000000001,-3.6104015384471513,-75.68680308474626,73.80638561674007,45.22404010404714,0.0
0.1480000000000001,-3.601741601704166,-75.50526014000371,73.629353055718,45.11556537557367,0.0
0.1500000000000001,-3.588305559561406,-75.22359311070846,73.35468396503902,44.94726495185814,0.0
0.1520000000000001,-3.570884970838011,-74.85839587314716,72.99855995077145,44.72905393165073,0.0
0.1540000000000001,-3.5598844539419456,-74.62778607884128,72.77367959234914,44.59126099865556,0.0
0.1560000000000001,-3.5476795506650034,-74.3719280804571,72.52417831442192,44.43838187167074,0.0
0.1580000000000001,-3.535059721592211,-74.107371767863,72.26619482947012,44.280305366878515,0.0
0.16000000000000011,-3.5205572519615056,-73.80334864148969,71.9697250726964,44.09864682801449,0.0
0.16200000000000012,-3.5048603625619603,-73.47428624652478,71.6488381409607,43.90202693735847,0.0
0.16400000000000012,-3.490455460817511,-73.17230848860034,71.35436293602842,43.72159053790301,0.0
0.16600000000000012,-3.4758417847788157,-72.86595408205952,71.05561981909135,43.5385390229389,0.0
0.16800000000000012,-3.46379739641152,-72.61346104467182,70.80939990064518,43.38767051240044,0.0
0.17000000000000012,-3.454745614447927,-72.4237036363202,70.62435696206641,43.27428751436674,0.0
0.17200000000000013,-3.4454997458288794,-72.22987748427997,70.43534636659878,43.15847337879987,0.0
0.17400000000000013,-3.4328017575353766,-71.96368267760589,70.17576509549446,42.999417848352394,0.0
0.17600000000000013,-3.406903778436829,-71.42076931369022,69.64634026235974,42.675018683081085,0.0
0.17800000000000013,-3.387533405663904,-71.01469769696554,69.25035738145465,42.43238458662824,0.0
0.18000000000000013,-3.377367461386295,-70.80158350052055,69.04253794765442,42.30504554502573,0.0
0.18200000000000013,-3.368120543650191,-70.6077353552712,68.85350590539281,42.18921826817489,0.0
0.18400000000000014,-3.358152357937734,-70.39876687874674,68.64972919226042,42.06435635859942,0.0
0.18600000000000014,-3.3489820257467557,-70.2065242377637,68.46226276596035,41.94948839547789,0.0
0.18800000000000014,-3.3387515607701705,-69.99205745895738,68.25312435432951,41.821341164911644,0.0
0.19000000000000014,-3.3289774617131687,-69.78715772612149,68.05331529808599,41.698910392869344,0.0
0.19200000000000014,-3.3191881504588476,-69.58193909175326,67.85319526332955,41.57628907220958,0.0
0.19400000000000014,-3.3007714250902933,-69.19585930212543,67.47670751816486,41.34560040287921,0.0
0.19600000000000015,-3.291324125996395,-68.99781045393274,67.2835791382504,41.227263140791415,0.0
0.19800000000000015,-3.282793755209889,-68.81898367051744,67.10919525628657,41.12041136088738,0.0
0.20000000000000015,-3.273953894891712,-68.63366889040955,66.92848457009455,41.00968290221424,0.0
0.20200000000000015,-3.2663976292921784,-68.47526280166909,66.77401403635399,40.91503280446995,0.0
0.20400000000000015,-3.2582024514052286,-68.30346284857002,66.60648240507118,40.81237966479213,0.0
0.20600000000000016,-3.245339751733853,-68.03381510806292,66.34353398730981,40.65126095276244,0.0
0.20800000000000016,-3.236978813351974,-67.85854022792171,66.17261376257598,40.546531490218456,0.0
0.21000000000000016,-3.225178869258846,-67.61117160826072,65.93139094713037,40.3987248988434,0.0
0.21200000000000016,-3.212162473938691,-67.33830186261645,65.66530057404891,40.23568098871311,0.0
0.21400000000000016,-3.203613219045168,-67.15907920143685,65.49053064979319,40.128592665697745,0.0
0.21600000000000016,-3.1937373556336843,-66.9520461273156,65.28864125453227,40.00488718911103,0.0
0.21800000000000017,-3.1816830006543517,-66.6993441544412,65.04221759154315,39.853893836374915,0.0
0.22000000000000017,-3.169934463296993,-66.45305320202745,64.80204566900323,39.70673116791405,0.0
0.22200000000000017,-3.1614707114435756,-66.27562298739174,64.62902365845801,39.60071385954168,0.0
0.22400000000000017,-3.153505290192002,-66.10863954709158,64.46618887505984,39.500938661051784,0.0
0.22600000000000017,-3.145215691769966,-65.93486020517103,64.29672703231759,39.39710280581728,0.0
0.22800000000000017,-3.1319590486438695,-65.65695401463658,64.02572534341155,39.23104954165945,0.0
0.23000000000000018,-3.1198868586745765,-65.40387815720702,63.77893708492454,39.07983278709597,0.0
0.23200000000000018,-3.109049479480799,-65.17668830692045,63.55739170296827,38.944083323757056,0.0
0.23400000000000018,-3.0994862529521563,-64.97620920911919,63.36189345231751,38.82429394979135,0.0
0.23600000000000018,-3.091204522908044,-64.80259481626709,63.19259246053021,38.720556654186574,0.0
0.23800000000000018,-3.0813952784296488,-64.59695831092543,62.99206493668789,38.59768564913151,0.0
0.24000000000000019,-3.068567199621138,-64.32803634631954,62.72982426312833,38.437000599472604,0.0
0.2420000000000002,-3.0491858111191203,-63.921733800899034,62.333616190886296,38.19422851953815,0.0
0.2440000000000002,-3.0242713792610534,-63.399439070540346,61.82429772712081,37.88214930798226,0.0
0.2460000000000002,-2.998025617858272,-62.849234957798934,61.287763281777146,37.553393807077185,0.0
0.2480000000000002,-2.9810640178471006,-62.493659749230886,60.94102223988189,37.34093209860364,0.0
0.25000000000000017,-2.96875944844979,-62.23571239597959,60.68948351652524,37.186804549642325,0.0
0.25200000000000017,-2.9469635170422075,-61.77879247975225,60.24391564790641,36.91378780466677,0.0
0.25400000000000017,-2.9232277681971333,-61.28120711984826,59.758692657192995,36.616472825643434,0.0
0.25600000000000017,-2.904610136912256,-60.89091563067253,59.37809785097847,36.38326760043412,0.0
0.2580000000000002,-2.886823930894666,-60.51805375973031,59.014499629004064,36.16047684276556,0.0
0.2600000000000002,-2.8698271854621016,-60.16174177865649,58.66704011951001,35.94757490127925,0.0
0.2620000000000002,-2.8536471776580323,-59.822551510888395,58.33627693914016,35.74490344935822,0.0
0.2640000000000002,-2.837452482215172,-59.48305333819251,58.005213503654396,35.542048019461696,0.0
0.2660000000000002,-2.8247697061189885,-59.217177433050765,57.74594321106297,35.38318303763168,0.0
0.2680000000000002,-2.8107194059396403,-58.922633379811394,57.45871702250059,35.20718839215576,0.0
0.2700000000000002,-2.784792576122039,-58.37911520264472,56.92870240253106,34.88242784157547,0.0
0.2720000000000002,-2.769773940899529,-58.06427141738071,56.62168082311238,34.694303791001595,0.0
0.2740000000000002,-2.759496265655401,-57.84881494416365,56.41157730575181,34.56556520265701,0.0
0.2760000000000002,-2.7500227386350904,-57.65021626574278,56.21791275598752,34.446899408470145,0.0
0.2780000000000002,-2.7393993793208415,-57.42751303011821,56.00074252000599,34.31383076705971,0.0
0.2800000000000002,-2.723922279944636,-57.10305821246551,55.68434869161201,34.11996397539396,0.0
0.2820000000000002,-2.7125204757744545,-56.86403601566838,55.45126493448706,33.9771445012829,0.0
0.2840000000000002,-2.703677468105108,-56.67865525593311,55.27048990791305,33.86637661875786,0.0
0.2860000000000002,-2.6935382763124394,-56.466101886320864,55.06321736735968,33.739372679896405,0.0
0.2880000000000002,-2.6727835935834463,-56.031010230152525,54.63893544177973,33.47939865925424,0.0
0.2900000000000002,-2.659958137567577,-55.76214324856945,54.37674838520515,33.318746462805244,0.0
0.2920000000000002,-2.642136261570065,-55.388533608516894,54.01242097223495,33.09550890148194,0.0
0.2940000000000002,-2.6071728619861902,-54.655576924530926,53.297674392199546,32.65755590148542,0.0
0.2960000000000002,-2.585365390290986,-54.19841508300319,52.85187060884679,32.38439460238628,0.0
0.2980000000000002,-2.5692845240487574,-53.86130317349764,52.52313415050935,32.18296500179976,0.0
0.3000000000000002,-2.5554503419830508,-53.571289721338516,52.2403260015097,32.009677460820235,0.0
0.3020000000000002,-2.530848547007825,-53.05554896729981,51.737398682354375,31.701514351885347,0.0
0.3040000000000002,-2.514561004705463,-52.71410439559615,51.40443720560015,31.497495918358094,0.0
0.3060000000000002,-2.4995192889077105,-52.39877675973134,51.0969437967136,31.309082759537034,0.0
0.3080000000000002,-2.4828650801940975,-52.049645561437636,50.75648666545854,31.100471447264674,0.0
0.3100000000000002,-2.4659769183768825,-51.69560987750851,50.41124689914285,30.888929628668542,0.0
0.3120000000000002,-2.4496704919675034,-51.35376942804056,50.07789938009674,30.684674652029955,0.0
0.3140000000000002,-2.438896584355645,-51.127910166906204,49.8576515291771,30.549720236370817,0.0
0.3160000000000002,-2.4254652632396394,-50.84634210705203,49.58307894907108,30.381478948433124,0.0
0.3180000000000002,-2.4123119581436097,-50.57060224761663,49.31418976937343,30.216720100745658,0.0
0.32000000000000023,-2.3998526439804633,-50.30941089601903,49.05948764390269,30.060654212399786,0.0
0.32200000000000023,-2.3874132630413905,-50.04863741539485,48.80519300751784,29.904838008449214,0.0
0.32400000000000023,-2.3648441323631584,-49.575508504040585,48.34381885172556,29.62213613719285,0.0
0.32600000000000023,-2.324225467286151,-48.723997426253106,47.51346332866642,29.113345045993196,0.0
0.32800000000000024,-2.307105450599446,-48.365101243106814,47.16348382087809,28.89889900364122,0.0
0.33000000000000024,-2.2944001184865477,-48.09875248396883,46.90375242221581,28.739751484205996,0.0
0.33200000000000024,-2.279076714759121,-47.77751967145329,46.590500549141915,28.547809890640842,0.0
0.33400000000000024,-2.2691788198894507,-47.570024739940365,46.38816077120712,28.423828447090898,0.0
0.33600000000000024,-2.259153457297414,-47.35985763351845,46.18321520780207,28.29825033753944,0.0
0.33800000000000024,-2.249301199019702,-47.15331940660257,45.98180836540601,28.17484053984189,0.0
0.34000000000000025,-2.240233680300262,-46.96323210011402,45.79644372491733,28.06126042254875,0.0
0.34200000000000025,-2.2308398861762457,-46.766304905586836,45.604409131496574,27.943593365943077,0.0
0.34400000000000025,-2.221057394182792,-46.56122922707793,45.4044285009011,27.821057463629078,0.0
0.34600000000000025,-2.2121834375602782,-46.37519966767339,45.22302079390428,27.709901913227128,0.0
0.34800000000000025,-2.203210339375924,-46.18709175000631,45.03958636487505,27.597504511490662,0.0
0.35000000000000026,-2.194589744522558,-46.00637355060606,44.86335805862774,27.489522581165804,0.0
0.35200000000000026,-2.173339878542891,-45.560901099729556,44.4289532462827,27.223345874493052,0.0
0.35400000000000026,-2.160685953165761,-45.29563000783882,44.17027274052611,27.064842277972023,0.0
0.35600000000000026,-2.151099646061875,-45.094667059436745,43.97430266040748,26.944763795759123,0.0
0.35800000000000026,-2.1424182024192313,-44.912673253907094,43.796830440108536,26.836019670964404,0.0
0.36000000000000026,-2.1338568826795585,-44.73319767082254,43.62181387772188,26.72878022318346,0.0
0.36200000000000027,-2.1201590858311987,-44.446043335849986,43.34179381194143,26.55720104911914,0.0
0.36400000000000027,-2.111332339476228,-44.26100347085619,43.16135121067433,26.44663685649553,0.0
0.36600000000000027,-2.1034865175690967,-44.096527256396556,43.000961361791475,26.348359764377427,0.0
0.36800000000000027,-2.0955100805884297,-43.92931288740055,42.83790138705638,26.248446582405915,0.0
0.3700000000000003,-2.087202647176433,-43.75515966092484,42.668074948816226,26.144387325344045,0.0
0.3720000000000003,-2.0728701345088827,-43.45469943443018,42.37507957266951,25.964857674482044,0.0
0.3740000000000003,-2.0622032368367886,-43.231083480626836,42.15701929473724,25.831243669787142,0.0
0.3760000000000003,-2.0517519327198075,-43.01198713129918,41.9433663329707,25.70033019894666,0.0
0.3780000000000003,-2.037649176687634,-42.716343417603426,41.65506780470863,25.52367848927258,0.0
0.3800000000000003,-2.02101332752251,-42.36759710046945,41.314985992348454,25.315297149469576,0.0
0.3820000000000003,-2.0085377520449876,-42.10606485413038,41.05995144157082,25.159027571222275,0.0
0.3840000000000003,-1.9972471542827963,-41.86937393750077,40.82914104460921,25.017601073211306,0.0
0.3860000000000003,-1.97567206201561,-41.41708359179476,40.38808772612608,24.74735056850999,0.0
0.3880000000000003,-1.9632164197621613,-41.155969216429106,40.13346066443433,24.59133067465799,0.0
0.3900000000000003,-1.9522683587189218,-40.926459082579605,39.90965264571171,24.454194805860975,0.0
0.3920000000000003,-1.9425671732973475,-40.72308787777807,39.71133414165076,24.332677353054116,0.0
0.3940000000000003,-1.9330343711633438,-40.5232465830415,39.516457848025816,24.213269076323332,0.0
0.3960000000000003,-1.9233573154340693,-40.3203812220499,39.31863262022672,24.092053873047625,0.0
0.3980000000000003,-1.909858850826447,-40.03740559681157,39.0426874453051,23.922971542936295,0.0
0.4000000000000003,-1.8962601955399276,-39.752329620101555,38.76469410155706,23.752634220206488,0.0
0.4020000000000003,-1.8817640206115616,-39.44843845298302,38.46835302554731,23.571054529046243,0.0
0.4040000000000003,-1.8707635037154964,-39.21782865867714,38.243472667125,23.43326159605107,0.0
0.4060000000000003,-1.85972416948834,-38.98640511563355,38.01779877732491,23.29498243554927,0.0
0.4080000000000003,-1.8483061040037827,-38.747042024094945,37.78438259489306,23.151959271536782,0.0
0.4100000000000003,-1.8376795973383642,-38.52427280884301,37.567148018529544,23.01885120627446,0.0
0.4120000000000003,-1.8267740255359133,-38.295653399963165,37.344208594963675,22.882247559477953,0.0
0.4140000000000003,-1.8084632609900666,-37.91179492445721,36.96988697599235,22.652886159827844,0.0
0.4160000000000003,-1.7898020913473445,-37.5205907171027,36.58840212782709,22.41913557133406,0.0
0.4180000000000003,-1.7780467347291182,-37.27415680882962,36.34809080112622,22.271887484527433,0.0
0.4200000000000003,-1.7674527506924516,-37.05206938306063,36.13152107537651,22.139186799067968,0.0
0.4220000000000003,-1.7562848996258724,-36.817951671898925,35.90321995331219,21.999297831280686,0.0
0.4240000000000003,-1.74601456820114,-36.602649151145755,35.69326656350958,21.870651231923837,0.0
0.4260000000000003,-1.7356634547630563,-36.385653153289766,35.48166177056945,21.740992753701832,0.0
0.4280000000000003,-1.725244148716299,-36.1672275968405,35.26866293601972,21.610480092022225,0.0
0.4300000000000003,-1.7157323289234254,-35.96782616628647,35.074215578274654,21.491334640970706,0.0
0.43200000000000033,-1.701646358764156,-35.67253434393677,34.78626019871649,21.314893191840035,0.0
0.43400000000000033,-1.685503594615593,-35.334124835092695,34.456258379533416,21.11268825549969,0.0
0.43600000000000033,-1.6746483804318546,-35.10656110025097,34.23434840207925,20.97671539033341,0.0
0.43800000000000033,-1.6657613098461346,-34.92025662573234,34.05267261015751,20.865395573881923,0.0
0.44000000000000034,-1.6572204478890635,-34.74120991022577,33.87807426025373,20.75841238113826,0.0
0.44200000000000034,-1.6491800147679492,-34.572653955472994,33.71370603108502,20.657697580845,0.0
0.44400000000000034,-1.6364390126751291,-34.30555742722468,33.45324544142694,20.498103257755034,0.0
0.44600000000000034,-1.6277764531395027,-34.123959499459325,33.27615926341988,20.38959567607165,0.0
0.44800000000000034,-1.6184555726509144,-33.92856083296649,33.085615222181694,20.27284193870142,0.0
0.45000000000000034,-1.609909989667089,-33.74941514801885,32.910920361704946,20.16579961017992,0.0
0.45200000000000035,-1.60225300883013,-33.58889771120216,32.75439093574097,20.069887949175175,0.0
0.45400000000000035,-1.5870932673635196,-33.271095839310505,32.44448476253012,19.879996395908265,0.0
0.45600000000000035,-1.576353456055998,-33.045951357472795,32.22493393241527,19.74546907197793,0.0
0.45800000000000035,-1.5665043451294554,-32.8394791101843,32.02359143040119,19.62209869813227,0.0
0.46000000000000035,-1.5535078830333744,-32.56702723551344,31.757908546405616,19.459304472397285,0.0
0.46200000000000035,-1.5383266346671054,-32.24877450283468,31.447562713917886,19.26914352280913,0.0
0.46400000000000036,-1.524203945410858,-31.952712918165513,31.158856696569938,19.092242128739752,0.0
0.46600000000000036,-1.5137610342303291,-31.733792514510878,30.945375309155345,18.961433788170975,0.0
0.46800000000000036,-1.5032000973809427,-31.5123978748294,30.729481157416448,18.829147053156348,0.0
0.47000000000000036,-1.4927556125248294,-31.29344448136107,30.515967599810867,18.698319000661623,0.0
0.47200000000000036,-1.4728208147755006,-30.87554051812583,30.108446343737093,18.448614893436627,0.0
0.47400000000000037,-1.4608629785653675,-30.624861920491156,29.863995785795414,18.298830538825122,0.0
0.47600000000000037,-1.449798990087383,-30.392921537033068,29.637817896336475,18.160242558150184,0.0
0.47800000000000037,-1.4398208377628896,-30.183744125021892,29.43383743866115,18.035255806377062,0.0
0.48000000000000037,-1.429959137431669,-29.97700795922386,29.232237575119143,17.911727737123847,0.0
0.4820000000000004,-1.4160966292054367,-29.686400690418303,28.94885036268166,17.73808538147732,0.0
0.4840000000000004,-1.4035350261292803,-29.42306500093078,28.692057174796528,17.580738217945044,0.0
0.4860000000000004,-1.3896546829130871,-29.13208384757005,28.408305366861153,17.406872460471142,0.0
0.4880000000000004,-1.375708245322334,-28.839717122034298,28.123202410904163,17.232178802107565,0.0
0.4900000000000004,-1.3611506970461618,-28.5345393521818,27.825606697445767,17.049830345835478,0.0
0.4920000000000004,-1.3491126033812053,-28.282178274048874,27.57951545976356,16.899040683000795,0.0
0.4940000000000004,-1.3361308289239155,-28.010034304305808,27.3141328308839,16.736430435241296,0.0
0.4960000000000004,-1.3219142436911102,-27.712004327419734,27.0235073254735,16.55835289625722,0.0
0.4980000000000004,-1.3100524016916477,-27.46333810842022,26.781019149182253,16.40977096912834,0.0
0.5000000000000003,-1.2748739331111878,-26.725872816563133,26.06187597637812,15.96912400591938,0.0
0.5020000000000003,-1.2605188644269227,-26.424939736072233,25.768419494160533,15.789311817452171,0.0
0.5040000000000003,-1.248907761403967,-26.18152989405418,25.531057101633813,15.643870657190472,0.0
0.5060000000000003,-1.237333377477989,-25.938889814355587,25.294445346896875,15.498889441867483,0.0
0.5080000000000003,-1.2267881773844502,-25.717825072811024,25.078872897067885,15.366799826112302,0.0
0.5100000000000003,-1.2170308642003527,-25.513277231321176,24.879406989528263,15.244579314613416,0.0
0.5120000000000003,-1.2063665893208997,-25.289716260540647,24.661400328580974,15.110998163128423,0.0
0.5140000000000003,-1.1882719428886948,-24.910388386114953,24.29149674917238,14.884343867974717,0.0
0.5160000000000003,-1.175242958163862,-24.637254721961153,24.025149014563,14.721142262436878,0.0
0.5180000000000003,-1.1635589415054783,-24.392316351908743,23.786296069853705,14.574787782939742,0.0
0.5200000000000004,-1.154143640481804,-24.194938296594444,23.593821817156073,14.45685133001283,0.0
0.5220000000000004,-1.1454648196318016,-24.01299947408761,23.416403213842106,14.348140058428019,0.0
0.5240000000000004,-1.1335568164818526,-23.76336555388649,23.17297137861513,14.19897991480476,0.0
0.5260000000000004,-1.122238417117664,-23.526091817214997,22.94159264161269,14.057205172768768,0.0
0.5280000000000004,-1.1139792430902666,-23.352950278359145,22.772752755896256,13.9537504147692,0.0
0.5300000000000004,-1.1048288441233618,-23.161125508349528,22.585693818682067,13.839132136042972,0.0
0.5320000000000004,-1.0876621417276422,-22.801250627397064,22.234759928561015,13.624101306554635,0.0
0.5340000000000004,-1.0721388812009502,-22.47582810854275,21.9174224412313,13.429656298394507,0.0
0.5360000000000004,-1.056899931396573,-22.156365749361974,21.605897035073912,13.23877257818838,0.0
0.5380000000000004,-1.044419110333768,-21.894723536977267,21.350755250326305,13.082437293521265,0.0
0.5400000000000004,-1.0321203110802681,-21.63689714637617,21.099334484336627,12.928382021621749,0.0
0.5420000000000004,-1.0233218908858233,-21.45245109802881,20.919470946507367,12.818172643665143,0.0
0.5440000000000004,-1.0136165089960232,-21.248991920390772,20.72106665527044,12.69660262572243,0.0
0.5460000000000004,-1.0036971072266943,-21.04104612809073,20.51828721805877,12.572351785851245,0.0
0.5480000000000004,-0.9947082722864923,-20.85260831228674,20.33453108711963,12.459757264855334,0.0
0.5500000000000004,-0.9794247350072134,-20.53221124171805,20.022094192217505,12.268315040080775,0.0
0.5520000000000004,-0.9671217392854874,-20.274296878280442,19.77058763905185,12.114207203045408,0.0
0.5540000000000004,-0.95533963018232,-20.027302143174616,19.529729419104136,11.966624013497723,0.0
0.5560000000000004,-0.9451039196204526,-19.812725398322648,19.320483773503327,11.838411076511658,0.0
0.5580000000000004,-0.9344223343095671,-19.58880153959152,19.10212324045514,11.704613093841274,0.0
0.5600000000000004,-0.9229444691527885,-19.348184835132653,18.867484590765635,11.56084087664289,0.0
0.5620000000000004,-0.9083454807528842,-19.04213833351962,18.569041728944484,11.37797333965426,0.0
0.5640000000000004,-0.8937538361723755,-18.73624578437048,18.27074899468129,11.19519779165337,0.0
0.5660000000000004,-0.8815510311295465,-18.480431772404547,18.02129061034205,11.04234494723648,0.0
0.5680000000000004,-0.8699892366082468,-18.238055611215486,17.784936217133037,10.897521427321047,0.0
0.5700000000000004,-0.8598542412838046,-18.025590214439756,17.577749463755637,10.770570053595442,0.0
0.5720000000000004,-0.8501661698254368,-17.82249392475232,17.379699044619606,10.64921686683812,0.0
0.5740000000000004,-0.8402882081798402,-17.61541686421281,17.177766755770694,10.525485107683476,0.0
0.5760000000000004,-0.8302775332265948,-17.405557662718685,16.973121447481564,10.4000909761075,0.0
0.5780000000000004,-0.8209041968851809,-17.20905933576948,16.781505066543684,10.282680174539111,0.0
0.5800000000000004,-0.7879136619260784,-16.51746088154769,16.107089182613684,9.869439359035214,0.0
0.5820000000000004,-0.7756683676424606,-16.260756144612095,15.856762203117691,9.716054292617818,0.0
0.5840000000000004,-0.7646054282815328,-16.028837754363135,15.630605760452747,9.577479453226843,0.0
0.5860000000000004,-0.7544667610473927,-15.816295381355458,15.423343943296366,9.450482085007366,0.0
0.5880000000000004,-0.7457491228662994,-15.633542810110912,15.245131808604631,9.34128458591592,0.0
0.5900000000000004,-0.7359860395383909,-15.428874005970862,15.045547943698043,9.218991797355237,0.0
0.5920000000000004,-0.7255342108628818,-15.209766660038643,14.831884258534505,9.088071755872772,0.0
0.5940000000000004,-0.7165532443006037,-15.021493793303106,14.648288978550317,8.975575794506586,0.0
0.5960000000000004,-0.7079919245609307,-14.842018210218551,14.473272416163661,8.868336346725643,0.0
0.5980000000000004,-0.6990980347143432,-14.655570779840593,14.291457220080963,8.756931111928393,0.0
0.6000000000000004,-0.6803351007171394,-14.262233231200714,13.907892032898298,8.521905818890188,0.0
0.6020000000000004,-0.6701932861318299,-14.049624878565655,13.700565875359937,8.394869026818823,0.0
0.6040000000000004,-0.6611986810478171,-13.861066100111463,13.516691787053828,8.282202228761115,0.0
0.6060000000000004,-0.6532715525688062,-13.694885411944451,13.354639811636444,8.18290668713587,0.0
0.6080000000000004,-0.6455652632301911,-13.533334294298767,13.19710238635476,8.08637738578486,0.0
0.6100000000000004,-0.6380336518814855,-13.375445045972803,13.04313585227305,7.992036108213707,0.0
0.6120000000000004,-0.6235783925183235,-13.072411614010234,12.747631201229055,7.810968927128023,0.0
0.6140000000000004,-0.615500715741703,-12.903074900333433,12.582501610873555,7.709787611254073,0.0
0.6160000000000004,-0.6075541785971464,-12.736487337797563,12.420052869767284,7.610248955875511,0.0
0.6180000000000004,-0.5961691602998692,-12.497817032346475,12.187312261346234,7.4676397423078615,0.0
0.6200000000000004,-0.5808698862647426,-12.177090063640872,11.8745536645342,7.276000398273856,0.0
0.6220000000000004,-0.5709798597729961,-11.969760081196402,11.67237473755436,7.1521175143536375,0.0
0.6240000000000004,-0.5604603630473419,-11.74923417327546,11.45732773417822,7.0203498600555525,0.0
0.6260000000000004,-0.5477623747538388,-11.48303936660137,11.197746463073889,6.861294329608074,0.0
0.6280000000000004,-0.5323901870832846,-11.160783869861408,10.883497314079285,6.668741666338633,0.0
0.6300000000000004,-0.520714038802825,-10.916010448877453,10.644805220324947,6.522485746471222,0.0
0.6320000000000005,-0.5098074178833176,-10.687369046788483,10.421844349965083,6.38586895839075,0.0
0.6340000000000005,-0.48942779450202756,-10.260139962883203,10.005229653237926,6.130592946765395,0.0
0.6360000000000005,-0.4766301400881558,-9.991855801342005,9.743610936704181,5.970288994341421,0.0
0.6380000000000005,-0.4646890897509267,-9.74152909505337,9.499503527466402,5.820714900273325,0.0
0.6400000000000005,-0.4549663974296941,-9.537707029464727,9.300745364128575,5.698928051145221,0.0
0.6420000000000005,-0.44491428235271635,-9.326979096210064,9.095252907476686,5.573014838852702,0.0
0.6440000000000005,-0.4352335547137442,-9.12403675898652,8.897352615898614,5.451753641083122,0.0
0.6460000000000005,-0.42647447640891856,-8.940415455981439,8.718293332844121,5.342037061275133,0.0
0.6480000000000005,-0.41625869907112484,-8.726256582102895,8.509455176329196,5.214073808684367,0.0
0.6500000000000005,-0.40672327414447973,-8.526360304343502,8.314525265719269,5.094632678743679,0.0
0.6520000000000005,-0.39670577993036693,-8.316358146990046,8.109740553269177,4.969153128821941,0.0
0.6540000000000005,-0.3854875712450752,-8.081184761790224,7.880409985093145,4.828633379404427,0.0
0.6560000000000005,-0.3749953515628904,-7.861230677306596,7.665920598360844,4.6972073984893825,0.0
0.6580000000000005,-0.3658265930474965,-7.669021026137247,7.478486342251761,4.5823591472938,0.0
0.6600000000000005,-0.35670714303375867,-7.477845055796888,7.292060085460387,4.468128536444484,0.0
0.6620000000000005,-0.324810837164599,-6.809185518695026,6.6400132076659535,4.068594080114109,0.0
0.6640000000000005,-0.3141303009707701,-6.585283653173021,6.42167412141176,3.934809238727687,0.0
0.6660000000000005,-0.30548977289333046,-6.404147582799343,6.245038326078571,3.826577624007529,0.0
0.6680000000000005,-0.2967831504413304,-6.221625940250636,6.06705138272377,3.7175181083976954,0.0
0.6700000000000005,-0.28857433403264576,-6.049540075432903,5.899240943119042,3.6146941320283563,0.0
0.6720000000000005,-0.2802406726942361,-5.874837018729004,5.728878335029048,3.5103063428674073,0.0
0.6740000000000005,-0.2712896059680686,-5.687190958453601,5.545894288673685,3.3981849080941693,0.0
0.6760000000000005,-0.26167130079395895,-5.48555721717314,5.349270081338245,3.277705616720395,0.0
0.6780000000000005,-0.2446860956490162,-5.129487161399724,5.002046486578126,3.0649482293576753,0.0
0.6800000000000005,-0.23414666569928827,-4.9085433825053615,4.786591994116103,2.9329308906642915,0.0
0.6820000000000005,-0.22597876485580762,-4.7373152528436,4.619617979477135,2.8306194243695137,0.0
0.6840000000000005,-0.21861658591172883,-4.58297790779172,4.469115102625428,2.7384004641584028,0.0
0.6860000000000005,-0.2113656133756404,-4.430971842907349,4.3208855859370665,2.6475744800473815,0.0
0.6880000000000005,-0.20378574264233518,-4.272070906961523,4.165932499331641,2.5526287034139257,0.0
0.6900000000000005,-0.19197216002747242,-4.024416375581872,3.9244308755641097,2.4046512753473475,0.0
0.6920000000000005,-0.18438914194299766,-3.8654494600086635,3.7694134485767017,2.3096660748620024,0.0
0.6940000000000005,-0.17703325770125794,-3.7112440742115482,3.619039252488958,2.21752596235467,0.0
0.6960000000000005,-0.1692404162054806,-3.5478785168128497,3.459732466702784,2.1199125050767034,0.0
0.6980000000000005,-0.15857876411866895,-3.324372529055139,3.2417794227404793,1.9863642068016176,0.0
0.7000000000000005,-0.146502902239678,-3.071219695393626,2.9949161004744913,1.8351014577442624,0.0
0.7020000000000005,-0.13637629985168787,-2.858930244290915,2.7879009214490407,1.7082552142903618,0.0
0.7040000000000005,-0.123060906170427,-2.57979243404532,2.5156982120793416,1.5414660382305942,0.0
0.7060000000000005,-0.11375628699621469,-2.384734662293966,2.3254865961480573,1.4249159907617888,0.0
0.7080000000000005,-0.09943059358953196,-2.0844173916586364,2.0326306241622993,1.2454717582455481,0.0
0.7100000000000005,-0.09032740489017012,-1.8935823160597527,1.8465367926778307,1.1314448372976595,0.0
0.7120000000000005,-0.08157514584621181,-1.7101039689140012,1.6676169137842982,1.0218136758354306,0.0
0.7140000000000005,-0.07235917706327483,-1.5169046233339167,1.4792175519454926,0.9063740668615078,0.0
0.7160000000000005,-0.060746500364734286,-1.2734617915021729,1.241822989227781,0.7609131946738646,0.0
0.7180000000000005,-0.046324812747380636,-0.9711321422316816,0.9470046355915874,0.5802665346749997,0.0
0.7200000000000005,-0.03406168347380214,-0.7140535207409188,0.6963130605977007,0.42665806643022947,0.0
0.7220000000000005,-0.024762834443400644,-0.5191167116397658,0.5062194020333824,0.31018029602322117,0.0
0.7240000000000005,-0.016080866242228698,-0.3371119095055534,0.32873645833743664,0.2014296005865204,0.0
0.7260000000000005,-0.006516066038001203,-0.13659982189059186,0.13320603749568236,0.08162051469486419,0.0
0.7280000000000005,-0.010935374852720312,-0.14166468664870602,0.18996869809787512,0.14189110251414527,3.7632174010539684e-06
0.7300000000000005,-0.010935374852720312,-0.14166468664870602,0.18996869809787512,0.14189110251414527,3.7632174010539684e-06
0.7320000000000005,-0.010935374852720312,-0.14166468664870602,0.18996869809787512,0.14189110251414527,3.7632174010539684e-06
0.7340000000000005,-0.010935374852720312,-0.14166468664870602,0.18996869809787512,0.14189110251414527,3.7632174010539684e-06
0.7360000000000005,-0.010935374852720312,-0.14166468664870602,0.18996869809787512,0.14189110251414527,3.7632174010539684e-06
0.7380000000000005,-0.010935374852720312,-0.14166468664870602,0.18996869809787512,0.14189110251414527,3.7632174010539684e-06
0.7400000000000005,-0.010935374852720312,-0.14166468664870602,0.18996869809787512,0.14189110251414527,3.7632174010539684e-06
0.7420000000000005,-0.010935374852720312,-0.14166468664870602,0.18996869809787512,0.14189110251414527,3.7632174010539684e-06
0.7440000000000005,-0.010935374852720312,-0.14166468664870602,0.18996869809787512,0.14189110251414527,3.7632174010539684e-06
0.7460000000000006,-0.010935374852720312,-0.14166468664870602,0.18996869809787512,0.14189110251414527,3.7632174010539684e-06
0.7480000000000006,-0.010935374852720312,-0.14166468664870602,0.18996869809787512,0.14189110251414527,3.7632174010539684e-06
0.7500000000000006,-0.010935374852720312,-0.14166468664870602,0.18996869809787512,0.14189110251414527,3.7632174010539684e-06
0.7520000000000006,-0.010935374852720312,-0.14166468664870602,0.18996869809787512,0.14189110251414527,3.7632174010539684e-06
0.7540000000000006,-0.010935374852720312,-0.14166468664870602,0.18996869809787512,0.14189110251414527,3.7632174010539684e-06
0.7560000000000006,-0.010935374852720312,-0.14166468664870602,0.18996869809787512,0.14189110251414527,3.7632174010539684e-06
0.7580000000000006,-0.010935374852720312,-0.14166468664870602,0.18996869809787512,0.14189110251414527,3.7632174010539684e-06
0.7600000000000006,-0.010935374852720312,-0.14166468664870602,0.18996869809787512,0.14189110251414527,3.7632174010539684e-06
0.7620000000000006,-0.010935374852720312,-0.14166468664870602,0.18996869809787512,0.14189110251414527,3.7632174010539684e-06
0.7640000000000006,-0.010935374852720312,-0.14166468664870602,0.18996869809787512,0.14189110251414527,3.7632174010539684e-06
0.7660000000000006,-0.010935374852720312,-0.14166468664870602,0.18996869809787512,0.14189110251414527,3.7632174010539684e-06
0.7680000000000006,-0.010935374852720312,-0.14166468664870602,0.18996869809787512,0.14189110251414527,3.7632174010539684e-06
0.7700000000000006,-0.010935374852720312,-0.14166468664870602,0.18996869809787512,0.14189110251414527,3.7632174010539684e-06
0.7720000000000006,-0.010935374852720312,-0.14166468664870602,0.18996869809787512,0.14189110251414527,3.7632174010539684e-06
0.7740000000000006,-0.010935374852720312,-0.14166468664870602,0.18996869809787512,0.14189110251414527,3.7632174010539684e-06
0.7760000000000006,-0.010935374852720312,-0.14166468664870602,0.18996869809787512,0.14189110251414527,3.7632174010539684e-06
0.7780000000000006,-0.010935374852720312,-0.14166468664870602,0.18996869809787512,0.14189110251414527,3.7632174010539684e-06
0.7800000000000006,-0.010935374852720312,-0.14166468664870602,0.18996869809787512,0.14189110251414527,3.7632174010539684e-06
0.7820000000000006,-0.010935374852720312,-0.14166468664870602,0.18996869809787512,0.14189110251414527,3.7632174010539684e-06
0.7840000000000006,-0.010935374852720312,-0.14166468664870602,0.18996869809787512,0.14189110251414527,3.7632174010539684e-06
0.7860000000000006,-0.010935374852720312,-0.14166468664870602,0.18996869809787512,0.14189110251414527,3.7632174010539684e-06
0.7880000000000006,-0.010935374852720312,-0.14166468664870602,0.18996869809787512,0.14189110251414527,3.7632174010539684e-06
0.7900000000000006,-0.010935374852720312,-0.14166468664870602,0.18996869809787512,0.14189110251414527,3.7632174010539684e-06
0.7920000000000006,-0.010935374852720312,-0.14166468664870602,0.18996869809787512,0.14189110251414527,3.7632174010539684e-06
0.7940000000000006,-0.010935374852720312,-0.14166468664870602,0.18996869809787512,0.14189110251414527,3.7632174010539684e-06
0.7960000000000006,-0.010935374852720312,-0.14166468664870602,0.18996869809787512,0.14189110251414527,3.7632174010539684e-06
0.7980000000000006,-0.010935374852720312,-0.14166468664870602,0.18996869809787512,0.14189110251414527,3.7632174010539684e-06
0.8000000000000006,-0.010935374852720312,-0.14166468664870602,0.18996869809787512,0.14189110251414527,3.7632174010539684e-06
0.8020000000000006,-0.010935374852720312,-0.14166468664870602,0.18996869809787512,0.14189110251414527,3.7632174010539684e-06
0.8040000000000006,-0.010935374852720312,-0.14166468664870602,0.18996869809787512,0.14189110251414527,3.7632174010539684e-06
0.8060000000000006,-0.010935374852720312,-0.14166468664870602,0.18996869809787512,0.14189110251414527,3.7632174010539684e-06
0.8080000000000006,-0.010935374852720312,-0.14166468664870602,0.18996869809787512,0.14189110251414527,3.7632174010539684e-06
0.8100000000000006,-0.010935374852720312,-0.14166468664870602,0.18996869809787512,0.14189110251414527,3.7632174010539684e-06
0.8120000000000006,-0.010935374852720312,-0.14166468664870602,0.18996869809787512,0.14189110251414527,3.7632174010539684e-06
0.8140000000000006,-0.010935374852720312,-0.14166468664870602,0.18996869809787512,0.14189110251414527,3.7632174010539684e-06
0.8160000000000006,-0.010935374852720312,-0.14166468664870602,0.18996869809787512,0.14189110251414527,3.7632174010539684e-06
0.8180000000000006,-0.010935374852720312,-0.14166468664870602,0.18996869809787512,0.14189110251414527,3.7632174010539684e-06
0.8200000000000006,-0.010935374852720312,-0.14166468664870602,0.18996869809787512,0.14189110251414527,3.7632174010539684e-06
0.8220000000000006,-0.010935374852720312,-0.14166468664870602,0.18996869809787512,0.14189110251414527,3.7632174010539684e-06
0.8240000000000006,-0.010935374852720312,-0.14166468664870602,0.18996869809787512,0.14189110251414527,3.7632174010539684e-06
0.8260000000000006,-0.010935374852720312,-0.14166468664870602,0.18996869809787512,0.14189110251414527,3.7632174010539684e-06
0.8280000000000006,-0.010935374852720312,-0.14166468664870602,0.18996869809787512,0.14189110251414527,3.7632174010539684e-06
0.8300000000000006,-0.010935374852720312,-0.14166468664870602,0.18996869809787512,0.14189110251414527,3.7632174010539684e-06
0.8320000000000006,-0.010935374852720312,-0.14166468664870602,0.18996869809787512,0.14189110251414527,3.7632174010539684e-06
0.8340000000000006,-0.010935374852720312,-0.14166468664870602,0.18996869809787512,0.14189110251414527,3.7632174010539684e-06
0.8360000000000006,-0.010935374852720312,-0.14166468664870602,0.18996869809787512,0.14189110251414527,3.7632174010539684e-06
0.8380000000000006,-0.010935374852720312,-0.14166468664870602,0.18996869809787512,0.14189110251414527,3.7632174010539684e-06
0.8400000000000006,-0.010935374852720312,-0.14166468664870602,0.18996869809787512,0.14189110251414527,3.7632174010539684e-06
0.8420000000000006,-0.010935374852720312,-0.14166468664870602,0.18996869809787512,0.14189110251414527,3.7632174010539684e-06
0.8440000000000006,-0.010935374852720312,-0.14166468664870602,0.18996869809787512,0.14189110251414527,3.7632174010539684e-06
0.8460000000000006,-0.010935374852720312,-0.14166468664870602,0.18996869809787512,0.14189110251414527,3.7632174010539684e-06
0.8480000000000006,-0.010935374852720312,-0.14166468664870602,0.18996869809787512,0.14189110251414527,3.7632174010539684e-06
0.8500000000000006,-0.010935374852720312,-0.14166468664870602,0.18996869809787512,0.14189110251414527,3.7632174010539684e-06
0.8520000000000006,-0.010935374852720312,-0.14166468664870602,0.18996869809787512,0.14189110251414527,3.7632174010539684e-06
0.8540000000000006,-0.010935374852720312,-0.14166468664870602,0.18996869809787512,0.14189110251414527,3.7632174010539684e-06
0.8560000000000006,-0.010935374852720312,-0.14166468664870602,0.18996869809787512,0.14189110251414527,3.7632174010539684e-06
0.8580000000000007,-0.010935374852720312,-0.14166468664870602,0.18996869809787512,0.14189110251414527,3.7632174010539684e-06
0.8600000000000007,-0.010935374852720312,-0.14166468664870602,0.18996869809787512,0.14189110251414527,3.7632174010539684e-06
0.8620000000000007,-0.010935374852720312,-0.14166468664870602,0.18996869809787512,0.14189110251414527,3.7632174010539684e-06
0.8640000000000007,-0.010935374852720312,-0.14166468664870602,0.18996869809787512,0.14189110251414527,3.7632174010539684e-06
0.8660000000000007,-0.010935374852720312,-0.14166468664870602,0.18996869809787512,0.14189110251414527,3.7632174010539684e-06
0.8680000000000007,-0.010935374852720312,-0.14166468664870602,0.18996869809787512,0.14189110251414527,3.7632174010539684e-06
0.8700000000000007,-0.010935374852720312,-0.14166468664870602,0.18996869809787512,0.14189110251414527,3.7632174010539684e-06
0.8720000000000007,-0.010935374852720312,-0.14166468664870602,0.18996869809787512,0.14189110251414527,3.7632174010539684e-06
0.8740000000000007,-0.010935374852720312,-0.14166468664870602,0.18996869809787512,0.14189110251414527,3.7632174010539684e-06
0.8760000000000007,-0.010935374852720312,-0.14166468664870602,0.18996869809787512,0.14189110251414527,3.7632174010539684e-06
0.8780000000000007,-0.010935374852720312,-0.14166468664870602,0.18996869809787512,0.14189110251414527,3.7632174010539684e-06
0.8800000000000007,-0.010935374852720312,-0.14166468664870602,0.18996869809787512,0.14189110251414527,3.7632174010539684e-06
0.8820000000000007,-0.010935374852720312,-0.14166468664870602,0.18996869809787512,0.14189110251414527,3.7632174010539684e-06
0.8840000000000007,-0.010935374852720312,-0.14166468664870602,0.18996869809787512,0.14189110251414527,3.7632174010539684e-06
0.8860000000000007,-0.010935374852720312,-0.14166468664870602,0.18996869809787512,0.14189110251414527,3.7632174010539684e-06
0.8880000000000007,-0.010935374852720312,-0.14166468664870602,0.18996869809787512,0.14189110251414527,3.7632174010539684e-06
0.8900000000000007,-0.010935374852720312,-0.14166468664870602,0.18996869809787512,0.14189110251414527,3.7632174010539684e-06
0.8920000000000007,-0.010935374852720312,-0.14166468664870602,0.18996869809787512,0.14189110251414527,3.7632174010539684e-06
0.8940000000000007,-0.010935374852720312,-0.14166468664870602,0.18996869809787512,0.14189110251414527,3.7632174010539684e-06
0.8960000000000007,-0.010935374852720312,-0.14166468664870602,0.18996869809787512,0.14189110251414527,3.7632174010539684e-06
0.8980000000000007,-0.010935374852720312,-0.14166468664870602,0.18996869809787512,0.14189110251414527,3.7632174010539684e-06
0.9000000000000007,-0.010935374852720312,-0.14166468664870602,0.18996869809787512,0.14189110251414527,3.7632174010539684e-06
0.9020000000000007,-0.010935374852720312,-0.14166468664870602,0.18996869809787512,0.14189110251414527,3.7632174010539684e-06
0.9040000000000007,-0.010935374852720312,-0.14166468664870602,0.18996869809787512,0.14189110251414527,3.7632174010539684e-06
0.9060000000000007,-0.010935374852720312,-0.14166468664870602,0.18996869809787512,0.14189110251414527,3.7632174010539684e-06
0.9080000000000007,-0.010935374852720312,-0.14166468664870602,0.18996869809787512,0.14189110251414527,3.7632174010539684e-06
0.9100000000000007,-0.010935374852720312,-0.14166468664870602,0.18996869809787512,0.14189110251414527,3.7632174010539684e-06
0.9120000000000007,-0.010935374852720312,-0.14166468664870602,0.18996869809787512,0.14189110251414527,3.7632174010539684e-06
0.9140000000000007,-0.010935374852720312,-0.14166468664870602,0.18996869809787512,0.14189110251414527,3.7632174010539684e-06
0.9160000000000007,-0.010935374852720312,-0.14166468664870602,0.18996869809787512,0.14189110251414527,3.7632174010539684e-06
0.9180000000000007,-0.010935374852720312,-0.14166468664870602,0.18996869809787512,0.14189110251414527,3.7632174010539684e-06
0.9200000000000007,-0.010935374852720312,-0.14166468664870602,0.18996869809787512,0.14189110251414527,3.7632174010539684e-06
0.9220000000000007,-0.010935374852720312,-0.14166468664870602,0.18996869809787512,0.14189110251414527,3.7632174010539684e-06
0.9240000000000007,-0.010935374852720312,-0.14166468664870602,0.18996869809787512,0.14189110251414527,3.7632174010539684e-06
0.9260000000000007,-0.010935374852720312,-0.14166468664870602,0.18996869809787512,0.14189110251414527,3.7632174010539684e-06
0.9280000000000007,-0.010935374852720312,-0.14166468664870602,0.18996869809787512,0.14189110251414527,3.7632174010539684e-06
0.9300000000000007,-0.010935374852720312,-0.14166468664870602,0.18996869809787512,0.14189110251414527,3.7632174010539684e-06
0.9320000000000007,-0.010935374852720312,-0.14166468664870602,0.18996869809787512,0.14189110251414527,3.7632174010539684e-06
0.9340000000000007,-0.010935374852720312,-0.14166468664870602,0.18996869809787512,0.14189110251414527,3.7632174010539684e-06
0.9360000000000007,-0.010935374852720312,-0.14166468664870602,0.18996869809787512,0.14189110251414527,3.7632174010539684e-06
0.9380000000000007,-0.010935374852720312,-0.14166468664870602,0.18996869809787512,0.14189110251414527,3.7632174010539684e-06
0.9400000000000007,-0.010935374852720312,-0.14166468664870602,0.18996869809787512,0.14189110251414527,3.7632174010539684e-06
0.9420000000000007,-0.010935374852720312,-0.14166468664870602,0.18996869809787512,0.14189110251414527,3.7632174010539684e-06
0.9440000000000007,-0.010935374852720312,-0.14166468664870602,0.18996869809787512,0.14189110251414527,3.7632174010539684e-06
0.9460000000000007,-0.010935374852720312,-0.14166468664870602,0.18996869809787512,0.14189110251414527,3.7632174010539684e-06
0.9480000000000007,-0.010935374852720312,-0.14166468664870602,0.18996869809787512,0.14189110251414527,3.7632174010539684e-06
0.9500000000000007,-0.010935374852720312,-0.14166468664870602,0.18996869809787512,0.14189110251414527,3.7632174010539684e-06
0.9520000000000007,-0.010935374852720312,-0.14166468664870602,0.18996869809787512,0.14189110251414527,3.7632174010539684e-06
0.9540000000000007,-0.010935374852720312,-0.14166468664870602,0.18996869809787512,0.14189110251414527,3.7632174010539684e-06
0.9560000000000007,-0.010935374852720312,-0.14166468664870602,0.18996869809787512,0.14189110251414527,3.7632174010539684e-06
0.9580000000000007,-0.010935374852720312,-0.14166468664870602,0.18996869809787512,0.14189110251414527,3.7632174010539684e-06
0.9600000000000007,-0.010935374852720312,-0.14166468664870602,0.18996869809787512,0.14189110251414527,3.7632174010539684e-06
0.9620000000000007,-0.010935374852720312,-0.14166468664870602,0.18996869809787512,0.14189110251414527,3.7632174010539684e-06
0.9640000000000007,-0.010935374852720312,-0.14166468664870602,0.18996869809787512,0.14189110251414527,3.7632174010539684e-06
0.9660000000000007,-0.010935374852720312,-0.14166468664870602,0.18996869809787512,0.14189110251414527,3.7632174010539684e-06
0.9680000000000007,-0.010935374852720312,-0.14166468664870602,0.18996869809787512,0.14189110251414527,3.7632174010539684e-06
0.9700000000000008,-0.010935374852720312,-0.14166468664870602,0.18996869809787512,0.14189110251414527,3.7632174010539684e-06
0.9720000000000008,-0.010935374852720312,-0.14166468664870602,0.18996869809787512,0.14189110251414527,3.7632174010539684e-06
0.9740000000000008,-0.010935374852720312,-0.14166468664870602,0.18996869809787512,0.14189110251414527,3.7632174010539684e-06
0.9760000000000008,-0.010935374852720312,-0.14166468664870602,0.18996869809787512,0.14189110251414527,3.7632174010539684e-06
0.9780000000000008,-0.010935374852720312,-0.14166468664870602,0.18996869809787512,0.14189110251414527,3.7632174010539684e-06
0.9800000000000008,-0.010935374852720312,-0.14166468664870602,0.18996869809787512,0.14189110251414527,3.7632174010539684e-06
0.9820000000000008,-0.010935374852720312,-0.14166468664870602,0.18996869809787512,0.14189110251414527,3.7632174010539684e-06
0.9840000000000008,-0.010935374852720312,-0.14166468664870602,0.18996869809787512,0.14189110251414527,3.7632174010539684e-06
0.9860000000000008,-0.010935374852720312,-0.14166468664870602,0.18996869809787512,0.14189110251414527,3.7632174010539684e-06
0.9880000000000008,-0.010935374852720312,-0.14166468664870602,0.18996869809787512,0.14189110251414527,3.7632174010539684e-06
0.9900000000000008,-0.010935374852720312,-0.14166468664870602,0.18996869809787512,0.14189110251414527,3.7632174010539684e-06
0.9920000000000008,-0.010935374852720312,-0.14166468664870602,0.18996869809787512,0.14189110251414527,3.7632174010539684e-06
0.9940000000000008,-0.010935374852720312,-0.14166468664870602,0.18996869809787512,0.14189110251414527,3.7632174010539684e-06
0.9960000000000008,-0.010935374852720312,-0.14166468664870602,0.18996869809787512,0.14189110251414527,3.7632174010539684e-06
0.9980000000000008,-0.010935374852720312,-0.14166468664870602,0.18996869809787512,0.14189110251414527,3.7632174010539684e-06
1.0000000000000007,-0.010935374852720312,-0.14166468664870602,0.18996869809787512,0.14189110251414527,3.7632174010539684e-06
1.0020000000000007,-0.010935374852720312,-0.14166468664870602,0.18996869809787512,0.14189110251414527,3.7632174010539684e-06
1.0040000000000007,-0.010935374852720312,-0.14166468664870602,0.18996869809787512,0.14189110251414527,3.7632174010539684e-06
1.0060000000000007,-0.010935374852720312,-0.14166468664870602,0.18996869809787512,0.14189110251414527,3.7632174010539684e-06
1.0080000000000007,-0.010935374852720312,-0.14166468664870602,0.18996869809787512,0.14189110251414527,3.7632174010539684e-06
1.0100000000000007,-0.010935374852720312,-0.14166468664870602,0.18996869809787512,0.14189110251414527,3.7632174010539684e-06
1.0120000000000007,-0.010935374852720312,-0.14166468664870602,0.18996869809787512,0.14189110251414527,3.7632174010539684e-06
1.0140000000000007,-0.010935374852720312,-0.14166468664870602,0.18996869809787512,0.14189110251414527,3.7632174010539684e-06
1.0160000000000007,-0.010935374852720312,-0.14166468664870602,0.18996869809787512,0.14189110251414527,3.7632174010539684e-06
1.0180000000000007,-0.010935374852720312,-0.14166468664870602,0.18996869809787512,0.14189110251414527,3.7632174010539684e-06
1.0200000000000007,-0.010935374852720312,-0.14166468664870602,0.18996869809787512,0.14189110251414527,3.7632174010539684e-06
1.0220000000000007,-0.010935374852720312,-0.14166468664870602,0.18996869809787512,0.14189110251414527,3.7632174010539684e-06
1.0240000000000007,-0.010935374852720312,-0.14166468664870602,0.18996869809787512,0.14189110251414527,3.7632174010539684e-06
1.0260000000000007,-0.010935374852720312,-0.14166468664870602,0.18996869809787512,0.14189110251414527,3.7632174010539684e-06
1.0280000000000007,-0.010935374852720312,-0.14166468664870602,0.18996869809787512,0.14189110251414527,3.7632174010539684e-06
1.0300000000000007,-0.010935374852720312,-0.14166468664870602,0.18996869809787512,0.14189110251414527,3.7632174010539684e-06
1.0320000000000007,-0.010935374852720312,-0.14166468664870602,0.18996869809787512,0.14189110251414527,3.7632174010539684e-06
1.0340000000000007,-0.010935374852720312,-0.14166468664870602,0.18996869809787512,0.14189110251414527,3.7632174010539684e-06
1.0360000000000007,-0.010935374852720312,-0.14166468664870602,0.18996869809787512,0.14189110251414527,3.7632174010539684e-06
1.0380000000000007,-0.010935374852720312,-0.14166468664870602,0.18996869809787512,0.14189110251414527,3.7632174010539684e-06
1.0400000000000007,-0.010935374852720312,-0.14166468664870602,0.18996869809787512,0.14189110251414527,3.7632174010539684e-06
1.0420000000000007,-0.010935374852720312,-0.14166468664870602,0.18996869809787512,0.14189110251414527,3.7632174010539684e-06
1.0440000000000007,-0.010935374852720312,-0.14166468664870602,0.18996869809787512,0.14189110251414527,3.7632174010539684e-06
1.0460000000000007,-0.010935374852720312,-0.14166468664870602,0.18996869809787512,0.14189110251414527,3.7632174010539684e-06
1.0480000000000007,-0.010935374852720312,-0.14166468664870602,0.18996869809787512,0.14189110251414527,3.7632174010539684e-06
1.0500000000000007,-0.010935374852720312,-0.14166468664870602,0.18996869809787512,0.14189110251414527,3.7632174010539684e-06
1.0520000000000007,-0.010935374852720312,-0.14166468664870602,0.18996869809787512,0.14189110251414527,3.7632174010539684e-06
1.0540000000000007,-0.010935374852720312,-0.14166468664870602,0.18996869809787512,0.14189110251414527,3.7632174010539684e-06
1.0560000000000007,-0.010935374852720312,-0.14166468664870602,0.18996869809787512,0.14189110251414527,3.7632174010539684e-06
1.0580000000000007,-0.010935374852720312,-0.14166468664870602,0.18996869809787512,0.14189110251414527,3.7632174010539684e-06
1.0600000000000007,-0.010935374852720312,-0.14166468664870602,0.18996869809787512,0.14189110251414527,3.7632174010539684e-06
1.0620000000000007,-0.010935374852720312,-0.14166468664870602,0.18996869809787512,0.14189110251414527,3.7632174010539684e-06
1.0640000000000007,-0.010935374852720312,-0.14166468664870602,0.18996869809787512,0.14189110251414527,3.7632174010539684e-06
1.0660000000000007,-0.010935374852720312,-0.14166468664870602,0.18996869809787512,0.14189110251414527,3.7632174010539684e-06
1.0680000000000007,-0.010935374852720312,-0.14166468664870602,0.18996869809787512,0.14189110251414527,3.7632174010539684e-06
1.0700000000000007,-0.010935374852720312,-0.14166468664870602,0.18996869809787512,0.14189110251414527,3.7632174010539684e-06
1.0720000000000007,-0.010935374852720312,-0.14166468664870602,0.18996869809787512,0.14189110251414527,3.7632174010539684e-06
1.0740000000000007,-0.010935374852720312,-0.14166468664870602,0.18996869809787512,0.14189110251414527,3.7632174010539684e-06
1.0760000000000007,-0.010935374852720312,-0.14166468664870602,0.18996869809787512,0.14189110251414527,3.7632174010539684e-06
1.0780000000000007,-0.010935374852720312,-0.14166468664870602,0.18996869809787512,0.14189110251414527,3.7632174010539684e-06
1.0800000000000007,-0.010935374852720312,-0.14166468664870602,0.18996869809787512,0.14189110251414527,3.7632174010539684e-06
1.0820000000000007,-0.010935374852720312,-0.14166468664870602,0.18996869809787512,0.14189110251414527,3.7632174010539684e-06
1.0840000000000007,-0.010935374852720312,-0.14166468664870602,0.18996869809787512,0.14189110251414527,3.7632174010539684e-06
1.0860000000000007,-0.010935374852720312,-0.14166468664870602,0.18996869809787512,0.14189110251414527,3.7632174010539684e-06
1.0880000000000007,-0.010935374852720312,-0.14166468664870602,0.18996869809787512,0.14189110251414527,3.7632174010539684e-06
1.0900000000000007,-0.010935374852720312,-0.14166468664870602,0.18996869809787512,0.14189110251414527,3.7632174010539684e-06
1.0920000000000007,-0.010935374852720312,-0.14166468664870602,0.18996869809787512,0.14189110251414527,3.7632174010539684e-06
1.0940000000000007,-0.010935374852720312,-0.14166468664870602,0.18996869809787512,0.14189110251414527,3.7632174010539684e-06
1.0960000000000008,-0.010935374852720312,-0.14166468664870602,0.18996869809787512,0.14189110251414527,3.7632174010539684e-06
1.0980000000000008,-0.010935374852720312,-0.14166468664870602,0.18996869809787512,0.14189110251414527,3.7632174010539684e-06
1.1000000000000008,-0.010935374852720312,-0.14166468664870602,0.18996869809787512,0.14189110251414527,3.7632174010539684e-06
1.1020000000000008,-0.010935374852720312,-0.14166468664870602,0.18996869809787512,0.14189110251414527,3.7632174010539684e-06
1.1040000000000008,-0.010935374852720312,-0.14166468664870602,0.18996869809787512,0.14189110251414527,3.7632174010539684e-06
1.1060000000000008,-0.010935374852720312,-0.14166468664870602,0.18996869809787512,0.14189110251414527,3.7632174010539684e-06
1.1080000000000008,-0.010935374852720312,-0.14166468664870602,0.18996869809787512,0.14189110251414527,3.7632174010539684e-06
1.1100000000000008,-0.010935374852720312,-0.14166468664870602,0.18996869809787512,0.14189110251414527,3.7632174010539684e-06
1.1120000000000008,-0.010935374852720312,-0.14166468664870602,0.18996869809787512,0.14189110251414527,3.7632174010539684e-06
1.1140000000000008,-0.010935374852720312,-0.14166468664870602,0.18996869809787512,0.14189110251414527,3.7632174010539684e-06
1.1160000000000008,-0.010935374852720312,-0.14166468664870602,0.18996869809787512,0.14189110251414527,3.7632174010539684e-06
1.1180000000000008,-0.010935374852720312,-0.14166468664870602,0.18996869809787512,0.14189110251414527,3.7632174010539684e-06
1.1200000000000008,-0.010935374852720312,-0.14166468664870602,0.18996869809787512,0.14189110251414527,3.7632174010539684e-06
1.1220000000000008,-0.010935374852720312,-0.14166468664870602,0.18996869809787512,0.14189110251414527,3.7632174010539684e-06
1.1240000000000008,-0.010935374852720312,-0.14166468664870602,0.18996869809787512,0.14189110251414527,3.7632174010539684e-06
1.1260000000000008,-0.010935374852720312,-0.14166468664870602,0.18996869809787512,0.14189110251414527,3.7632174010539684e-06
1.1280000000000008,-0.010935374852720312,-0.14166468664870602,0.18996869809787512,0.14189110251414527,3.7632174010539684e-06
1.1300000000000008,-0.010935374852720312,-0.14166468664870602,0.18996869809787512,0.14189110251414527,3.7632174010539684e-06
1.1320000000000008,-0.010935374852720312,-0.14166468664870602,0.18996869809787512,0.14189110251414527,3.7632174010539684e-06
1.1340000000000008,-0.010935374852720312,-0.14166468664870602,0.18996869809787512,0.14189110251414527,3.7632174010539684e-06
1.1360000000000008,-0.010935374852720312,-0.14166468664870602,0.18996869809787512,0.14189110251414527,3.7632174010539684e-06
1.1380000000000008,-0.010935374852720312,-0.14166468664870602,0.18996869809787512,0.14189110251414527,3.7632174010539684e-06
1.1400000000000008,-0.010935374852720312,-0.14166468664870602,0.18996869809787512,0.14189110251414527,3.7632174010539684e-06
1.1420000000000008,-0.010935374852720312,-0.14166468664870602,0.18996869809787512,0.14189110251414527,3.7632174010539684e-06
1.1440000000000008,-0.010935374852720312,-0.14166468664870602,0.18996869809787512,0.14189110251414527,3.7632174010539684e-06
1.1460000000000008,-0.010935374852720312,-0.14166468664870602,0.18996869809787512,0.14189110251414527,3.7632174010539684e-06
1.1480000000000008,-0.010935374852720312,-0.14166468664870602,0.18996869809787512,0.14189110251414527,3.7632174010539684e-06
1.1500000000000008,-0.010935374852720312,-0.14166468664870602,0.18996869809787512,0.14189110251414527,3.7632174010539684e-06
1.1520000000000008,-0.010935374852720312,-0.14166468664870602,0.18996869809787512,0.14189110251414527,3.7632174010539684e-06
1.1540000000000008,-0.010935374852720312,-0.14166468664870602,0.18996869809787512,0.14189110251414527,3.7632174010539684e-06
1.1560000000000008,-0.010935374852720312,-0.14166468664870602,0.18996869809787512,0.14189110251414527,3.7632174010539684e-06
1.1580000000000008,-0.010935374852720312,-0.14166468664870602,0.18996869809787512,0.14189110251414527,3.7632174010539684e-06
1.1600000000000008,-0.010935374852720312,-0.14166468664870602,0.18996869809787512,0.14189110251414527,3.7632174010539684e-06
1.1620000000000008,-0.010935374852720312,-0.14166468664870602,0.18996869809787512,0.14189110251414527,3.7632174010539684e-06
1.1640000000000008,-0.010935374852720312,-0.14166468664870602,0.18996869809787512,0.14189110251414527,3.7632174010539684e-06
1.1660000000000008,-0.010935374852720312,-0.14166468664870602,0.18996869809787512,0.14189110251414527,3.7632174010539684e-06
1.1680000000000008,-0.010935374852720312,-0.14166468664870602,0.18996869809787512,0.14189110251414527,3.7632174010539684e-06
1.1700000000000008,-0.010935374852720312,-0.14166468664870602,0.18996869809787512,0.14189110251414527,3.7632174010539684e-06
1.1720000000000008,-0.010935374852720312,-0.14166468664870602,0.18996869809787512,0.14189110251414527,3.7632174010539684e-06
1.1740000000000008,-0.010935374852720312,-0.14166468664870602,0.18996869809787512,0.14189110251414527,3.7632174010539684e-06
1.1760000000000008,-0.010935374852720312,-0.14166468664870602,0.18996869809787512,0.14189110251414527,3.7632174010539684e-06
1.1780000000000008,-0.010935374852720312,-0.14166468664870602,0.18996869809787512,0.14189110251414527,3.7632174010539684e-06
1.1800000000000008,-0.010935374852720312,-0.14166468664870602,0.18996869809787512,0.14189110251414527,3.7632174010539684e-06
1.1820000000000008,-0.010935374852720312,-0.14166468664870602,0.18996869809787512,0.14189110251414527,3.7632174010539684e-06
1.1840000000000008,-0.010935374852720312,-0.14166468664870602,0.18996869809787512,0.14189110251414527,3.7632174010539684e-06
1.1860000000000008,-0.010935374852720312,-0.14166468664870602,0.18996869809787512,0.14189110251414527,3.7632174010539684e-06
1.1880000000000008,-0.010935374852720312,-0.14166468664870602,0.18996869809787512,0.14189110251414527,3.7632174010539684e-06
1.1900000000000008,-0.010935374852720312,-0.14166468664870602,0.18996869809787512,0.14189110251414527,3.7632174010539684e-06
1.1920000000000008,-0.010935374852720312,-0.14166468664870602,0.18996869809787512,0.14189110251414527,3.7632174010539684e-06
1.1940000000000008,-0.010935374852720312,-0.14166468664870602,0.18996869809787512,0.14189110251414527,3.7632174010539684e-06
1.1960000000000008,-0.010935374852720312,-0.14166468664870602,0.18996869809787512,0.14189110251414527,3.7632174010539684e-06
1.1980000000000008,-0.010935374852720312,-0.14166468664870602,0.18996869809787512,0.14189110251414527,3.7632174010539684e-06
1.2000000000000008,-0.010935374852720312,-0.14166468664870602,0.18996869809787512,0.14189110251414527,3.7632174010539684e-06
1.2020000000000008,-0.010935374852720312,-0.14166468664870602,0.18996869809787512,0.14189110251414527,3.7632174010539684e-06
1.2040000000000008,-0.010935374852720312,-0.14166468664870602,0.18996869809787512,0.14189110251414527,3.7632174010539684e-06
1.2060000000000008,-0.010935374852720312,-0.14166468664870602,0.18996869809787512,0.14189110251414527,3.7632174010539684e-06
1.2080000000000009,-0.010935374852720312,-0.14166468664870602,0.18996869809787512,0.14189110251414527,3.7632174010539684e-06
1.2100000000000009,-0.010935374852720312,-0.14166468664870602,0.18996869809787512,0.14189110251414527,3.7632174010539684e-06
1.2120000000000009,-0.010935374852720312,-0.14166468664870602,0.18996869809787512,0.14189110251414527,3.7632174010539684e-06
1.2140000000000009,-0.010935374852720312,-0.14166468664870602,0.18996869809787512,0.14189110251414527,3.7632174010539684e-06
1.2160000000000009,-0.010935374852720312,-0.14166468664870602,0.18996869809787512,0.14189110251414527,3.7632174010539684e-06
1.2180000000000009,-0.010935374852720312,-0.14166468664870602,0.18996869809787512,0.14189110251414527,3.7632174010539684e-06
1.2200000000000009,-0.010935374852720312,-0.14166468664870602,0.18996869809787512,0.14189110251414527,3.7632174010539684e-06
1.2220000000000009,-0.010935374852720312,-0.14166468664870602,0.18996869809787512,0.14189110251414527,3.7632174010539684e-06
1.2240000000000009,-0.010935374852720312,-0.14166468664870602,0.18996869809787512,0.14189110251414527,3.7632174010539684e-06
1.2260000000000009,-0.010935374852720312,-0.14166468664870602,0.18996869809787512,0.14189110251414527,3.7632174010539684e-06
1.2280000000000009,-0.010935374852720312,-0.14166468664870602,0.18996869809787512,0.14189110251414527,3.7632174010539684e-06
1.2300000000000009,-0.010935374852720312,-0.14166468664870602,0.18996869809787512,0.14189110251414527,3.7632174010539684e-06
1.2320000000000009,-0.010935374852720312,-0.14166468664870602,0.18996869809787512,0.14189110251414527,3.7632174010539684e-06
1.2340000000000009,-0.010935374852720312,-0.14166468664870602,0.18996869809787512,0.14189110251414527,3.7632174010539684e-06
1.2360000000000009,-0.010935374852720312,-0.14166468664870602,0.18996869809787512,0.14189110251414527,3.7632174010539684e-06
1.2380000000000009,-0.010935374852720312,-0.14166468664870602,0.18996869809787512,0.14189110251414527,3.7632174010539684e-06
1.2400000000000009,-0.010935374852720312,-0.14166468664870602,0.18996869809787512,0.14189110251414527,3.7632174010539684e-06
1.2420000000000009,-0.010935374852720312,-0.14166468664870602,0.18996869809787512,0.14189110251414527,3.7632174010539684e-06
1.2440000000000009,-0.010935374852720312,-0.14166468664870602,0.18996869809787512,0.14189110251414527,3.7632174010539684e-06
1.2460000000000009,-0.010935374852720312,-0.14166468664870602,0.18996869809787512,0.14189110251414527,3.7632174010539684e-06
1.2480000000000009,-0.010935374852720312,-0.14166468664870602,0.18996869809787512,0.14189110251414527,3.7632174010539684e-06
1.2500000000000009,-0.010935374852720312,-0.14166468664870602,0.18996869809787512,0.14189110251414527,3.7632174010539684e-06
1.252000000000001,-0.010935374852720312,-0.14166468664870602,0.18996869809787512,0.14189110251414527,3.7632174010539684e-06
1.254000000000001,-0.010935374852720312,-0.14166468664870602,0.18996869809787512,0.14189110251414527,3.7632174010539684e-06
1.256000000000001,-0.010935374852720312,-0.14166468664870602,0.18996869809787512,0.14189110251414527,3.7632174010539684e-06
1.258000000000001,-0.010935374852720312,-0.14166468664870602,0.18996869809787512,0.14189110251414527,3.7632174010539684e-06
1.260000000000001,-0.010935374852720312,-0.14166468664870602,0.18996869809787512,0.14189110251414527,3.7632174010539684e-06
1.262000000000001,-0.010935374852720312,-0.14166468664870602,0.18996869809787512,0.14189110251414527,3.7632174010539684e-06
1.264000000000001,-0.010935374852720312,-0.14166468664870602,0.18996869809787512,0.14189110251414527,3.7632174010539684e-06
1.266000000000001,-0.010935374852720312,-0.14166468664870602,0.18996869809787512,0.14189110251414527,3.7632174010539684e-06
1.268000000000001,-0.010935374852720312,-0.14166468664870602,0.18996869809787512,0.14189110251414527,3.7632174010539684e-06
1.270000000000001,-0.010935374852720312,-0.14166468664870602,0.18996869809787512,0.14189110251414527,3.7632174010539684e-06
1.272000000000001,-0.010935374852720312,-0.14166468664870602,0.18996869809787512,0.14189110251414527,3.7632174010539684e-06
1.274000000000001,-0.010935374852720312,-0.14166468664870602,0.18996869809787512,0.14189110251414527,3.7632174010539684e-06
1.276000000000001,-0.010935374852720312,-0.14166468664870602,0.18996869809787512,0.14189110251414527,3.7632174010539684e-06
1.278000000000001,-0.010935374852720312,-0.14166468664870602,0.18996869809787512,0.14189110251414527,3.7632174010539684e-06
1.280000000000001,-0.010935374852720312,-0.14166468664870602,0.18996869809787512,0.14189110251414527,3.7632174010539684e-06
1.282000000000001,-0.010935374852720312,-0.14166468664870602,0.18996869809787512,0.14189110251414527,3.7632174010539684e-06
1.284000000000001,-0.010935374852720312,-0.14166468664870602,0.18996869809787512,0.14189110251414527,3.7632174010539684e-06
1.286000000000001,-0.010935374852720312,-0.14166468664870602,0.18996869809787512,0.14189110251414527,3.7632174010539684e-06
1.288000000000001,-0.010935374852720312,-0.14166468664870602,0.18996869809787512,0.14189110251414527,3.7632174010539684e-06
1.290000000000001,-0.010935374852720312,-0.14166468664870602,0.18996869809787512,0.14189110251414527,3.7632174010539684e-06
1.292000000000001,-0.010935374852720312,-0.14166468664870602,0.18996869809787512,0.14189110251414527,3.7632174010539684e-06
1.294000000000001,-0.010935374852720312,-0.14166468664870602,0.18996869809787512,0.14189110251414527,3.7632174010539684e-06
1.296000000000001,-0.010935374852720312,-0.14166468664870602,0.18996869809787512,0.14189110251414527,3.7632174010539684e-06
1.298000000000001,-0.010935374852720312,-0.14166468664870602,0.18996869809787512,0.14189110251414527,3.7632174010539684e-06
1.300000000000001,-0.010935374852720312,-0.14166468664870602,0.18996869809787512,0.14189110251414527,3.7632174010539684e-06
1.302000000000001,-0.010935374852720312,-0.14166468664870602,0.18996869809787512,0.14189110251414527,3.7632174010539684e-06
1.304000000000001,-0.010935374852720312,-0.14166468664870602,0.18996869809787512,0.14189110251414527,3.7632174010539684e-06
1.306000000000001,-0.010935374852720312,-0.14166468664870602,0.18996869809787512,0.14189110251414527,3.7632174010539684e-06
1.308000000000001,-0.010935374852720312,-0.14166468664870602,0.18996869809787512,0.14189110251414527,3.7632174010539684e-06
1.310000000000001,-0.010935374852720312,-0.14166468664870602,0.18996869809787512,0.14189110251414527,3.7632174010539684e-06
1.312000000000001,-0.010935374852720312,-0.14166468664870602,0.18996869809787512,0.14189110251414527,3.7632174010539684e-06
1.314000000000001,-0.010935374852720312,-0.14166468664870602,0.18996869809787512,0.14189110251414527,3.7632174010539684e-06
1.316000000000001,-0.010935374852720312,-0.14166468664870602,0.18996869809787512,0.14189110251414527,3.7632174010539684e-06
1.318000000000001,-0.010935374852720312,-0.14166468664870602,0.18996869809787512,0.14189110251414527,3.7632174010539684e-06
1.320000000000001,-0.010935374852720312,-0.14166468664870602,0.18996869809787512,0.14189110251414527,3.7632174010539684e-06
1.322000000000001,-0.010935374852720312,-0.14166468664870602,0.18996869809787512,0.14189110251414527,3.7632174010539684e-06
1.324000000000001,-0.010935374852720312,-0.14166468664870602,0.18996869809787512,0.14189110251414527,3.7632174010539684e-06
1.326000000000001,-0.010935374852720312,-0.14166468664870602,0.18996869809787512,0.14189110251414527,3.7632174010539684e-06
1.328000000000001,-0.010935374852720312,-0.14166468664870602,0.18996869809787512,0.14189110251414527,3.7632174010539684e-06
1.330000000000001,-0.010935374852720312,-0.14166468664870602,0.18996869809787512,0.14189110251414527,3.7632174010539684e-06
1.332000000000001,-0.010935374852720312,-0.14166468664870602,0.18996869809787512,0.14189110251414527,3.7632174010539684e-06
1.334000000000001,-0.010935374852720312,-0.14166468664870602,0.18996869809787512,0.14189110251414527,3.7632174010539684e-06
1.336000000000001,-0.010935374852720312,-0.14166468664870602,0.18996869809787512,0.14189110251414527,3.7632174010539684e-06
1.338000000000001,-0.010935374852720312,-0.14166468664870602,0.18996869809787512,0.14189110251414527,3.7632174010539684e-06
1.340000000000001,-0.010935374852720312,-0.14166468664870602,0.18996869809787512,0.14189110251414527,3.7632174010539684e-06
1.342000000000001,-0.010935374852720312,-0.14166468664870602,0.18996869809787512,0.14189110251414527,3.7632174010539684e-06
1.344000000000001,-0.010935374852720312,-0.14166468664870602,0.18996869809787512,0.14189110251414527,3.7632174010539684e-06
1.346000000000001,-0.010935374852720312,-0.14166468664870602,0.18996869809787512,0.14189110251414527,3.7632174010539684e-06
1.348000000000001,-0.010935374852720312,-0.14166468664870602,0.18996869809787512,0.14189110251414527,3.7632174010539684e-06
1.350000000000001,-0.010935374852720312,-0.14166468664870602,0.18996869809787512,0.14189110251414527,3.7632174010539684e-06
1.352000000000001,-0.010935374852720312,-0.14166468664870602,0.18996869809787512,0.14189110251414527,3.7632174010539684e-06
1.354000000000001,-0.010935374852720312,-0.14166468664870602,0.18996869809787512,0.14189110251414527,3.7632174010539684e-06
1.356000000000001,-0.010935374852720312,-0.14166468664870602,0.18996869809787512,0.14189110251414527,3.7632174010539684e-06
1.358000000000001,-0.010935374852720312,-0.14166468664870602,0.18996869809787512,0.14189110251414527,3.7632174010539684e-06
1.360000000000001,-0.010935374852720312,-0.14166468664870602,0.18996869809787512,0.14189110251414527,3.7632174010539684e-06
1.362000000000001,-0.010935374852720312,-0.14166468664870602,0.18996869809787512,0.14189110251414527,3.7632174010539684e-06
1.364000000000001,-0.010935374852720312,-0.14166468664870602,0.18996869809787512,0.14189110251414527,3.7632174010539684e-06
1.366000000000001,-0.010935374852720312,-0.14166468664870602,0.18996869809787512,0.14189110251414527,3.7632174010539684e-06
1.368000000000001,-0.010935374852720312,-0.14166468664870602,0.18996869809787512,0.14189110251414527,3.7632174010539684e-06
1.370000000000001,-0.010935374852720312,-0.14166468664870602,0.18996869809787512,0.14189110251414527,3.7632174010539684e-06
1.372000000000001,-0.010935374852720312,-0.14166468664870602,0.18996869809787512,0.14189110251414527,3.7632174010539684e-06
1.374000000000001,-0.010935374852720312,-0.14166468664870602,0.18996869809787512,0.14189110251414527,3.7632174010539684e-06
1.376000000000001,-0.010935374852720312,-0.14166468664870602,0.18996869809787512,0.14189110251414527,3.7632174010539684e-06
1.378000000000001,-0.010935374852720312,-0.14166468664870602,0.18996869809787512,0.14189110251414527,3.7632174010539684e-06
1.380000000000001,-0.010935374852720312,-0.14166468664870602,0.18996869809787512,0.14189110251414527,3.7632174010539684e-06
1.382000000000001,-0.010935374852720312,-0.14166468664870602,0.18996869809787512,0.14189110251414527,3.7632174010539684e-06
1.384000000000001,-0.010935374852720312,-0.14166468664870602,0.18996869809787512,0.14189110251414527,3.7632174010539684e-06
1.386000000000001,-0.010935374852720312,-0.14166468664870602,0.18996869809787512,0.14189110251414527,3.7632174010539684e-06
1.388000000000001,-0.010935374852720312,-0.14166468664870602,0.18996869809787512,0.14189110251414527,3.7632174010539684e-06
1.390000000000001,-0.010935374852720312,-0.14166468664870602,0.18996869809787512,0.14189110251414527,3.7632174010539684e-06
1.392000000000001,-0.010935374852720312,-0.14166468664870602,0.18996869809787512,0.14189110251414527,3.7632174010539684e-06
1.394000000000001,-0.010935374852720312,-0.14166468664870602,0.18996869809787512,0.14189110251414527,3.7632174010539684e-06
1.396000000000001,-0.010935374852720312,-0.14166468664870602,0.18996869809787512,0.14189110251414527,3.7632174010539684e-06
1.398000000000001,-0.010935374852720312,-0.14166468664870602,0.18996869809787512,0.14189110251414527,3.7632174010539684e-06
1.400000000000001,-0.010935374852720312,-0.14166468664870602,0.18996869809787512,0.14189110251414527,3.7632174010539684e-06
1.402000000000001,-0.010935374852720312,-0.14166468664870602,0.18996869809787512,0.14189110251414527,3.7632174010539684e-06
1.404000000000001,-0.010935374852720312,-0.14166468664870602,0.18996869809787512,0.14189110251414527,3.7632174010539684e-06
1.406000000000001,-0.010935374852720312,-0.14166468664870602,0.18996869809787512,0.14189110251414527,3.7632174010539684e-06
1.408000000000001,-0.010935374852720312,-0.14166468664870602,0.18996869809787512,0.14189110251414527,3.7632174010539684e-06
1.410000000000001,-0.010935374852720312,-0.14166468664870602,0.18996869809787512,0.14189110251414527,3.7632174010539684e-06
1.412000000000001,-0.010935374852720312,-0.14166468664870602,0.18996869809787512,0.14189110251414527,3.7632174010539684e-06
1.414000000000001,-0.010935374852720312,-0.14166468664870602,0.18996869809787512,0.14189110251414527,3.7632174010539684e-06
1.416000000000001,-0.010935374852720312,-0.14166468664870602,0.18996869809787512,0.14189110251414527,3.7632174010539684e-06
1.418000000000001,-0.010935374852720312,-0.14166468664870602,0.18996869809787512,0.14189110251414527,3.7632174010539684e-06
1.420000000000001,-0.010935374852720312,-0.14166468664870602,0.18996869809787512,0.14189110251414527,3.7632174010539684e-06
1.422000000000001,-0.010935374852720312,-0.14166468664870602,0.18996869809787512,0.14189110251414527,3.7632174010539684e-06
1.424000000000001,-0.010935374852720312,-0.14166468664870602,0.18996869809787512,0.14189110251414527,3.7632174010539684e-06
1.426000000000001,-0.010935374852720312,-0.14166468664870602,0.18996869809787512,0.14189110251414527,3.7632174010539684e-06
1.428000000000001,-0.010935374852720312,-0.14166468664870602,0.18996869809787512,0.14189110251414527,3.7632174010539684e-06
1.430000000000001,-0.010935374852720312,-0.14166468664870602,0.18996869809787512,0.14189110251414527,3.7632174010539684e-06
1.432000000000001,-0.010935374852720312,-0.14166468664870602,0.18996869809787512,0.14189110251414527,3.7632174010539684e-06
1.434000000000001,-0.010935374852720312,-0.14166468664870602,0.18996869809787512,0.14189110251414527,3.7632174010539684e-06
1.436000000000001,-0.010935374852720312,-0.14166468664870602,0.18996869809787512,0.14189110251414527,3.7632174010539684e-06
1.438000000000001,-0.010935374852720312,-0.14166468664870602,0.18996869809787512,0.14189110251414527,3.7632174010539684e-06
1.440000000000001,-0.010935374852720312,-0.14166468664870602,0.18996869809787512,0.14189110251414527,3.7632174010539684e-06
1.442000000000001,-0.010935374852720312,-0.14166468664870602,0.18996869809787512,0.14189110251414527,3.7632174010539684e-06
1.444000000000001,-0.010935374852720312,-0.14166468664870602,0.18996869809787512,0.14189110251414527,3.7632174010539684e-06
1.446000000000001,-0.010935374852720312,-0.14166468664870602,0.18996869809787512,0.14189110251414527,3.7632174010539684e-06
1.448000000000001,-0.010935374852720312,-0.14166468664870602,0.18996869809787512,0.14189110251414527,3.7632174010539684e-06
1.450000000000001,-0.010935374852720312,-0.14166468664870602,0.18996869809787512,0.14189110251414527,3.7632174010539684e-06
1.452000000000001,-0.010935374852720312,-0.14166468664870602,0.18996869809787512,0.14189110251414527,3.7632174010539684e-06
1.454000000000001,-0.010935374852720312,-0.14166468664870602,0.18996869809787512,0.14189110251414527,3.7632174010539684e-06
1.456000000000001,-0.010935374852720312,-0.14166468664870602,0.18996869809787512,0.14189110251414527,3.7632174010539684e-06
1.458000000000001,-0.010935374852720312,-0.14166468664870602,0.18996869809787512,0.14189110251414527,3.7632174010539684e-06
1.460000000000001,-0.010935374852720312,-0.14166468664870602,0.18996869809787512,0.14189110251414527,3.7632174010539684e-06
1.462000000000001,-0.010935374852720312,-0.14166468664870602,0.18996869809787512,0.14189110251414527,3.7632174010539684e-06
1.464000000000001,-0.010935374852720312,-0.14166468664870602,0.18996869809787512,0.14189110251414527,3.7632174010539684e-06
1.466000000000001,-0.010935374852720312,-0.14166468664870602,0.18996869809787512,0.14189110251414527,3.7632174010539684e-06
1.468000000000001,-0.010935374852720312,-0.14166468664870602,0.18996869809787512,0.14189110251414527,3.7632174010539684e-06
1.470000000000001,-0.010935374852720312,-0.14166468664870602,0.18996869809787512,0.14189110251414527,3.7632174010539684e-06
1.472000000000001,-0.010935374852720312,-0.14166468664870602,0.18996869809787512,0.14189110251414527,3.7632174010539684e-06
1.474000000000001,-0.010935374852720312,-0.14166468664870602,0.18996869809787512,0.14189110251414527,3.7632174010539684e-06
1.476000000000001,-0.010935374852720312,-0.14166468664870602,0.18996869809787512,0.14189110251414527,3.7632174010539684e-06
1.478000000000001,-0.010935374852720312,-0.14166468664870602,0.18996869809787512,0.14189110251414527,3.7632174010539684e-06
1.480000000000001,-0.010935374852720312,-0.14166468664870602,0.18996869809787512,0.14189110251414527,3.7632174010539684e-06
1.482000000000001,-0.010935374852720312,-0.14166468664870602,0.18996869809787512,0.14189110251414527,3.7632174010539684e-06
1.484000000000001,-0.010935374852720312,-0.14166468664870602,0.18996869809787512,0.14189110251414527,3.7632174010539684e-06
1.486000000000001,-0.010935374852720312,-0.14166468664870602,0.18996869809787512,0.14189110251414527,3.7632174010539684e-06
1.488000000000001,-0.010935374852720312,-0.14166468664870602,0.18996869809787512,0.14189110251414527,3.7632174010539684e-06
1.490000000000001,-0.010935374852720312,-0.14166468664870602,0.18996869809787512,0.14189110251414527,3.7632174010539684e-06
1.492000000000001,-0.010935374852720312,-0.14166468664870602,0.18996869809787512,0.14189110251414527,3.7632174010539684e-06
1.494000000000001,-0.010935374852720312,-0.14166468664870602,0.18996869809787512,0.14189110251414527,3.7632174010539684e-06
1.496000000000001,-0.010935374852720312,-0.14166468664870602,0.18996869809787512,0.14189110251414527,3.7632174010539684e-06
1.498000000000001,-0.010935374852720312,-0.14166468664870602,0.18996869809787512,0.14189110251414527,3.7632174010539684e-06
1.500000000000001,-0.010935374852720312,-0.14166468664870602,0.18996869809787512,0.14189110251414527,3.7632174010539684e-06
1.5020000000000011,-0.010935374852720312,-0.14166468664870602,0.18996869809787512,0.14189110251414527,3.7632174010539684e-06
1.5040000000000011,-0.010935374852720312,-0.14166468664870602,0.18996869809787512,0.14189110251414527,3.7632174010539684e-06
1.5060000000000011,-0.010935374852720312,-0.14166468664870602,0.18996869809787512,0.14189110251414527,3.7632174010539684e-06
1.5080000000000011,-0.010935374852720312,-0.14166468664870602,0.18996869809787512,0.14189110251414527,3.7632174010539684e-06
1.5100000000000011,-0.010937991126886419,-0.11084817229170173,0.21600609466074064,0.1486429064404633,5.915636363607802e-06
1.5120000000000011,-0.02941202968508899,-0.4986279860136642,0.593697447017989,0.3800005214042472,5.890738599647159e-06
1.5140000000000011,-0.03992736075815416,-0.7193503316930547,0.8086774905508521,0.5116881277689502,5.876566915951666e-06
1.5160000000000011,-0.050704319296213975,-0.9455643758616815,1.0290063608037803,0.6466521972697176,5.8620426326419345e-06
1.5180000000000011,-0.06719940770919698,-1.2918049822110598,1.3662391878504552,0.8532266450723098,5.839811932163395e-06
1.5200000000000011,-0.07933525930043904,-1.5465429083327806,1.6143498640874023,1.005208664101796,5.8234562464573064e-06
1.5220000000000011,-0.09005309003141007,-1.7715158286428399,1.833469899501596,1.1394322529338128,5.809011650660393e-06
1.5240000000000011,-0.09804790210671674,-1.9393311510769269,1.9969193464133503,1.2395544134456709,5.798236911648478e-06
1.5260000000000011,-0.10668684100084024,-2.1206670351915133,2.1735376047099053,1.3477432261985194,5.786594072386307e-06
1.5280000000000011,-0.12307780168275535,-2.464721945542176,2.508641598721994,1.553013641672958,5.764503706554235e-06
1.5300000000000011,-0.13198255408131343,-2.6516373953218264,2.6906942649661354,1.6645313409720481,5.752502626083997e-06
1.5320000000000011,-0.1401249240468771,-2.822550035703843,2.8571604501480063,1.7665014266926462,5.741529020889652e-06
1.5340000000000011,-0.15092595231171643,-3.049269316133479,3.077981412459181,1.9017669308019318,5.72697229841541e-06
1.5360000000000011,-0.1682687137112821,-3.4133030255879833,3.432544438078867,2.1189571191653727,5.703599175186738e-06
1.5380000000000011,-0.17784584869487643,-3.614332140484972,3.628343588993576,2.2388953287241486,5.6906919137079054e-06
1.5400000000000011,-0.1857872887673242,-3.7810271564272546,3.7907018752544372,2.338349090756249,5.679989105017296e-06
1.5420000000000011,-0.19570401620048158,-3.9891844959632725,3.9934438032517905,2.462540149465637,5.666624169239182e-06
1.5440000000000011,-0.21428113597989204,-4.379128038889994,4.3732425933367445,2.69518869090503,5.641587481030529e-06
1.5460000000000012,-0.22662890581777978,-4.638314240787996,4.625685819216945,2.8498246450747287,5.624946189636906e-06
1.5480000000000012,-0.23613069209145565,-4.837761746520084,4.819944508036276,2.9688192332503176,5.612140476846975e-06
1.5500000000000012,-0.24511236296472214,-5.026291755655571,5.003569729336116,3.0813002127114104,5.600035732090152e-06
1.5520000000000012,-0.2540987431323586,-5.214920615363864,5.187291229516918,3.1938401685089532,5.587924640540271e-06
1.5540000000000012,-0.262447798795268,-5.390171697552377,5.35798298780764,3.298398660107042,5.576672481650677e-06
1.5560000000000012,-0.27170941105607876,-5.584577824071347,5.54733145369795,3.4143854551237243,5.564190455306617e-06
1.5580000000000012,-0.2810871859113472,-5.781422264719536,5.73905479865197,3.531826999772819,5.5515518747338355e-06
1.5600000000000012,-0.29166112153657114,-6.003374750860516,5.955232979370128,3.6642485338800004,5.537301208724753e-06
1.5620000000000012,-0.3019059298108318,-6.218418680302036,6.164682336074443,3.7925482773620125,5.523494113030383e-06
1.5640000000000012,-0.312468877082526,-6.440140515106467,6.3806358660703575,3.9248322000174793,5.509258256205099e-06
1.5660000000000012,-0.3241264736677579,-6.684839616389865,6.618968887063026,4.07082484443424,5.493547122593838e-06
1.5680000000000012,-0.33537802442731796,-6.921015601617966,6.849000528986153,4.211732418063828,5.478383223583877e-06
1.5700000000000012,-0.3601494360679419,-7.440980597975849,7.355438140495371,4.521954500712684,5.444998386908503e-06
1.5720000000000012,-0.3733495881867822,-7.718058753551784,7.625307843829544,4.687265171779679,5.42720832597169e-06
1.5740000000000012,-0.38290056042387705,-7.918538698599849,7.820572112072247,4.80687573502485,5.414336324454282e-06
1.5760000000000012,-0.3916818246589577,-8.10286206669258,8.000100132104517,4.916846943723717,5.4025016710019645e-06
1.5780000000000012,-0.3998854154513301,-8.275059764521078,8.167817942738884,5.0195837218181545,5.391445557497887e-06
1.5800000000000012,-0.40801051800420407,-8.445609952802803,8.33393110535723,5.121337560971772,5.3804952238780815e-06
1.5820000000000012,-0.4158405047765641,-8.609965505188672,8.494010791435343,5.21939554970791,5.369942622623138e-06
1.5840000000000012,-0.4255788022785951,-8.814377506355031,8.693104819609614,5.341352060558501,5.356818159781935e-06
1.5860000000000012,-0.44253540153982873,-9.170305468839421,9.039772976990482,5.55370618933311,5.333965473583878e-06
1.5880000000000012,-0.4528257329929985,-9.386304953818067,9.25015302954409,5.682576037400798,5.320097025556631e-06
1.5900000000000012,-0.4615107183209611,-9.568607376866762,9.427712681343376,5.791341507665594,5.308392128762354e-06
1.5920000000000012,-0.4687588456111729,-9.720749391812566,9.575896576796065,5.882112642387124,5.298623709049478e-06
1.5940000000000012,-0.47620685628464077,-9.87708706440415,9.728166975862882,5.975386994944607,5.288585903231322e-06
1.5960000000000012,-0.48815799888559663,-10.12794785139247,9.972501380435464,6.125055831000032,5.2724791528528865e-06
1.5980000000000012,-0.49613083425384374,-10.29530187115346,10.135501525902733,6.224902768608461,5.261734032208567e-06
1.6000000000000012,-0.5031251829030108,-10.442116938564707,10.278497059436958,6.312495734088008,5.252307634121503e-06
1.6020000000000012,-0.510167147750807,-10.589931495100995,10.422466079434233,6.400685015858319,5.242817062904647e-06
1.6040000000000012,-0.5167638226531822,-10.728399180808601,10.557331396353959,6.483297757371048,5.2339266162312256e-06
1.6060000000000012,-0.5250521807442129,-10.902376188947613,10.726782226845627,6.58709610952157,5.222756260452135e-06
1.6080000000000012,-0.5338517589018431,-11.08708397593459,10.906684664748303,6.697296670639963,5.2108969250268206e-06
1.6100000000000012,-0.5486033618881017,-11.396727903551696,11.208272910532461,6.882036768103822,5.191015948377571e-06
1.6120000000000012,-0.561463921557379,-11.666677834488603,11.47119983678399,7.043094590020206,5.173683561740039e-06
1.6140000000000012,-0.5722680893517982,-11.893463015300108,11.692084985015805,7.178399411687124,5.159122608070427e-06
1.6160000000000012,-0.5857429503088829,-12.176307454289743,11.967570956406046,7.347150369046989,5.140962317538663e-06
1.6180000000000012,-0.5946393306285611,-12.363047169717737,12.149452460195144,7.458563221525725,5.128972520256081e-06
1.6200000000000012,-0.6029522817013013,-12.537540397514736,12.3194060803985,7.562669561211036,5.117769020113251e-06
1.6220000000000012,-0.610992616955517,-12.70631127548595,12.483786223159544,7.663361826308569,5.106932928768459e-06
1.6240000000000012,-0.6199203925709947,-12.893709994732653,12.666309586155052,7.775167854363634,5.094900819532169e-06
1.6260000000000012,-0.6338824038678995,-13.186779976309245,12.951755072898054,7.95001958608285,5.076083988518691e-06
1.6280000000000012,-0.6460203484788614,-13.441561836018879,13.199908539748762,8.102027816817424,5.059725482015689e-06
1.6300000000000012,-0.656226435888303,-13.655792994083994,13.40856627009851,8.2298426437553,5.045970571064226e-06
1.6320000000000012,-0.6649454327867148,-13.838809337936286,13.586821269371404,8.339034054227783,5.034219836320098e-06
1.6340000000000012,-0.6736251855653774,-14.021001927015194,13.764273944636287,8.447733995229857,5.022521991518106e-06
1.6360000000000012,-0.681376684098239,-14.18370996985429,13.922748982698382,8.544809045025175,5.012075170147434e-06
1.6380000000000012,-0.6896179492455707,-14.356698472265238,14.091237024380439,8.648017633811207,5.000968282298906e-06
1.6400000000000012,-0.6976404938321668,-14.525095914739182,14.255253446924518,8.748487099415488,4.990156167727882e-06
1.6420000000000012,-0.7079146043825069,-14.740754914411498,14.465301872221481,8.877153806768739,4.976309580876718e-06
1.6440000000000012,-0.7175487741534701,-14.94298121957914,14.662267067361164,8.997806285291176,4.963325452681982e-06
1.6460000000000012,-0.7274084667992586,-15.149941368844503,14.863842951133545,9.121283075036903,4.950037383619771e-06
1.6480000000000012,-0.7365549629754717,-15.341931148028209,15.050837933267028,9.235828226273716,4.9377105011059766e-06
1.6500000000000012,-0.7449348906792506,-15.517830250638452,15.222160853110717,9.34077334052186,4.9264167354619025e-06
1.6520000000000012,-0.7537119688748912,-15.702065751555356,15.401603291915466,9.45069212581055,4.9145877236034135e-06
1.6540000000000012,-0.7632205574626569,-15.901656041448165,15.596001050229518,9.569771902027679,4.901772843223513e-06
1.6560000000000012,-0.7720646122893363,-16.087297417178313,15.776812788674603,9.6805294618792,4.889853565863778e-06
1.6580000000000013,-0.7791076236469924,-16.235133940508558,15.92080320397876,9.768731849502057,4.880361584248465e-06
1.6600000000000013,-0.8078725169132946,-16.838924222606146,16.508885306543057,10.1289658654598,4.841594667061346e-06
1.6620000000000013,-0.8178672093310205,-17.048718088291956,16.713221184902988,10.254133310183736,4.828124656598189e-06
1.6640000000000013,-0.8266516130956811,-17.23310735676656,16.8928133908559,10.364143836440237,4.8162857719505015e-06
1.6660000000000013,-0.8352612497137252,-17.413828170650348,17.068832580559807,10.471965685321845,4.804682423845126e-06
1.6680000000000013,-0.8434538521525679,-17.585795217142298,17.236325740471933,10.574564851964567,4.793641119524846e-06
1.6700000000000013,-0.8532947076208767,-17.792359964116436,17.437516508720467,10.697805736364495,4.780378437634861e-06
1.6720000000000013,-0.861405682290641,-17.962613600679745,17.60334083469593,10.799382646508766,4.769447144394225e-06
1.6740000000000013,-0.8749857174886535,-18.24766570246205,17.880977034427637,10.969450742049327,4.751145108817537e-06
1.6760000000000013,-0.8878849980227501,-18.518428404775364,18.144695587033734,11.13099348050985,4.7337605374370984e-06
1.6780000000000013,-0.8972109706399495,-18.714185489122688,18.335359864297182,11.247786285458005,4.7211917715879354e-06
1.6800000000000013,-0.9050493294911894,-18.87871677586021,18.495610712830334,11.345949121014495,4.710627887145336e-06
1.6820000000000013,-0.9127453630014721,-19.040260578619588,18.652951799627775,11.442329560624968,4.700255816892882e-06
1.6840000000000013,-0.9201839550862002,-19.196400550065558,18.805029640932673,11.535485960509554,4.69023070466084e-06
1.6860000000000013,-0.9314156221584207,-19.43215916620848,19.03465477202507,11.6761445229408,4.67509360322156e-06
1.6880000000000013,-0.9390629929602146,-19.59268151304886,19.191000977052582,11.771915540407964,4.664787116497355e-06
1.6900000000000013,-0.9461656553798894,-19.74177014363465,19.336210924848913,11.860864961625843,4.6552147421699955e-06
1.6920000000000013,-0.9546926177189952,-19.920755580795845,19.51053988530928,11.967651448156456,4.643722815542719e-06
1.6940000000000013,-0.9629474874945065,-20.09402965152823,19.67930606598078,12.07103041302556,4.632597592514251e-06
1.6960000000000013,-0.9776232185159167,-20.40208098658346,19.97934315201612,12.254820336179963,4.61281886975313e-06
1.6980000000000013,-0.9879423289902358,-20.618684558395923,20.190311575508936,12.384050595192617,4.5989116357683166e-06
1.7000000000000013,-0.996497547095561,-20.798263098993953,20.36521820925507,12.491190939741923,4.5873816283827015e-06
1.7020000000000013,-1.0090106654913253,-21.060920054337153,20.62104189362235,12.647897618613616,4.57051749403288e-06
1.7040000000000013,-1.0220119807367698,-21.333824519061267,20.886846488649272,12.810718177697204,4.552995408802889e-06
1.7060000000000013,-1.0318078362810996,-21.539444693895256,21.08711725870196,12.933395510437729,4.539793374046553e-06
1.7080000000000013,-1.0400920083326903,-21.71333383485844,21.256482507966105,13.037141439178075,4.52862865986129e-06
1.7100000000000013,-1.0488701330381909,-21.8975913025693,21.435946342077735,13.147073330319309,4.516798237604344e-06
1.7120000000000013,-1.0651245241833789,-22.23877954630858,21.768258248541947,13.350633432036721,4.494891928770905e-06
1.7140000000000013,-1.0815238569441739,-22.5830101910109,22.10353340500908,13.556008694331513,4.472790279751177e-06
1.7160000000000013,-1.0919606997777407,-22.80208502714352,22.316908800525923,13.686713361755398,4.458724375939957e-06
1.7180000000000013,-1.10179318316717,-23.008474039766,22.517928406319413,13.809849399334974,4.445472977237627e-06
1.7200000000000013,-1.1105911915600102,-23.193148876562045,22.697798751261768,13.920030301674549,4.433615757409999e-06
1.7220000000000013,-1.121175592283834,-23.415321030642595,22.914190885048733,14.052582894307173,4.419350987416347e-06
1.7240000000000013,-1.1322225503657681,-23.64720250765211,23.140039744476766,14.190928273764358,4.404462821304721e-06
1.7260000000000013,-1.1418096271930325,-23.848440307091693,23.33604215080684,14.310990988922306,4.391542161040548e-06
1.7280000000000013,-1.152245423516739,-24.067493176430354,23.5493961510168,14.441682550493644,4.377477667627784e-06
1.7300000000000013,-1.1624651155543604,-24.282009902816906,23.75833202035599,14.569667753514594,4.363704421496381e-06
1.7320000000000013,-1.1726753890032418,-24.49632892805785,23.967075331933255,14.697535003862647,4.349943868951091e-06
1.7340000000000013,-1.1827150813449467,-24.70706736588381,24.17233120848904,14.823266000245985,4.3364132113542845e-06
1.7360000000000013,-1.1922702396214813,-24.9076351781077,24.367681057959267,14.94292898690133,4.323535568243048e-06
1.7380000000000013,-1.2015046426259326,-25.101470167983788,24.556473245870688,15.05857502975186,4.31109021225887e-06
1.7400000000000013,-1.2106506155472159,-25.293448963770516,24.74345753035073,15.173113628062403,4.298764034944304e-06
1.7420000000000013,-1.22219937510701,-25.53586351848239,24.97956543942785,15.31774326381456,4.283199582772566e-06
1.7440000000000013,-1.2465124154289633,-26.04620705908713,25.476631906523515,15.62222498304903,4.250432500621339e-06
1.7460000000000013,-1.2594650679659185,-26.31809006789225,25.741441619780506,15.78443611998931,4.232975998919596e-06
1.7480000000000013,-1.267556682203273,-26.48793731876735,25.906870132578685,15.885770571861512,4.222070798050413e-06
1.7500000000000013,-1.276183062979077,-26.669009601354453,26.083231647192676,15.993802114383831,4.210444883569725e-06
1.7520000000000013,-1.286165197278483,-26.878539865512785,26.287310781870048,16.118812288877233,4.196991797888052e-06
