Ceciluh/Robotics_Control_Lab_4.1/best_PD5_actual_deg.csv
time_s,q_shoulder_pan_deg,q_shoulder_lift_deg,q_elbow_flex_deg,q_wrist_flex_deg,q_wrist_roll_deg
0.0,-4.4003158666,-92.24620501609999,89.9543738355,55.1185398916,0.0
0.002,-4.400315666985811,-92.24620778021945,89.95657600003226,55.11858313728602,1.5066380945036598e-08
0.004,-4.399292160105513,-92.22027022800381,89.93975587634905,55.10131324491056,1.975886548633249e-07
0.006,-4.396371311573302,-92.16929667116165,89.9049132853844,55.06069333168344,6.245416692093945e-07
0.008,-4.391181368760713,-92.09431252487414,89.85266080232569,54.99764332951653,1.286719185420201e-06
0.01,-4.383624403125999,-91.99630117732274,89.78359043805199,54.913047496722996,2.1389326500788927e-06
0.012,-4.374041261428003,-91.87620568124291,89.69827421076413,54.80775557940834,3.086980255560824e-06
0.014,-4.362956345534166,-91.7349304073719,89.5972648893124,54.682584291333576,4.0313624766717495e-06
0.016,-4.350893173492149,-91.57334263190795,89.48109667958717,54.53831868392905,4.893137576619461e-06
0.018000000000000002,-4.338549848414437,-91.39236732001466,89.35007580448658,54.379832112035146,5.586422951619535e-06
0.020000000000000004,-4.326484217447054,-91.19301659989445,89.20421552357823,54.21747269933088,6.060290034332607e-06
0.022000000000000006,-4.315124305483601,-90.97622956198676,89.04359941689141,54.060094825349815,6.294303095355763e-06
0.024000000000000007,-4.304655314165294,-90.7428298472729,88.86848263234488,53.913051114891545,6.307940253448944e-06
0.02600000000000001,-4.29512364939716,-90.49355427958318,88.6792324119046,53.77927455439741,6.1384647690405205e-06
0.02800000000000001,-4.286548996720987,-90.22908598908148,88.47625713157852,53.660610434428044,5.821904346876565e-06
0.030000000000000013,-4.277552339288525,-89.94964709547257,88.26095178677818,53.539444410149514,5.576765465435673e-06
0.032000000000000015,-4.268006236494285,-89.65581461770948,88.03382160279989,53.41457485924276,5.408783639535253e-06
0.034000000000000016,-4.2580110213272215,-89.34819829436616,87.79522312128931,53.287327930447034,5.291235028610219e-06
0.03600000000000002,-4.247819518486319,-89.0377407331694,87.546075729325,53.16087735770007,5.184742470123674e-06
0.03800000000000002,-4.237442836035806,-88.73679619287061,87.28755901532337,53.03477138605098,5.090634364647197e-06
0.04000000000000002,-4.226973137887992,-88.45518120878728,87.02061241512914,52.9093575442192,4.998099435734333e-06
0.04200000000000002,-4.21649027452004,-88.19803360035078,86.74586188181814,52.78463720568744,4.898757914500576e-06
0.044000000000000025,-4.206089878255676,-87.96693436049978,86.46366962418307,52.66084485760481,4.78283802999323e-06
0.04600000000000003,-4.195908768110039,-87.76135355913411,86.17420867017513,52.53894488245086,4.636576930672975e-06
0.04800000000000003,-4.186187338082057,-87.5810914248648,85.87757757247999,52.42158124417035,4.435461684671263e-06
0.05000000000000003,-4.176967083782005,-87.42071333034784,85.57365968477421,52.3088510994283,4.186074083224368e-06
0.05200000000000003,-4.168262588307658,-87.27562761286029,85.2769658023102,52.199981793260456,3.879992260571268e-06
0.054000000000000034,-4.1594063687133875,-87.12559967146368,84.98812923546953,52.085988888756,3.615479672724927e-06
0.056000000000000036,-4.150198944787448,-86.96263597120428,84.71293479461123,51.96475630042648,3.404336383048857e-06
0.05800000000000004,-4.140594085184135,-86.78352587641835,84.45603641294282,51.83671170277944,3.2373195115034976e-06
0.06000000000000004,-4.129653263323207,-86.5870059697817,84.20264050676897,51.69158212272212,3.252216523809927e-06
0.06200000000000004,-4.117192750177499,-86.37327684098803,83.94706839298253,51.528396955176824,3.4436014998629284e-06
0.06400000000000004,-4.103309337235152,-86.1427719421099,83.68574833444497,51.34938870871402,3.7645921063941095e-06
0.06600000000000004,-4.088430474162197,-85.89633345488316,83.41939385923322,51.160476400799304,4.126422529712502e-06
0.06800000000000005,-4.073207481851077,-85.63512518059217,83.15247271014158,50.96989709596449,4.4231219572116625e-06
0.07000000000000005,-4.058267839052459,-85.36029343608375,82.88997265799,50.78517551166409,4.573794695593463e-06
0.07200000000000005,-4.043946600151719,-85.07256627924451,82.63334484301451,50.60989604165045,4.5599038143919465e-06
0.07400000000000005,-4.03010405290305,-84.77196817237746,82.37742732921518,50.44157548642687,4.441400765110296e-06
0.07600000000000005,-4.0149778439551636,-84.4575730948833,82.11178438615075,50.256314215654186,4.494100602332037e-06
0.07800000000000006,-3.9992631164513415,-84.13011368634388,81.83629297488315,50.06306882982531,4.589499608027384e-06
0.08000000000000006,-3.9837579511261763,-83.79032273950808,81.55075305398702,49.8722178194446,4.610546154035166e-06
0.08200000000000006,-3.9691296420346345,-83.43906831670658,81.25756712787887,49.692192135232204,4.479201013122441e-06
0.08400000000000006,-3.9559553083345333,-83.09235679285165,80.97216624353206,49.529925055706684,4.135037265629724e-06
0.08600000000000006,-3.9444939568100157,-82.77148719626774,80.7066123763905,49.38859866360351,3.581112924680241e-06
0.08800000000000006,-3.9344737929573737,-82.48311149891165,80.4629729510829,49.26449770236149,2.9028685782556023e-06
0.09000000000000007,-3.9256065628925167,-82.23049965376012,80.2421822639061,49.15382120141398,2.172709492816445e-06
0.09200000000000007,-3.917215692895873,-82.00410339816678,80.03615337596374,49.04785752497976,1.5100279143676953e-06
0.09400000000000007,-3.908946029339129,-81.79877713155881,79.84114198321848,48.94230050637239,9.61126740060341e-07
0.09600000000000007,-3.9006936963409142,-81.61232772855965,79.65644166440788,48.836243087009564,5.240784925947931e-07
0.09800000000000007,-3.892455162636368,-81.44244898998006,79.48173245322062,48.73010584291082,1.816556892845249e-07
0.10000000000000007,-3.884111912076828,-81.28239066734788,79.3132906152453,48.622754355555074,-6.217618871588151e-08
0.10200000000000008,-3.875350524757625,-81.12006461733507,79.14284507696797,48.51044092001233,-1.743516915934161e-07
0.10400000000000008,-3.8661746378539465,-80.95122833784757,78.9679372141249,48.39350353857778,-1.7874636781941145e-07
0.10600000000000008,-3.8565338328561514,-80.77099212806209,78.78513157668466,48.27144903381846,-8.71760004158047e-08
0.10800000000000008,-3.8464488193380246,-80.5772089815907,78.59273079065365,48.144598709826184,7.861448544233428e-08
0.11000000000000008,-3.8360789493683116,-80.37216656088464,78.39228629345955,48.01497151519365,2.7845785935846406e-07
0.11200000000000009,-3.825572812659651,-80.15885150655649,78.18578619284104,47.884329663170426,4.810154747962649e-07
0.11400000000000009,-3.815069601858899,-79.94080208513364,77.97566166566075,47.75423241881054,6.621123048411506e-07
0.11600000000000009,-3.804806901943502,-79.72443478945016,77.76680296509446,47.627486429928716,7.867769276179619e-07
0.11800000000000009,-3.794942518150861,-79.51443222899368,77.56296197996184,47.50583264558885,8.396798338421209e-07
0.12000000000000009,-3.784207045502383,-79.28708358604744,77.34717791705657,47.372127426532806,1.024680549108096e-06
0.1220000000000001,-3.772589335574001,-79.04308195889276,77.1198879668263,47.22635481003341,1.3140092323757642e-06
0.1240000000000001,-3.7605645267379804,-78.78673369768313,76.8814021244078,47.07530017843302,1.6185190203897758e-06
0.12600000000000008,-3.748437702961567,-78.52639842149922,76.63494757884239,46.923259583238334,1.8875258960611846e-06
0.12800000000000009,-3.7366508693229266,-78.27389484348696,76.39023157861492,46.77595652811639,2.0544249900281973e-06
0.1300000000000001,-3.7255534388132925,-78.03825144006237,76.15557358108966,46.63776058476639,2.0809687366531155e-06
0.1320000000000001,-3.7146744273999994,-77.80823030663008,75.92334826841032,46.502193515910804,2.066950537874009e-06
0.1340000000000001,-3.7042068775278834,-77.58861897713885,75.69883691972521,46.371636315341476,1.9884128935065943e-06
0.1360000000000001,-3.6941152233739243,-77.37833761397242,75.48262249934501,46.2454992644336,1.8631534405595564e-06
0.1380000000000001,-3.6836798699501108,-77.15977943739324,75.26147574880508,46.114293548681204,1.8142729033145565e-06
0.1400000000000001,-3.673064096198304,-76.93709978105316,75.03909055338526,45.98037317477819,1.8006801471539517e-06
0.1420000000000001,-3.6619394709755975,-76.70252737496205,74.80911482974399,45.839640958867136,1.867160716853048e-06
0.1440000000000001,-3.6501342503398417,-76.45234999353191,74.56797094714587,45.69013727345475,2.0242966332476633e-06
0.1460000000000001,-3.6378935930816008,-76.19300410100483,74.31994411485809,45.53540249870996,2.214045068975623e-06
0.1480000000000001,-3.625173014157845,-75.9237033137414,74.06354237276499,45.375029595465655,2.4354887939243778e-06
0.1500000000000001,-3.6125508511062097,-75.6585591471394,73.80955610972293,45.21673214728016,2.588842402237682e-06
0.1520000000000001,-3.599911482302983,-75.39435509929353,73.55514908279814,45.05884684081593,2.704917612673733e-06
0.1540000000000001,-3.586691101730181,-75.11729063281314,73.29048258808706,44.89364543046018,2.877618058845795e-06
0.1560000000000001,-3.573270183441762,-74.83634396587429,73.02037408606624,44.72625980228599,3.03685008088727e-06
0.1580000000000001,-3.559833156144863,-74.55578602893809,72.7482523171395,44.558959972081624,3.154456316483455e-06
0.16000000000000011,-3.546480362389078,-74.2777182671146,72.4761202182164,44.39286066441091,3.2214236304748875e-06
0.16200000000000012,-3.5330594798297468,-73.998093022218,72.20114578011079,44.225736864397625,3.271191525372626e-06
0.16400000000000012,-3.519315324534155,-73.7105906964263,71.91855639360195,44.05409110061405,3.3470885275821345e-06
0.16600000000000012,-3.5052340556022017,-73.41504891536174,71.62843293449176,43.87775115280874,3.4449240818854114e-06
0.16800000000000012,-3.4908196208619584,-73.11183232819492,71.33122076109427,43.69684538782874,3.558220514822112e-06
0.17000000000000012,-3.4764172412765864,-72.80956269831748,71.03415718840863,43.51606368397279,3.6269292227424653e-06
0.17200000000000013,-3.4626545646479987,-72.52330825059859,70.75010990499052,43.34376617190299,3.5580522590908197e-06
0.17400000000000013,-3.4499367029972006,-72.26205380706566,70.48747316246389,43.18518400404847,3.314328918637454e-06
0.17600000000000013,-3.4380600466713105,-72.0195944742697,70.24238199533113,43.03734206395232,2.9659740930193373e-06
0.17800000000000013,-3.425198111182262,-71.7610655993947,69.98682404356165,42.875618963798054,2.822960893153206e-06
0.18000000000000013,-3.4107590343293595,-71.48703493335866,69.72139614480825,42.69628363351423,2.9257004851376722e-06
0.18200000000000013,-3.3955847604083718,-71.19824250156914,69.44607128033205,42.50618940548899,3.108804722077426e-06
0.18400000000000014,-3.3805428646259457,-70.89550228824866,69.16051161247314,42.31757709829601,3.2332971250594927e-06
0.18600000000000014,-3.366201969768914,-70.59383085580994,68.87366530428724,42.13830254237186,3.2218852938442525e-06
0.18800000000000014,-3.353025137490817,-70.30769934137543,68.5974073843244,41.97434975047549,3.02473417454007e-06
0.19000000000000014,-3.341122767579194,-70.04327578382191,68.33756705490103,41.826816117014324,2.6597540568252233e-06
0.19200000000000014,-3.330487742056133,-69.80374693498419,68.09799629465226,41.69520506624998,2.1617608198340052e-06
0.19400000000000014,-3.32096518179583,-69.58821144751252,67.87938440386989,41.57711878952439,1.5843197093566532e-06
0.19600000000000015,-3.3112951992326844,-69.36832028494167,67.65941999902026,41.45554459480154,1.1513805676221542e-06
0.19800000000000015,-3.3015286779150563,-69.14798776296354,67.44152700660183,41.33153734759228,8.283591065419912e-07
0.20000000000000015,-3.291825758691429,-68.93288716703314,67.23038056816611,41.20771565658667,5.694417052659351e-07
0.20200000000000015,-3.2822731123882054,-68.72583568559102,67.02821208965956,41.085683982493045,3.501475182936491e-07
0.20400000000000015,-3.2730736291253177,-68.53156263964391,66.83880112979385,40.96852091673195,1.3238637446106164e-07
0.20600000000000016,-3.2642762639337315,-68.35021774718064,66.6621833408217,40.85707293432078,-8.851257739450665e-08
0.20800000000000016,-3.2553317846893415,-68.16698513679427,66.48584104044306,40.74402373510226,-2.1815333042272287e-07
0.21000000000000016,-3.246338253814861,-67.9833047260003,66.31035308266995,40.630824094878776,-2.8760210203482153e-07
0.21200000000000016,-3.2369808680932244,-67.79063471447273,66.12794563411839,40.513267593911245,-2.550347930883513e-07
0.21400000000000016,-3.226905673536299,-67.58032869276484,65.93257848458408,40.3865078932546,-8.527733645309265e-08
0.21600000000000016,-3.216431199262004,-67.36012467372662,65.72697800135991,40.255188317652,1.4521788011791584e-07
0.21800000000000017,-3.205704734594792,-67.13392276533419,65.51362299884423,40.121247720380836,3.9808212574582416e-07
0.22000000000000017,-3.1946215407730945,-66.89944726463419,65.29022252074618,39.98311611142639,6.831160296793748e-07
0.22200000000000017,-3.183173786532861,-66.65693383660327,65.05680789082393,39.84052924292476,9.914452636826968e-07
0.22400000000000017,-3.1717771885243033,-66.41693790010491,64.82234440808837,39.69893918962685,1.2458039246281739e-06
0.22600000000000017,-3.1608184234708507,-66.18876930070775,64.59532156182074,39.563289692401376,1.389478269158789e-06
0.22800000000000017,-3.1505212850729034,-65.97719887915765,64.38090631219372,39.4362303305165,1.4050698490498747e-06
0.23000000000000018,-3.140416743959026,-65.76973541670547,64.16997110301234,39.311036533821834,1.3942578978231593e-06
0.23200000000000018,-3.130240935236577,-65.55943390107214,63.957593351698044,39.18402623341108,1.4050575906974914e-06
0.23400000000000018,-3.1199313375208635,-65.34472000128625,63.742937401206824,39.05446312295026,1.4425775745939271e-06
0.23600000000000018,-3.109599467305498,-65.12851542972683,63.52864794536686,38.924090025598005,1.4820623694655013e-06
0.23800000000000018,-3.0994852560352433,-64.9168732336525,63.31987487964594,38.79639783776562,1.4827050737123055e-06
0.24000000000000019,-3.08958158488737,-64.70957851168427,63.11649483729068,38.671436658891494,1.4533551684269448e-06
0.2420000000000002,-3.0795115458505706,-64.49737645120348,62.91060971185779,38.544204520427854,1.4627839874165577e-06
0.2440000000000002,-3.06821608346471,-64.26775807813556,62.692928405797986,38.40025960839117,1.663874655744117e-06
0.2460000000000002,-3.054303533106367,-64.02137900600867,62.463975654575556,38.238084101156744,2.2038946859001663e-06
0.2480000000000002,-3.0368177910869694,-63.75891111655901,62.22412569223724,38.05839398305163,3.1362893518087915e-06
0.25000000000000017,-3.0165431437869077,-63.4809968711109,61.973738761431065,37.86187573857052,4.263405089910615e-06
0.25200000000000017,-2.9950003518141557,-63.188251839104296,61.713162106225525,37.649188218084795,5.3252883427012526e-06
0.25400000000000017,-2.972414984492425,-62.88126863815652,61.44273138658281,37.42096509361872,6.290768286578257e-06
0.25600000000000017,-2.9488594597896123,-62.56061618102331,61.16277057966578,37.177815068536724,7.157057293402914e-06
0.2580000000000002,-2.9251216322104336,-62.226839329476604,60.87359201538223,36.920322290391326,7.826109760199137e-06
0.2600000000000002,-2.901951395833432,-61.880460925518186,60.575497155999535,36.64904783383891,8.227247455588438e-06
0.2620000000000002,-2.879973423496287,-61.52198277558643,60.268777032057955,36.36453066633018,8.324387235707337e-06
0.2640000000000002,-2.8596410062898427,-61.15188653730419,59.953712639754166,36.067288544519506,8.11581974233848e-06
0.2660000000000002,-2.8411116551361277,-60.77083448234562,59.62999478867944,35.7676075797605,7.639812334192298e-06
0.2680000000000002,-2.8247095340584143,-60.37965434337292,59.29678636019634,35.484732687390675,6.903424898026435e-06
0.2700000000000002,-2.810281541079212,-59.97897525999917,58.9537910984045,35.229129336624744,5.984725214184604e-06
0.2720000000000002,-2.796070869163122,-59.568876171106254,58.60225039298624,34.98554397822859,5.179702831552637e-06
0.2740000000000002,-2.7819352525667336,-59.14983529503883,58.24217903913537,34.75867069079608,4.493394224899229e-06
0.2760000000000002,-2.768312769534588,-58.7224109600552,57.87331223587998,34.557834093968324,3.8464640091320284e-06
0.2780000000000002,-2.7555901097439093,-58.28705620723114,57.495640980819125,34.388167974724084,3.1837119097393264e-06
0.2800000000000002,-2.7438371799069765,-57.844055680864365,57.109585466551316,34.24760932295015,2.507891423279494e-06
0.2820000000000002,-2.7324159084470065,-57.400237420645624,56.716973341467266,34.12276433141361,1.9260716915664736e-06
0.2840000000000002,-2.721226729233249,-56.97993348496289,56.321018531885734,34.00832712357168,1.4488019896413989e-06
0.2860000000000002,-2.710478618291535,-56.596573534540305,55.92345901497447,33.90279699330124,1.0350941344775374e-06
0.2880000000000002,-2.700158419434611,-56.24863239873976,55.52455510602405,33.80131211658228,6.796338904040338e-07
0.2900000000000002,-2.688962878218086,-55.93427587483132,55.12558503228099,33.68187623236578,5.656681534160845e-07
0.2920000000000002,-2.6768739619637887,-55.65218770856394,54.72650391840242,33.54395651797078,6.474001213283943e-07
0.2940000000000002,-2.6634057969611886,-55.39319664311329,54.32890366431224,33.38787055190747,9.444635682995345e-07
0.2960000000000002,-2.6463669999768786,-55.11910960111989,53.92582437729872,33.21361250073394,1.7090155289726522e-06
0.2980000000000002,-2.625903790995535,-54.83051424729048,53.51744457324441,33.02190858734409,2.815226372530589e-06
0.3000000000000002,-2.603207750636839,-54.52797291241751,53.10393561713282,32.81345498676731,4.012155877142809e-06
0.3020000000000002,-2.5797592833423058,-54.21202488213158,52.685462411382,32.58891954728684,5.058360110870501e-06
0.3040000000000002,-2.555572287202622,-53.883190372723774,52.26218447313158,32.348944013789755,5.96882666225773e-06
0.3060000000000002,-2.5317168421891143,-53.541966843072764,51.83425499138843,32.09414354715445,6.609427458803196e-06
0.3080000000000002,-2.509155460549164,-53.189388501546944,51.40622985267475,31.824785457259082,6.885263118507665e-06
0.3100000000000002,-2.488318232808103,-52.827100059264986,50.987684962848995,31.54075700074973,6.792523250056829e-06
0.3120000000000002,-2.469323226752723,-52.45628418101399,50.584886185246305,31.24219044246302,6.381657665952409e-06
0.3140000000000002,-2.4521160536002933,-52.07802354878226,50.202184998728605,30.935068042031602,5.720876974766032e-06
0.3160000000000002,-2.4370745321553726,-51.69501640517254,49.852177362678184,30.643148881443615,4.784590807700775e-06
0.3180000000000002,-2.423953809984822,-51.30784043133022,49.53444694110917,30.37947928076415,3.6691572456330828e-06
0.32000000000000023,-2.4123707720795613,-50.91669648985609,49.24755437959498,30.150272509060436,2.4783289148872256e-06
0.32200000000000023,-2.4018977833378523,-50.53542320743806,48.99228981790093,29.95460583587557,1.3099316751204847e-06
0.32400000000000023,-2.392069771910347,-50.17537838343938,48.76590454215978,29.791790075337172,2.5132399799851256e-07
0.32600000000000023,-2.3813442381311405,-49.81487456410957,48.53654082635396,29.643809561386583,-4.3706278993587625e-07
0.32800000000000024,-2.36648587781775,-49.442216248552604,48.29635066799314,29.477808056653746,-3.349184514456426e-07
0.33000000000000024,-2.348038069831523,-49.057890447301425,48.045677560059204,29.294487140972443,3.2214695614220977e-07
0.33200000000000024,-2.32735983273742,-48.66236249174415,47.78485316610389,29.094520223874646,1.2214930219689994e-06
0.33400000000000024,-2.305500382137224,-48.25607904531953,47.5141982833532,28.878554327539568,2.1531938289889974e-06
0.33600000000000024,-2.284047049054941,-47.846664775409295,47.234671685068115,28.65180206463952,2.871073497653954e-06
0.33800000000000024,-2.2641801821162337,-47.4578864208455,46.948626879588524,28.43076938035021,3.2386957174623305e-06
0.34000000000000025,-2.2467078654813855,-47.102865163190835,46.6572872570034,28.227542315937384,3.201354875769719e-06
0.34200000000000025,-2.23212432042808,-46.780571058652356,46.360252910489365,28.050060445845663,2.7619877571424243e-06
0.34400000000000025,-2.2204638160038828,-46.489875112942926,46.05748232660466,27.90053137837842,1.9981236459426635e-06
0.34600000000000025,-2.2111654491481048,-46.22957022381794,45.74922886798661,27.776305899133657,1.065354468260268e-06
0.34800000000000025,-2.203754859536371,-45.999789999128346,45.44540416215085,27.67275909591205,6.412966388225879e-08
0.35000000000000026,-2.1978356443837965,-45.80099093156046,45.1586114760602,27.583183758332225,-9.383788411278041e-07
0.35200000000000026,-2.19294576555057,-45.63317113345922,44.89806353868679,27.501339272519353,-1.873529505788636e-06
0.35400000000000026,-2.187061822984706,-45.48726524317239,44.640917357097806,27.402607561861913,-2.401842706328596e-06
0.35600000000000026,-2.179639570301268,-45.34541414371502,44.384183541394485,27.283693119296775,-2.5246992666624016e-06
0.35800000000000026,-2.170736440095646,-45.20116075375525,44.13324306117537,27.146818781136613,-2.346248167308917e-06
0.36000000000000026,-2.160660646544868,-45.05188890124979,43.894080344917334,26.999078500004007,-1.9912270283515275e-06
0.36200000000000027,-2.1498067924413617,-44.8960497484346,43.67074323745917,26.847835274710373,-1.5699065222200203e-06
0.36400000000000027,-2.1380236642510773,-44.72379247060734,43.45307395960662,26.691568462925847,-1.0680861592450795e-06
0.36600000000000027,-2.125818105829826,-44.536327314173356,43.243730504383024,26.537263195059104,-5.897040612835902e-07
0.36800000000000027,-2.1137566325077586,-44.33593811506705,43.046312739916814,26.39169895103102,-2.2637311354316403e-07
0.3700000000000003,-2.1022593472356195,-44.12913406553348,42.862992900307816,26.2590848454055,-2.1437232021645837e-08
0.3720000000000003,-2.091569847533589,-43.92065869029954,42.693290044191706,26.140580860905068,2.3071414708416877e-08
0.3740000000000003,-2.081156295470402,-43.69791483481892,42.52050385227658,26.025799022200633,4.2178778982824934e-08
0.3760000000000003,-2.0709367689541853,-43.46275705506571,42.340792822083046,25.91181294439368,6.255659523622919e-08
0.3780000000000003,-2.0608428946905906,-43.21888484592006,42.15242360013258,25.79650622857645,1.0058404527938269e-07
0.3800000000000003,-2.050414007924463,-42.96131728172138,41.95110495291064,25.672181983033596,2.2771265787977717e-07
0.3820000000000003,-2.0390246077694787,-42.687724134183064,41.73749786008725,25.529553148439053,5.186137003049862e-07
0.3840000000000003,-2.0267334445182206,-42.39877214057742,41.511923492898916,25.37085099951171,9.26816184641919e-07
0.3860000000000003,-2.0138077273487736,-42.10168432776447,41.275402026377975,25.202139850828086,1.384456995297397e-06
0.3880000000000003,-1.999414433901476,-41.79011223197255,41.02781465111747,25.01611609599001,1.9982783788510226e-06
0.3900000000000003,-1.9840465714068858,-41.46470089605591,40.769350767900825,24.81637827113972,2.654733283925093e-06
0.3920000000000003,-1.9683552666331854,-41.13730753977166,40.501326308881495,24.614656959389954,3.2408716851382864e-06
0.3940000000000003,-1.9530370456826234,-40.82240062846674,40.22544721799586,24.42252245020516,3.661446581326689e-06
0.3960000000000003,-1.9386412564297657,-40.530625330314436,39.94307296479814,24.247868902039173,3.863415157513944e-06
0.3980000000000003,-1.925505367082448,-40.26760201536065,39.65508375961746,24.09411233337289,3.837844600473102e-06
0.4000000000000003,-1.9133686180174372,-40.02557640125767,39.360996791553916,23.954308982572822,3.667406271461976e-06
0.4020000000000003,-1.9019005106382076,-39.79568641621433,39.0601879110942,23.820987377014593,3.4304727376362904e-06
0.4040000000000003,-1.8906629420682504,-39.567498128166136,38.75311645936122,23.685810307824315,3.2041791509058362e-06
0.4060000000000003,-1.8796350916931452,-39.3419546197027,38.44983892301245,23.54806866686427,2.976224530598524e-06
0.4080000000000003,-1.8687747473221497,-39.1191182464058,38.1579632261597,23.407642160680098,2.7432926236957013e-06
0.4100000000000003,-1.8579915697279754,-38.89734483742653,37.881444404989324,23.264379841228067,2.5149912818239776e-06
0.4120000000000003,-1.847286675323267,-38.67696224731819,37.623803932331576,23.11997977960226,2.2866757119402287e-06
0.4140000000000003,-1.8366251717737736,-38.45691482389139,37.385136379609335,22.975665616319883,2.0651075175660505e-06
0.4160000000000003,-1.8251945197996242,-38.22171947495762,37.145889053155656,22.821009586769954,2.0002682990055595e-06
0.4180000000000003,-1.8123494132271512,-37.96988838001913,36.895294483528545,22.648634933306088,2.1797224161775462e-06
0.4200000000000003,-1.7984696353534806,-37.70225595622734,36.63334309638184,22.46580709152025,2.4917788064400887e-06
0.4220000000000003,-1.7841025013994831,-37.42051997802088,36.36526494806827,22.281108394563006,2.811512005428958e-06
0.4240000000000003,-1.7696848086459727,-37.12621456784738,36.09620035121572,22.100524189049185,3.0573393138327072e-06
0.4260000000000003,-1.7556587824125882,-36.82876254508301,35.83371624709631,21.929863805627193,3.1671471523760425e-06
0.4280000000000003,-1.7423313211087699,-36.53827396754054,35.58346425146942,21.772409569599237,3.1185368958977694e-06
0.4300000000000003,-1.729875627456717,-36.26160834647442,35.34830974620895,21.628931423598384,2.918790050858984e-06
0.43200000000000033,-1.7184379708844228,-36.00488978950799,35.13090949170093,21.499669366599253,2.579437180285904e-06
0.43400000000000033,-1.7075660489250128,-35.75825359285831,34.91962344387892,21.37570520267895,2.217443006441222e-06
0.43600000000000033,-1.6966170913573433,-35.507301091564806,34.69912790956797,21.246040629467426,1.9589730052048355e-06
0.43800000000000033,-1.6856078547603843,-35.25558829010483,34.47145724910692,21.111116465002535,1.783260794503963e-06
0.44000000000000034,-1.6747602418460066,-35.01145776423043,34.24388040121927,20.97505512134213,1.6346007913094554e-06
0.44200000000000034,-1.6642783828668113,-34.78160358251395,34.02287759391857,20.84177740257441,1.4707218542177989e-06
0.44400000000000034,-1.6543470306168573,-34.57095882740529,33.813915701540544,20.71479451452777,1.2613452340427954e-06
0.44600000000000034,-1.6445864112317334,-34.36850198304045,33.60793997721249,20.588573721986926,1.0844806881859512e-06
0.44800000000000034,-1.6350801723075554,-34.17548118393687,33.407578304607284,20.465143563149002,9.182945853814186e-07
0.45000000000000034,-1.625805635479641,-33.98994425127636,33.21255061737563,20.34469384765845,7.645855467375952e-07
0.45200000000000035,-1.6167994829745005,-33.8114606893517,33.02394221428297,20.228230624176692,6.142206651142305e-07
0.45400000000000035,-1.6081550921262187,-33.64112459308504,32.844104353667426,20.11746043099618,4.5010493906609177e-07
0.45600000000000035,-1.5991524415311085,-33.45866976349829,32.654981127885655,20.001055559606975,4.056770167307846e-07
0.45800000000000035,-1.589676263850534,-33.261387520511235,32.45458457980153,19.877874102273587,4.765011812207724e-07
0.46000000000000035,-1.5797680255503463,-33.051322075413935,32.245048875359764,19.74931577890543,6.295649966232432e-07
0.46200000000000035,-1.5691858213433607,-32.82388617432533,32.022314500495995,19.612116484764663,8.878933393722348e-07
0.46400000000000036,-1.557558859973475,-32.57955178337943,31.787200106834703,19.46112943466883,1.2858283593029603e-06
0.46600000000000036,-1.5448085123934032,-32.31892681541718,31.54020522219667,19.29595334725142,1.8021973402329107e-06
0.46800000000000036,-1.5313831539742278,-32.04286830103722,31.28131521616097,19.124302853017117,2.3342372340785972e-06
0.47000000000000036,-1.5177003929202284,-31.75637265307828,31.011296852039298,18.953021051993286,2.8078815682839478e-06
0.47200000000000036,-1.5041288581552243,-31.469936885598333,30.739024960957288,18.787229526086964,3.164433614837764e-06
0.47400000000000037,-1.490004658411371,-31.169037667962453,30.45580059225749,18.6145132471299,3.532752291520772e-06
0.47600000000000037,-1.4756433648472285,-30.860700297778084,30.162863112023402,18.439724401962994,3.85980085117242e-06
0.47800000000000037,-1.4614135534017267,-30.55582496917239,29.86931655766884,18.26797643417095,4.085240828638116e-06
0.48000000000000037,-1.44771603903886,-30.26578046292209,29.586463431574856,18.104506550894033,4.153475978220533e-06
0.4820000000000004,-1.434843295303365,-29.99802139286233,29.322185141602922,17.952561486431005,4.041791793060669e-06
0.4840000000000004,-1.422559128358267,-29.745038563975637,29.070211670389675,17.806824503021048,3.830338730500177e-06
0.4860000000000004,-1.4107381803106647,-29.5025304481305,28.827295235659584,17.664416213327627,3.5640174236794596e-06
0.4880000000000004,-1.3990989456872225,-29.26229998145938,28.586350198199543,17.520552023484374,3.3074260103222037e-06
0.4900000000000004,-1.3873817650555773,-29.017419285713846,28.34132928560333,17.371568145906384,3.107597609508817e-06
0.4920000000000004,-1.3753167709662732,-28.76137841408906,28.08639073999497,17.2142758038782,3.0028254510560875e-06
0.4940000000000004,-1.362962241506787,-28.497100220122547,27.82457060654702,17.05128446171135,2.962671212107575e-06
0.4960000000000004,-1.3503021666203303,-28.225399263834746,27.556758098145366,16.883872060256138,2.97584717187954e-06
0.4980000000000004,-1.337231947633958,-27.94455455858889,27.281287899939187,16.7116330276269,3.0491925178694563e-06
0.5000000000000003,-1.3239374266662214,-27.66055878986668,27.003836147437944,16.538648355791114,3.1350665076204817e-06
0.5020000000000003,-1.308195505236664,-27.361637308404994,26.71607803352151,16.348248428460916,3.5895972346051934e-06
0.5040000000000003,-1.2905859630742758,-27.04835028996437,26.418370051447216,16.141119174665114,4.241444345213119e-06
0.5060000000000003,-1.2720672276381522,-26.721235509621067,26.111055057368382,15.917918887824806,4.891586846315756e-06
0.5080000000000003,-1.2535218961534704,-26.38119967764875,25.79383175679136,15.689747463838573,5.388531256920029e-06
0.5100000000000003,-1.2357838034232702,-26.02923405032652,25.466236315126864,15.470497386704103,5.619846621432472e-06
0.5120000000000003,-1.2194974822863496,-25.683612791903737,25.13698947880963,15.27145991138088,5.535059777319818e-06
0.5140000000000003,-1.204956513512683,-25.3582540373749,24.820607878899384,15.096514828136408,5.1409979782684345e-06
0.5160000000000003,-1.191511378957668,-25.04209118640488,24.50786616081491,14.933584584770706,4.617524215839111e-06
0.5180000000000003,-1.1790042364873672,-24.73864749413398,24.203938534548247,14.77978507318627,4.018974410219687e-06
0.5200000000000004,-1.1673439025365708,-24.452692593582118,23.915206947626768,14.633872535251838,3.3775862766714848e-06
0.5220000000000004,-1.1565947577446447,-24.19179118026062,23.65058979048926,14.497567862058835,2.6921859672893645e-06
0.5240000000000004,-1.146798116462118,-23.960716472618163,23.4159608238935,14.372239491820796,1.9683049243823735e-06
0.5260000000000004,-1.137589773365157,-23.7510046452021,23.203838707312563,14.252400001708638,1.2868519012786391e-06
0.5280000000000004,-1.128668358393467,-23.554832739674882,23.00696037505037,14.13403925246951,7.01495070905433e-07
0.5300000000000004,-1.1200507767904722,-23.372340663945213,22.82553891174064,14.018800939850165,1.9646980714796014e-07
0.5320000000000004,-1.1116383607951523,-23.19955528970693,22.65550792730175,13.906160496238984,-2.196768917058705e-07
0.5340000000000004,-1.1025592937940767,-23.011048656895586,22.47154925434085,13.782426811398555,-3.9939612113627e-07
0.5360000000000004,-1.0922779535362952,-22.803932100145474,22.273549504292554,13.640502631376537,-3.0201905892186516e-07
0.5380000000000004,-1.080494934259747,-22.57885511120454,22.062089621078513,13.479936178790355,6.310369482648829e-08
0.5400000000000004,-1.0673972347156033,-22.33656549043234,21.837540143807463,13.303385490134788,6.057803319155209e-07
0.5420000000000004,-1.0532912499055145,-22.077941323112316,21.60002220624555,13.117390796653934,1.2310757569184915e-06
0.5440000000000004,-1.0388878128603933,-21.804061727106507,21.349310264019024,12.934139309645449,1.7950223745029606e-06
0.5460000000000004,-1.0247109576525024,-21.517003797248968,21.085696851539915,12.761291006941056,2.216796264747811e-06
0.5480000000000004,-1.0111306316493838,-21.22731515181285,20.81140747255434,12.603518099358308,2.468414573065187e-06
0.5500000000000004,-0.9984803542372805,-20.947757534581605,20.538823796468424,12.463316164344795,2.5206957208654576e-06
0.5520000000000004,-0.9863513342191903,-20.67112552066312,20.26268736402714,12.329977335220923,2.4847631386218656e-06
0.5540000000000004,-0.97463295790091,-20.399257753844015,19.986923381293483,12.19904141000607,2.394470477314733e-06
0.5560000000000004,-0.9632434439475229,-20.134442709780416,19.715846359983946,12.067578076637304,2.2719122528540114e-06
0.5580000000000004,-0.9522309328904744,-19.88169103531516,19.456211113020725,11.935924995148127,2.111588213269063e-06
0.5600000000000004,-0.9415607379994331,-19.642304347615667,19.21068736282724,11.803716167188908,1.9257171561651977e-06
0.5620000000000004,-0.9310990005382075,-19.413556648237183,18.977485634227566,11.669508917399675,1.7436154042490257e-06
0.5640000000000004,-0.9204217649472736,-19.183795428234284,18.745487805159115,11.527414133826229,1.6427516689197444e-06
0.5660000000000004,-0.9091944414671402,-18.943928003868752,18.505781409879507,11.373885736025345,1.6676716951829691e-06
0.5680000000000004,-0.8974122932443348,-18.6942230509933,18.25855708711812,11.211532558472278,1.7918964160744092e-06
0.5700000000000004,-0.8851844709989217,-18.437742742904458,18.006637567314876,11.044598541426977,1.9727949043966424e-06
0.5720000000000004,-0.8727792598086764,-18.181418691092116,17.75662877361613,10.879328010214335,2.147274333150098e-06
0.5740000000000004,-0.860481926228216,-17.931819995268103,17.51473264920414,10.721122573758981,2.263027993184058e-06
0.5760000000000004,-0.8485056468589737,-17.692756902752215,17.284373955208736,10.572980269881588,2.2932700758541058e-06
0.5780000000000004,-0.8369879684562573,-17.465545392116436,17.06648429442355,10.435715804617784,2.2322230984211123e-06
0.5800000000000004,-0.8260611870699505,-17.25138575683003,16.861905622657616,10.309581165660163,2.0776119860158208e-06
0.5820000000000004,-0.8135112439741451,-17.019435417567934,16.643890989428957,10.164069025900726,2.2337827772053926e-06
0.5840000000000004,-0.7996401586094956,-16.770355462634733,16.412929472042634,9.999946771009663,2.5859503537927797e-06
0.5860000000000004,-0.7849468973814634,-16.504781706995658,16.1694905837046,9.817950716928307,3.0075764673735967e-06
0.5880000000000004,-0.7700164395498349,-16.22375513267024,15.91344738684668,9.628624741474564,3.378705728136235e-06
0.5900000000000004,-0.755498045199906,-15.928368251699256,15.644568240263528,9.444273376472653,3.59312451348468e-06
0.5920000000000004,-0.7417678817301074,-15.629091265652683,15.365016154049306,9.272620950116877,3.6263160151682894e-06
0.5940000000000004,-0.7289948571052524,-15.335606534613344,15.081476306906819,9.11643234322688,3.487970402738456e-06
0.5960000000000004,-0.7173641881487702,-15.059784837818444,14.807733358427631,8.977829494755277,3.175644986864895e-06
0.5980000000000004,-0.7069665125839477,-14.81001658456452,14.554409901213198,8.856845299073475,2.706806661771218e-06
0.6000000000000004,-0.697737180444007,-14.588919445554023,14.326295396617798,8.750675180777124,2.1264638966318093e-06
0.6020000000000004,-0.68861223000484,-14.369462468673635,14.09786250559317,8.639072956331505,1.6567020582391244e-06
0.6040000000000004,-0.6794734231678027,-14.152472741146063,13.871656948831019,8.521045309463483,1.2978845921096091e-06
0.6060000000000004,-0.6703293971612294,-13.941278489648317,13.65238282930861,8.398583429044894,1.026116973240786e-06
0.6080000000000004,-0.6612884364154105,-13.740535234690778,13.44566401143085,8.275624080356621,8.040009494763214e-07
0.6100000000000004,-0.6524559964789508,-13.55315338584454,13.254921060028511,8.15571923139392,6.030551645421062e-07
0.6120000000000004,-0.6439209180073746,-13.380169669887277,13.081295453864117,8.041568673100326,4.047662089481254e-07
0.6140000000000004,-0.6351021826516495,-13.202624872581277,12.905252240055782,7.923201713256078,3.188527686037054e-07
0.6160000000000004,-0.6261134474212688,-13.022548764787619,12.728610628045905,7.8038276816781655,3.0280544730744966e-07
0.6180000000000004,-0.6170784049856513,-12.842144721228664,12.553283099074209,7.686305883550333,3.204910333523483e-07
0.6200000000000004,-0.60779343951006,-12.654247412847349,12.371569290562077,7.5669853063157335,4.033650282438985e-07
0.6220000000000004,-0.5977436095130109,-12.44793387915144,12.174787929982148,7.436545755965172,6.263746691797368e-07
0.6240000000000004,-0.5870680758524984,-12.224011151651885,11.963347268289187,7.298328118331902,9.336723763289965e-07
0.6260000000000004,-0.5758780890994557,-11.985558298365074,11.738210849701973,7.155061861112054,1.2875954869768548e-06
0.6280000000000004,-0.5641141531047185,-11.73228642974805,11.499792411260207,7.005704106016406,1.6834764257275865e-06
0.6300000000000004,-0.5515273355030633,-11.462964281902952,11.248508652426583,6.8457387365293405,2.14922970638079e-06
0.6320000000000005,-0.5383353231231639,-11.179696252109926,10.984936123957624,6.679433154592856,2.6283860393268276e-06
0.6340000000000005,-0.5248389860591801,-10.890422023298337,10.710901014508124,6.512610224034293,3.068784231908725e-06
0.6360000000000005,-0.5104504088020813,-10.586312513856637,10.425483335510666,6.333018616925889,3.564632609323235e-06
0.6380000000000005,-0.49546269056046516,-10.269487662099628,10.12913534632425,6.146153858510964,4.048797176343854e-06
0.6400000000000005,-0.48024478331285003,-9.948866168523082,9.823802847297353,5.9591317592070485,4.463517997489494e-06
0.6420000000000005,-0.4653254427061986,-9.638840311675818,9.521768158141521,5.780784208662539,4.725470170724424e-06
0.6440000000000005,-0.45109536676757694,-9.349605476005618,9.234779207950545,5.616005935074541,4.789009447310953e-06
0.6460000000000005,-0.43785862919879137,-9.087709867826117,8.97103477734055,5.467434975478173,4.636393698999371e-06
0.6480000000000005,-0.42587178702040523,-8.855584986023253,8.735936213321107,5.3364005874205525,4.2629244421999335e-06
0.6500000000000005,-0.4151041198014516,-8.65126870394991,8.527023723227945,5.219501704030823,3.726329282324377e-06
0.6520000000000005,-0.40548601777531235,-8.469820318747704,8.340250491180427,5.113218166037703,3.0789815606837636e-06
0.6540000000000005,-0.3968124732106882,-8.303272453751957,8.168250482947808,5.0126196187029315,2.388742120288497e-06
0.6560000000000005,-0.38871698087804213,-8.140382556027758,8.000101114799914,4.91113521184222,1.7394428785288324e-06
0.6580000000000005,-0.38089806185754543,-7.97365127278529,7.828667596763908,4.804958196132003,1.1844651217672023e-06
0.6600000000000005,-0.37318946831142424,-7.800989187129227,7.652334437405886,4.693930484668769,7.395615261396503e-07
0.6620000000000005,-0.365443161639814,-7.621551972063242,7.47064283889133,4.578660766529083,4.1242181031040384e-07
0.6640000000000005,-0.35542667523827975,-7.422983521303163,7.274073525792816,4.443388708864908,5.678662542017277e-07
0.6660000000000005,-0.34343722057501624,-7.205985883998429,7.063188370539058,4.288912388308533,1.054830508807697e-06
0.6680000000000005,-0.3301008474398871,-6.971234345064038,6.8385260203407015,4.115997315356091,1.6924474224381015e-06
0.6700000000000005,-0.3160630497894294,-6.719578954092177,6.600373817851913,3.9294274444171076,2.329732320287321e-06
0.6720000000000005,-0.3019766841842822,-6.452311798114178,6.348470278623045,3.743415323427544,2.8416507420794306e-06
0.6740000000000005,-0.28838378482799837,-6.170524856280042,6.082751164463068,3.568723233045958,3.1506878620437196e-06
0.6760000000000005,-0.27561725614462973,-5.884514938448941,5.807754595340719,3.411657827700956,3.245333936492476e-06
0.6780000000000005,-0.263816378007278,-5.605267378126479,5.536072769211656,3.2730785933308453,3.1410081296627493e-06
0.6800000000000005,-0.252371094726812,-5.321746524815351,5.257352332286572,3.1389891904788048,2.990397634849392e-06
0.6820000000000005,-0.24129234455774323,-5.042326062123273,4.981670788719796,3.00856827647673,2.8006114380246712e-06
0.6840000000000005,-0.2307660202137353,-4.779241131426313,4.722875706884183,2.884657740150266,2.5460072828746918e-06
0.6860000000000005,-0.2209763491973206,-4.542255251210541,4.491744990098516,2.7699953282461935,2.20829944962879e-06
0.6880000000000005,-0.212034729872791,-4.334238734026271,4.292867344123936,2.665580059967125,1.7856615846488864e-06
0.6900000000000005,-0.20393513247521516,-4.154043708176777,4.125021911573507,2.5704193495714276,1.3023613058649502e-06
0.6920000000000005,-0.19622733805935105,-3.990242216029865,3.9726900264987526,2.475777602856263,8.666345205313854e-07
0.6940000000000005,-0.18886705032416165,-3.8399888743708828,3.832155528911548,2.3815579646061322,4.834719061303944e-07
0.6960000000000005,-0.18180680273336913,-3.700053701037218,3.699474838808259,2.287986721717884,1.5619874019448026e-07
0.6980000000000005,-0.17494244481771543,-3.565586697457917,3.5692671701719947,2.194400902093695,-1.0344806369525141e-07
0.7000000000000005,-0.1679196207067543,-3.424808728499987,3.4291817716062605,2.095482798316014,-2.4167827722407047e-07
0.7020000000000005,-0.16032289737405725,-3.2668150199083787,3.2726209962847,1.9850294461437916,-2.1558323662185007e-07
0.7040000000000005,-0.15201482192927368,-3.089326046657695,3.099490239158905,1.8632039686906894,-3.9816320249948167e-08
0.7060000000000005,-0.1426477529220015,-2.8927959099795566,2.910646844857319,1.7265290363013028,3.1434597842157177e-07
0.7080000000000005,-0.13238967285169334,-2.6781952082779963,2.7063998964255362,1.5809965826643941,7.747155468488486e-07
0.7100000000000005,-0.12100750160408928,-2.4460253504688083,2.4875162059255156,1.4240473074687559,1.35512925605287e-06
0.7120000000000005,-0.1088810091507983,-2.1973268551221894,2.2541305040159845,1.2639517327694099,1.954815835352522e-06
0.7140000000000005,-0.0964220374367149,-1.9373398109540472,2.007502269830431,1.108457686247007,2.494773065647023e-06
0.7160000000000005,-0.08395974137113003,-1.6744934636106565,1.7500378346544323,0.9624390072795487,2.933350199720766e-06
0.7180000000000005,-0.07156586787814104,-1.4118705326459624,1.4867154947790804,0.8237438914416646,3.2709668020719e-06
0.7200000000000005,-0.05905598030155128,-1.1447831645859607,1.2145193303642912,0.685017496032128,3.5559109795401277e-06
0.7220000000000005,-0.04646590800802922,-0.8756405026528571,0.938055767254341,0.5441313453125101,3.7861990504584058e-06
0.7240000000000005,-0.03408579878836871,-0.6141905097081277,0.6695175352397311,0.4046826417138596,3.9142247362976504e-06
0.7260000000000005,-0.02219971339887176,-0.3687569886407266,0.41908786858690006,0.2703514826384395,3.905283538010927e-06
0.7280000000000005,-0.010935374852720312,-0.14166468664870602,0.18996869809787512,0.14189110251414527,3.7632174010539684e-06
0.7300000000000005,-0.0015816905877711108,0.05494243439258447,-0.002505198835063713,0.042051488306150867,3.3261277090899204e-06
0.7320000000000005,0.005826171303633645,0.22216001820519327,-0.15981735638811315,-0.028078062856019985,2.6536486980876956e-06
0.7340000000000005,0.010939225205235843,0.36130464818921576,-0.2839500892927593,-0.0696233007908023,1.7431482574544073e-06
0.7360000000000005,0.013645035223662816,0.47348928973416765,-0.3761464993275081,-0.08371234967010381,6.358510783185832e-07
0.7380000000000005,0.014061582305677021,0.560338863768672,-0.43775456721170675,-0.07147285282816465,-5.934943980386438e-07
0.7400000000000005,0.012494067080683737,0.6228590277372034,-0.4699267643951549,-0.03394600869634675,-1.8500144516893276e-06
0.7420000000000005,0.009377245913643,0.6624961614726884,-0.4732808590653478,0.018814021233587764,-3.0317412772307e-06
0.7440000000000005,0.005218498793220291,0.6806679380858806,-0.4483865164552421,0.0763803212116179,-4.045277285876586e-06
0.7460000000000006,0.0005422285811090878,0.6786546497228826,-0.39587859396542113,0.13000876808585646,-4.81566763312601e-06
0.7480000000000006,-0.004159067771765671,0.6575607278160006,-0.31649867275871196,0.1734307210125611,-5.292567619708004e-06
0.7500000000000006,-0.008463573894695998,0.6182621469520805,-0.2111516914793774,0.20393539398464605,-5.453282300755127e-06
0.7520000000000006,-0.012047336511811522,0.5615201937778102,-0.08079103440459444,0.22034370140348086,-5.301734024434506e-06
0.7540000000000006,-0.014905054220734898,0.4903940692291248,0.062303149282198995,0.2243525113918476,-4.8861965087746704e-06
0.7560000000000006,-0.017156089972433987,0.40917368029257695,0.19939026777276161,0.2193615742176049,-4.2618968408478454e-06
0.7580000000000006,-0.018767441922793865,0.32097161411222996,0.31646532158858776,0.20891841626832025,-3.4555674710708664e-06
0.7600000000000006,-0.019689713662406023,0.22568151598758934,0.41401107820136385,0.19557408555842182,-2.508936057101176e-06
0.7620000000000006,-0.01994240233613777,0.12321801930728904,0.49250185766018983,0.1816990934439086,-1.4693884455324684e-06
0.7640000000000006,-0.01961437305807636,0.019719652247232912,0.5514448839231828,0.1686857489793814,-3.9929140960550023e-07
0.7660000000000006,-0.018840345749904296,-0.07517384851105781,0.5888533979012665,0.15729332007240274,6.389546332053661e-07
0.7680000000000006,-0.017770692536331248,-0.15412639605135073,0.6034348766940445,0.14806640725973097,1.5973036324257882e-06
0.7700000000000006,-0.016553961427423165,-0.21295611904062886,0.5948326711049096,0.14072353471585602,2.444628559996943e-06
0.7720000000000006,-0.015325958718926695,-0.24948344540475134,0.5631982447476725,0.13545423976806856,3.1631581768516615e-06
0.7740000000000006,-0.01419846666719394,-0.26395291469632126,0.5093170858092843,0.1324548827198918,3.7488342084203668e-06
0.7760000000000006,-0.013253471072897068,-0.2586166854011672,0.4344917474409133,0.13172905737696275,4.208942225429252e-06
0.7780000000000006,-0.012478015038958798,-0.23842789186036348,0.3460283357783941,0.13272419058579396,4.562035938540373e-06
0.7800000000000006,-0.011844484009896182,-0.21028912895402682,0.2575704720757724,0.1344258682058466,4.81896603330418e-06
0.7820000000000006,-0.011329579762816061,-0.18022208134999937,0.18010712140620977,0.13609386347745533,4.992003825732221e-06
0.7840000000000006,-0.010913747917624448,-0.1526420387018931,0.12044089482491137,0.1374895046945944,5.095791106526579e-06
0.7860000000000006,-0.010580610306671623,-0.13048304385914192,0.08251583019956374,0.13864670872486132,5.144577776433834e-06
0.7880000000000006,-0.010316574547423608,-0.11445574532652432,0.06669392805606932,0.1396019250823461,5.152133256551675e-06
0.7900000000000006,-0.01011018851957891,-0.10458037783349038,0.07075465115641516,0.14039862073430903,5.133148135672258e-06
0.7920000000000006,-0.009951872847592445,-0.09989764641794655,0.09050796595834673,0.14107886799707028,5.101067421775392e-06
0.7940000000000006,-0.009833588354133501,-0.09889683601189521,0.12069814568588154,0.1416804373844052,5.067382516123843e-06
0.7960000000000006,-0.009748557492618692,-0.09992866889672396,0.15584254501865877,0.14244257669272942,5.041058343785382e-06
0.7980000000000006,-0.00969104145183171,-0.10151102649090286,0.19095222337461132,0.1435144145663162,5.028390769351568e-06
0.8000000000000006,-0.009656124348571927,-0.10280130233449529,0.22209828696281653,0.14494250695028812,5.033430688206481e-06
0.8020000000000006,-0.009639619176456359,-0.10348282742664472,0.24691611465975086,0.14663257843643285,5.0571945128017735e-06
0.8040000000000006,-0.009638020663060545,-0.10330026705322064,0.26417244598797907,0.14838484133724034,5.098098253459915e-06
0.8060000000000006,-0.009648360255950067,-0.10228024544155476,0.27339833270395214,0.14999700348155334,5.153676344824385e-06
0.8080000000000006,-0.009668128085104696,-0.10074377439669899,0.27513085927908426,0.15130781908874127,5.2203403930371425e-06
0.8100000000000006,-0.009695217516208153,-0.09918391414091243,0.2706356550381937,0.1523567142799557,5.293852463326668e-06
0.8120000000000006,-0.009727902241109301,-0.09796458284861419,0.26157929286315507,0.15317486609426134,5.369626836250444e-06
0.8140000000000006,-0.00976479505519212,-0.09715961513071326,0.2497397647002726,0.1537871248227954,5.443084255158168e-06
0.8160000000000006,-0.009804697434973312,-0.09718499898107158,0.23697228644376844,0.15413597152755226,5.511220946575282e-06
0.8180000000000006,-0.009846647399933668,-0.09825845402185603,0.2248536440359825,0.1541185856346323,5.571817852651234e-06
0.8200000000000006,-0.009889880561245516,-0.1003894061099427,0.21455300018642334,0.15371803444414336,5.623470917155899e-06
0.8220000000000006,-0.009933799907684369,-0.10330368333692608,0.206351741905213,0.15302063417662262,5.666212836668753e-06
0.8240000000000006,-0.00997792698311189,-0.10667760725549622,0.20042926907595596,0.15213685625454942,5.700247245351992e-06
0.8260000000000006,-0.010021876538220871,-0.11018373449723257,0.1969145454366197,0.15118142702586915,5.725925874709699e-06
0.8280000000000006,-0.01006534029594267,-0.11346854236590448,0.1956521795932395,0.15027523198133605,5.744124018596055e-06
0.8300000000000006,-0.01010806808921069,-0.11620341935543357,0.19628461820996784,0.14951460095364932,5.756093391064404e-06
0.8320000000000006,-0.010149818156342597,-0.11837072392520183,0.19840769086398966,0.14888255773106507,5.763746301680426e-06
0.8340000000000006,-0.010190389617091613,-0.12005177439659374,0.20155712841730786,0.14836506018281106,5.768987134117595e-06
0.8360000000000006,-0.010229672891076218,-0.1210441317151,0.20516666840736159,0.14794782799447836,5.772931104507625e-06
0.8380000000000006,-0.01026757709013916,-0.12125321767430497,0.2087497785382137,0.14761847969333974,5.7765575303569445e-06
0.8400000000000006,-0.010304027722713481,-0.12069309842040583,0.21193722359742517,0.1473660657247681,5.780653088885415e-06
0.8420000000000006,-0.010338966128508565,-0.1194779460940163,0.21451615583516728,0.14718059345251977,5.78574582639572e-06
0.8440000000000006,-0.010372348352544747,-0.11783141263218061,0.21658453829544627,0.14705200819365485,5.791870289806727e-06
0.8460000000000006,-0.010404152609818718,-0.11597927674096795,0.21822645116688763,0.1469716562556164,5.799066906129363e-06
0.8480000000000006,-0.010434378067838103,-0.11412960065397378,0.2195135093337608,0.1469319476376866,5.8073347751733545e-06
0.8500000000000006,-0.010463043009701897,-0.11245734485662319,0.2205062304833237,0.14692610904873962,5.816604513336369e-06
0.8520000000000006,-0.01049018267072791,-0.11109019931024584,0.22123750748541524,0.14694810558419158,5.82675514246984e-06
0.8540000000000006,-0.010515862965259101,-0.10998662139581122,0.22166555928925588,0.14699191602503114,5.837451287274324e-06
0.8560000000000006,-0.010540150581001167,-0.10910452097924246,0.22178779629907297,0.1470521898503894,5.848340432229051e-06
0.8580000000000007,-0.010563111024705427,-0.10840867576046162,0.2216361573820734,0.1471242719217715,5.859086787418678e-06
0.8600000000000007,-0.010584808266871894,-0.10786953357819581,0.2212673364723036,0.14720417856560875,5.869389018254253e-06
0.8620000000000007,-0.010605304430202089,-0.1074621854819805,0.2207521621487651,0.14728857658730268,5.87899589271439e-06
0.8640000000000007,-0.010624659539599785,-0.10716550636045227,0.22016540077564598,0.1473747563859177,5.887717573747344e-06
0.8660000000000007,-0.010642930294294984,-0.10696868175515643,0.21957890113763212,0.14746063858821698,5.895443434773943e-06
0.8680000000000007,-0.0106601675098057,-0.10688898303651222,0.2190592411251715,0.14754483020946926,5.902170998335588e-06
0.8700000000000007,-0.010676423958763342,-0.10691726354497656,0.2186112940206181,0.14762644724084723,5.907974433953372e-06
0.8720000000000007,-0.010691752128985507,-0.10703300983327607,0.21822526401114997,0.14770482800659804,5.912929244637401e-06
0.8740000000000007,-0.010706203060864401,-0.10721130438063393,0.21789253031771916,0.14777944612392327,5.9170953912319926e-06
0.8760000000000007,-0.010719825753608341,-0.10742564122921079,0.21760556861040325,0.14784991283123491,5.920526024263413e-06
0.8780000000000007,-0.010732666749227808,-0.10765046764098941,0.21735787003877957,0.1479159748443033,5.9232739046863846e-06
0.8800000000000007,-0.010744769890066163,-0.10786326820548708,0.21714385532512506,0.14797750723923872,5.9253955055040915e-06
0.8820000000000007,-0.010756173910524826,-0.10806159810762964,0.2169591158287314,0.14803462265747847,5.926986371481425e-06
0.8840000000000007,-0.010766915599187531,-0.10824641943008335,0.21679987160518177,0.14808749258239187,5.92813623709451e-06
0.8860000000000007,-0.010777030373595172,-0.10841863709791123,0.2166628135905065,0.14813630658300067,5.928921695773468e-06
0.8880000000000007,-0.010786552234269041,-0.1085791008098515,0.2165450463403246,0.14818126649335445,5.929407968474223e-06
0.8900000000000007,-0.010795513740710935,-0.10872860721952914,0.2164440376153048,0.14822258157158305,5.929650448677261e-06
0.8920000000000007,-0.010803946005212077,-0.10886790228259319,0.2163575740040477,0.14826046450816355,5.9296960506317875e-06
0.8940000000000007,-0.010811878700972962,-0.1089976837025443,0.21628372186930844,0.14829512816771304,5.929584384592605e-06
0.8960000000000007,-0.010819340081604577,-0.10911860342189705,0.21622079298722882,0.1483267829619754,5.9293487800635025e-06
0.8980000000000007,-0.010826357009562838,-0.10923127011677553,0.21616731432322692,0.1483556347637135,5.9290171756291105e-06
0.9000000000000007,-0.010832954991475817,-0.1093362516624628,0.21612200145353302,0.14838188328205174,5.928612891794788e-06
0.9020000000000007,-0.010839158218668037,-0.10943407754514874,0.2160837351990733,0.14840572082953718,5.92815530133258e-06
0.9040000000000007,-0.010844989611477595,-0.1095252412014233,0.2160515410893723,0.14842733141988987,5.9276604099245516e-06
0.9060000000000007,-0.010850470866207775,-0.10961020227218564,0.21602457131916192,0.14844689014318774,5.927141358379986e-06
0.9080000000000007,-0.010855622503762206,-0.10968938876177589,0.21600208890013545,0.1484645627721566,5.926608856359166e-06
0.9100000000000007,-0.010860463919187305,-0.10976319909645883,0.21598345374538813,0.1484805055593928,5.926071556345401e-06
0.9120000000000007,-0.010865013431492447,-0.10983200407903282,0.21596811045508135,0.14849486519080415,5.925536375551736e-06
0.9140000000000007,-0.010869288333241602,-0.1098961487384254,0.2159555775992315,0.14850777886538588,5.9250087725148724e-06
0.9160000000000007,-0.010873304939513297,-0.1099559540747632,0.21594543831768442,0.1485193744757052,5.92449298430265e-06
0.9180000000000007,-0.010877078635912096,-0.11001171870165474,0.21593733207866062,0.14852977086722108,5.923992229531315e-06
0.9200000000000007,-0.010880623925386591,-0.11006372038836636,0.2159309474560808,0.14853907815785458,5.923508881743952e-06
0.9220000000000007,-0.01088395447366874,-0.1101122175052631,0.21592601580249252,0.14854739810210704,5.9230446171324576e-06
0.9240000000000007,-0.01088708315319883,-0.11015745037637412,0.21592230570907772,0.1485548244865362,5.9226005400838144e-06
0.9260000000000007,-0.010890022085441247,-0.11019964254326875,0.21591961815715663,0.1485614435455894,5.9221772895895035e-06
0.9280000000000007,-0.010892782681529708,-0.11023900194462255,0.2159177822770124,0.14856733438868916,5.921775129168028e-06
0.9300000000000007,-0.010895375681208049,-0.1102757220159462,0.21591665163992707,0.14857256943110733,5.921394022608577e-06
0.9320000000000007,-0.010897811190054911,-0.11030998271395966,0.21591610101819692,0.14857721482257621,5.921033697543507e-06
0.9340000000000007,-0.010900098714998507,-0.11034195147004357,0.21591602355572176,0.14858133086879657,5.920693698593755e-06
0.9360000000000007,-0.01090224719814194,-0.11037178407710091,0.21591632829866517,0.1485849724420381,5.920373431600304e-06
0.9380000000000007,-0.010904265048930774,-0.11039962551402747,0.21591693804176681,0.14858818937790697,5.920072200252404e-06
0.9400000000000007,-0.010906160174703212,-0.11042561071183145,0.21591778745124834,0.14859102685609943,5.9197892362463925e-06
0.9420000000000007,-0.010907940009669879,-0.11044986526526536,0.21591882142998034,0.1485935257635868,5.919523723954251e-06
0.9440000000000007,-0.010909611542374995,-0.11047250609364684,0.2159199936947399,0.1485957230391979,5.9192748204461474e-06
0.9460000000000007,-0.010911181341694139,-0.11049364205435125,0.21592126553905433,0.14859765199899938,5.919041671593593e-06
0.9480000000000007,-0.010912655581426062,-0.11051337451226458,0.21592260475835526,0.1485993426422296,5.918823424877423e-06
0.9500000000000007,-0.010914040063537215,-0.11053179786829154,0.2159239847170101,0.14860082193782972,5.9186192394358725e-06
0.9520000000000007,-0.01091534024011816,-0.11054900004982379,0.21592538353929863,0.14860211409184876,5.918428293810668e-06
0.9540000000000007,-0.010916561234110831,-0.11056506296588842,0.21592678340860583,0.14860324079618065,5.91824979178213e-06
0.9560000000000007,-0.01091770785886504,-0.11058006292951938,0.2159281699610363,0.1486042214592342,5.918082966626267e-06
0.9580000000000007,-0.010918784636581427,-0.11059407104972388,0.21592953176136198,0.148605073419241,5.917927084076717e-06
0.9600000000000007,-0.010919795815696794,-0.11060715359525375,0.21593085985070895,0.14860581214098476,5.9177814442312005e-06
0.9620000000000007,-0.010920745387266124,-0.11061937233223797,0.21593214735670901,0.14860645139678483,5.917645382604851e-06
0.9640000000000007,-0.01092163710039381,-0.11063078483758751,0.21593338915799573,0.14860700343260078,5.9175182705008015e-06
0.9660000000000007,-0.010922474476764685,-0.11064144478994692,0.21593458159594175,0.14860747912013625,5.9173995148409445e-06
0.9680000000000007,-0.010923260824323565,-0.11065140223983896,0.21593572222742624,0.14860788809582245,5.917288557576231e-06
0.9700000000000008,-0.010923999250149898,-0.11066070386052901,0.21593680961320452,0.14860823888755104,5.917184874775775e-06
0.9720000000000008,-0.010924692672572095,-0.11066939318102355,0.2159378431371381,0.14860853903000604,5.9170879754769555e-06
0.9740000000000008,-0.010925343832564131,-0.1106775108025129,0.21593882285214788,0.14860879516941902,5.916997400364036e-06
0.9760000000000008,-0.010925955304464935,-0.11068509459947133,0.21593974934927956,0.14860901315854042,5.916912720330587e-06
0.9780000000000008,-0.010926529506059103,-0.11069217990653696,0.21594062364673489,0.14860919814258505,5.916833534970472e-06
0.9800000000000008,-0.010927068708055607,-0.11069879969221104,0.21594144709612745,0.14860935463687164,5.916759471033407e-06
0.9820000000000008,-0.01092757504299919,-0.1107049847203373,0.21594222130357688,0.1486094865968384,5.916690180873682e-06
0.9840000000000008,-0.010928050513647408,-0.11071076370025099,0.2159429480635657,0.14860959748107566,5.916625340914497e-06
0.9860000000000008,-0.010928497000844492,-0.11071616342642042,0.21594362930375657,0.14860969030797733,5.916564650145179e-06
0.9880000000000008,-0.010928916270921496,-0.11072120890834199,0.21594426703920294,0.1486097677065729,5.916507828664299e-06
0.9900000000000008,-0.010929309982650636,-0.11072592349139279,0.21594486333459567,0.14860983196206307,5.916454616278211e-06
0.9920000000000008,-0.01092967969378014,-0.11073032896929251,0.2159454202733687,0.148609885056545,5.916404771161616e-06
0.9940000000000008,-0.010930026867174456,-0.11073444568877694,0.21594593993264555,0.14860992870537548,5.916358068584479e-06
0.9960000000000008,-0.010930352876583284,-0.11073829264704152,0.21594642436314523,0.14860996438958773,5.916314299707671e-06
0.9980000000000008,-0.010930659012061559,-0.1107418875824708,0.21594687557328854,0.1486099933847422,5.916273270448259e-06
1.0000000000000007,-0.010930946485061217,-0.11074524705913222,0.215947295516848,0.1486100167865626,5.916234800414152e-06
1.0020000000000007,-0.010931216433214406,-0.11074838654547631,0.2159476860835778,0.14861003553367758,5.916198721906926e-06
1.0040000000000007,-0.010931469924826626,-0.11075132048765374,0.21594804909233822,0.1486100504277612,5.916164878990909e-06
1.0060000000000007,-0.01093170796309727,-0.11075406237782873,0.2159483862862979,0.14861006215134043,5.916133126626145e-06
1.0080000000000007,-0.010931931490083903,-0.11075662481784063,0.21594869932985797,0.1486100712835119,5.916103329862435e-06
1.0100000000000007,-0.0109321413904258,-0.11075901957853987,0.21594898980699265,0.1486100783137902,5.916075363091485e-06
1.0120000000000007,-0.010932338494841182,-0.11076125765510067,0.21594925922074612,0.14861008365428754,5.916049109353951e-06
1.0140000000000007,-0.010932523583411902,-0.11076334931859082,0.21594950899366527,0.1486100876504066,5.916024459698196e-06
1.0160000000000007,-0.010932697388668361,-0.11076530416405865,0.21594974046897975,0.14861009059020983,5.916001312587519e-06
1.0180000000000007,-0.010932860598486796,-0.11076713115537841,0.2159499549123709,0.14861009271261394,5.915979573352663e-06
1.0200000000000007,-0.010933013858810273,-0.11076883866707815,0.21595015351419644,0.1486100942145417,5.9159591536865085e-06
1.0220000000000007,-0.010933157776204084,-0.11077043452335791,0.21595033739205685,0.1486100952571512,5.915939971177963e-06
1.0240000000000007,-0.01093329292025559,-0.11077192603449136,0.21595050759361176,0.14861009597124927,5.915921948882172e-06
1.0260000000000007,-0.010933419825827939,-0.11077332003079012,0.2159506650995661,0.14861009646198572,5.915905014924324e-06
1.0280000000000007,-0.010933538995176552,-0.11077462289429761,0.21595081082676312,0.14861009681291365,5.915889102134492e-06
1.0300000000000007,-0.010933650899936705,-0.11077584058836706,0.2159509456313301,0.14861009708949272,5.915874147711064e-06
1.0320000000000007,-0.010933755982990017,-0.1107769786852677,0.21595107031183408,0.148610097342104,5.915860092910529e-06
1.0340000000000007,-0.010933854660217254,-0.1107780423919531,0.21595118561241305,0.1486100976086363,5.91584688276147e-06
1.0360000000000007,-0.010933947322144318,-0.1107790365741161,0.21595129222585394,0.14861009791669877,5.915834465800819e-06
1.0380000000000007,-0.010934034335487945,-0.11077996577864599,0.21595139079659706,0.14861009828550725,5.915822793830564e-06
1.0400000000000007,-0.010934116044607216,-0.1107808342545961,0.2159514819236488,0.1486100987274866,5.915811821693191e-06
1.0420000000000007,-0.010934192772866589,-0.11078164597276163,0.2159515661633915,0.14861009924962656,5.915801507064341e-06
1.0440000000000007,-0.010934264823915863,-0.11078240464396161,0.21595164403228073,0.14861009985462403,5.915791810261239e-06
1.0460000000000007,-0.010934332482892132,-0.11078311373611147,0.21595171600942412,0.148610100541841,5.91578269406559e-06
1.0480000000000007,-0.010934396017548465,-0.11078377649016755,0.21595178253903835,0.14861010130810343,5.915774123559743e-06
1.0500000000000007,-0.010934455679313783,-0.11078439593501896,0.21595184403278297,0.14861010214836323,5.915766065974994e-06
1.0520000000000007,-0.01093451170428812,-0.11078497490139681,0.2159519008719702,0.14861010305624384,5.915758490551062e-06
1.0540000000000007,-0.010934564314177239,-0.11078551603486667,0.21595195340965279,0.14861010402448527,5.9157513684058e-06
1.0560000000000007,-0.010934613717170217,-0.110786021807965,0.21595200197259218,0.14861010504530442,5.9157446724142705e-06
1.0580000000000007,-0.010934660108763582,-0.11078649453153673,0.21595204686310976,0.14861010611068332,5.915738377096481e-06
1.0600000000000007,-0.010934703672535162,-0.1107869363653269,0.21595208836082522,0.14861010721259646,5.915732458513016e-06
1.0620000000000007,-0.010934744580870775,-0.11078734932787572,0.21595212672428588,0.1486101083431872,5.915726894167973e-06
1.0640000000000007,-0.010934782995646613,-0.1107877353057636,0.2159521621924922,0.14861010949490128,5.915721662918596e-06
1.0660000000000007,-0.010934819068870002,-0.11078809606224874,0.21595219498632315,0.14861011066058516,5.915716744891091e-06
1.0680000000000007,-0.010934852943281122,-0.11078843324533767,0.21595222530986724,0.14861011183355483,5.9157121214021325e-06
1.0700000000000007,-0.010934884752918008,-0.1107887483953263,0.2159522533516633,0.14861011300764088,5.9157077748856225e-06
1.0720000000000007,-0.010934914623647133,-0.11078904295184608,0.21595227928585645,0.14861011417721415,5.915703688824299e-06
1.0740000000000007,-0.01093494267366161,-0.11078931826044833,0.21595230327327367,0.14861011533719573,5.915699847685833e-06
1.0760000000000007,-0.010934969013949046,-0.11078957557875689,0.2159523254624238,0.1486101164830547,5.915696236863079e-06
1.0780000000000007,-0.01093499374873084,-0.11078981608221768,0.21595234599042645,0.1486101176107962,5.91569284261816e-06
1.0800000000000007,-0.01093501697587472,-0.11079004086947153,0.21595236498387424,0.14861011871694252,5.91568965203013e-06
1.0820000000000007,-0.010935038787282116,-0.11079025096737517,0.21595238255963273,0.14861011979850827,5.915686652945936e-06
1.0840000000000007,-0.010935059269251913,-0.11079044733569367,0.21595239882558184,0.14861012085297243,5.915683833934463e-06
1.0860000000000007,-0.010935078502822023,-0.11079063087148547,0.21595241388130265,0.14861012187824726,5.915681184243442e-06
1.0880000000000007,-0.010935096564090148,-0.11079080241320066,0.21595242781871354,0.14861012287264633,5.915678693759011e-06
1.0900000000000007,-0.010935113524514947,-0.11079096274451107,0.21595244072265876,0.14861012383485134,5.915676352967763e-06
1.0920000000000007,-0.010935129451198889,-0.11079111259788975,0.21595245267145302,0.14861012476387975,5.915674152921121e-06
1.0940000000000007,-0.010935144407153822,-0.11079125265795646,0.21595246373738486,0.14861012565905243,5.915672085201861e-06
1.0960000000000008,-0.010935158451550358,-0.11079138356460434,0.21595247398718212,0.14861012651996253,5.915670141892662e-06
1.0980000000000008,-0.01093517163995208,-0.11079150591592206,0.2159524834824418,0.14861012734644585,5.915668315546545e-06
1.1000000000000008,-0.010935184024535412,-0.11079162027092514,0.2159524922800274,0.14861012813855254,5.915666599159081e-06
1.1020000000000008,-0.010935195654296152,-0.11079172715210853,0.21595250043243555,0.14861012889652034,5.915664986142255e-06
1.1040000000000008,-0.010935206575243358,-0.1107918270478325,0.21595250798813442,0.14861012962075018,5.915663470299883e-06
1.1060000000000008,-0.010935216830581433,-0.1107919204145525,0.2159525149918766,0.1486101303117828,5.915662045804488e-06
1.1080000000000008,-0.01093522646088112,-0.11079200767890343,0.21595252148498692,0.14861013097027792,5.9156607071755356e-06
1.1100000000000008,-0.010935235504240052,-0.11079208923964759,0.21595252750562885,0.14861013159699474,5.915659449258956e-06
1.1120000000000008,-0.010935243996433522,-0.11079216546949539,0.21595253308904966,0.14861013219277427,5.915658267207876e-06
1.1140000000000008,-0.010935251971056057,-0.11079223671680723,0.21595253826780667,0.14861013275852364,5.915657156464478e-06
1.1160000000000008,-0.010935259459654368,-0.11079230330718397,0.21595254307197606,0.14861013329520154,5.9156561127429224e-06
1.1180000000000008,-0.010935266491852188,-0.1107923655449538,0.21595254752934503,0.14861013380380542,5.915655132013274e-06
1.1200000000000008,-0.010935273095467499,-0.11079242371456159,0.21595255166558952,0.1486101342853603,5.915654210486369e-06
1.1220000000000008,-0.010935279296622614,-0.11079247808186796,0.21595255550443726,0.14861013474090856,5.915653344599572e-06
1.1240000000000008,-0.01093528511984755,-0.11079252889536301,0.21595255906781907,0.14861013517150115,5.915652531003361e-06
1.1260000000000008,-0.01093529058817709,-0.11079257638730115,0.2159525623760073,0.1486101355781899,5.9156517665486975e-06
1.1280000000000008,-0.010935295723241936,-0.11079262077476164,0.2159525654477442,0.14861013596202083,5.9156510482751504e-06
1.1300000000000008,-0.010935300545354307,-0.11079266226063988,0.2159525683003599,0.1486101363240285,5.915650373399691e-06
1.1320000000000008,-0.010935305073588296,-0.11079270103457392,0.21595257094988118,0.1486101366652312,5.915649739306169e-06
1.1340000000000008,-0.010935309325855375,-0.11079273727381053,0.21595257341113192,0.14861013698662678,5.915649143535385e-06
1.1360000000000008,-0.010935313318975234,-0.11079277114401469,0.2159525756978253,0.14861013728918945,5.915648583775764e-06
1.1380000000000008,-0.01093531706874236,-0.11079280280002615,0.21595257782264937,0.14861013757386693,5.915648057854562e-06
1.1400000000000008,-0.010935320589988518,-0.11079283238656663,0.21595257979734522,0.1486101378415783,5.915647563729597e-06
1.1420000000000008,-0.010935323896641438,-0.11079286003890086,0.21595258163277975,0.14861013809321244,5.915647099481464e-06
1.1440000000000008,-0.010935327001779934,-0.11079288588345432,0.2159525833390123,0.14861013832962663,5.915646663306211e-06
1.1460000000000008,-0.010935329917685631,-0.11079291003839076,0.21595258492535627,0.14861013855164593,5.915646253508438e-06
1.1480000000000008,-0.010935332655891581,-0.110792932614152,0.21595258640043571,0.1486101387600624,5.915645868494819e-06
1.1500000000000008,-0.010935335227227881,-0.11079295371396235,0.21595258777223794,0.14861013895563516,5.915645506767988e-06
1.1520000000000008,-0.010935337641864521,-0.11079297343430018,0.21595258904816178,0.14861013913909019,5.915645166920798e-06
1.1540000000000008,-0.010935339909351628,-0.1107929918653387,0.21595259023506191,0.14861013931112074,5.9156448476309204e-06
1.1560000000000008,-0.010935342038657248,-0.11079300909135792,0.21595259133929018,0.14861013947238774,5.9156445476557565e-06
1.1580000000000008,-0.010935344038202824,-0.11079302519112966,0.21595259236673334,0.1486101396235203,5.9156442658276585e-06
1.1600000000000008,-0.010935345915896517,-0.11079304023827746,0.21595259332284822,0.14861013976511644,5.915644001049429e-06
1.1620000000000008,-0.010935347679164494,-0.11079305430161306,0.21595259421269386,0.14861013989774405,5.915643752290091e-06
1.1640000000000008,-0.010935349334980303,-0.11079306744545063,0.21595259504096118,0.1486101400219415,5.915643518580909e-06
1.1660000000000008,-0.010935350889892465,-0.11079307972990084,0.21595259581200085,0.14861014013821885,5.915643299011647e-06
1.1680000000000008,-0.010935352350050383,-0.11079309121114543,0.2159525965298484,0.1486101402470587,5.915643092727047e-06
1.1700000000000008,-0.01093535372122866,-0.11079310194169399,0.2159525971982477,0.14861014034891737,5.915642898923522e-06
1.1720000000000008,-0.010935355008849958,-0.11079311197062393,0.21595259782067272,0.14861014044422566,5.915642716846041e-06
1.1740000000000008,-0.01093535621800644,-0.11079312134380469,0.21595259840034736,0.1486101405333903,5.915642545785212e-06
1.1760000000000008,-0.010935357353479915,-0.11079313010410748,0.2159525989402641,0.1486101406167947,5.915642385074521e-06
1.1780000000000008,-0.010935358419760757,-0.11079313829160119,0.21595259944320108,0.14861014069480014,5.915642234087753e-06
1.1800000000000008,-0.010935359421065674,-0.11079314594373547,0.21595259991173768,0.14861014076774684,5.915642092236559e-06
1.1820000000000008,-0.010935360361354375,-0.11079315309551198,0.21595260034826927,0.14861014083595486,5.915641958968171e-06
1.1840000000000008,-0.010935361244345247,-0.11079315977964435,0.21595260075502068,0.1486101408997253,5.915641833763253e-06
1.1860000000000008,-0.010935362073530054,-0.11079316602670766,0.21595260113405862,0.1486101409593411,5.915641716133885e-06
1.1880000000000008,-0.010935362852187757,-0.11079317186527834,0.21595260148730325,0.14861014101506806,5.915641605621665e-06
1.1900000000000008,-0.010935363583397481,-0.11079317732206463,0.2159526018165388,0.1486101410671557,5.915641501795923e-06
1.1920000000000008,-0.010935364270050697,-0.11079318242202885,0.21595260212342346,0.14861014111583823,5.915641404252049e-06
1.1940000000000008,-0.01093536491486265,-0.1107931871885014,0.21595260240949854,0.1486101411613354,5.915641312609911e-06
1.1960000000000008,-0.010935365520383118,-0.11079319164328744,0.2159526026761969,0.14861014120385319,5.915641226512384e-06
1.1980000000000008,-0.010935366089006476,-0.11079319580676664,0.2159526029248507,0.14861014124358476,5.915641145623953e-06
1.2000000000000008,-0.01093536662298119,-0.1107931996979863,0.21595260315669876,0.1486101412807111,5.915641069629409e-06
1.2020000000000008,-0.010935367124418685,-0.11079320333474849,0.21595260337289324,0.14861014131540165,5.915640998232617e-06
1.2040000000000008,-0.01093536759530172,-0.11079320673369138,0.21595260357450577,0.1486101413478152,5.9156409311553646e-06
1.2060000000000008,-0.010935368037492219,-0.11079320991036536,0.21595260376253325,0.14861014137810036,5.9156408681362785e-06
1.2080000000000009,-0.010935368452738627,-0.11079321287930415,0.21595260393790328,0.14861014140639628,5.9156408089298045e-06
1.2100000000000009,-0.010935368842682843,-0.11079321565409128,0.21595260410147893,0.14861014143283308,5.9156407533052475e-06
1.2120000000000009,-0.01093536920886671,-0.11079321824742211,0.21595260425406335,0.1486101414575325,5.915640701045875e-06
1.2140000000000009,-0.010935369552738104,-0.11079322067116203,0.21595260439640418,0.14861014148060858,5.915640651948078e-06
1.2160000000000009,-0.01093536987565666,-0.11079322293640055,0.21595260452919732,0.14861014150216775,5.9156406058205636e-06
1.2180000000000009,-0.010935370178899171,-0.11079322505350218,0.2159526046530906,0.14861014152230964,5.915640562483615e-06
1.2200000000000009,-0.010935370463664612,-0.11079322703215379,0.21595260476868725,0.1486101415411274,5.915640521768397e-06
1.2220000000000009,-0.010935370731078888,-0.11079322888140877,0.2159526048765489,0.14861014155870805,5.91564048351629e-06
1.2240000000000009,-0.010935370982199303,-0.11079323060972865,0.21595260497719873,0.148610141575133,5.915640447578274e-06
1.2260000000000009,-0.010935371218018724,-0.11079323222502167,0.2159526050711239,0.14861014159047825,5.91564041381435e-06
1.2280000000000009,-0.010935371439469512,-0.11079323373467895,0.21595260515877818,0.1486101416048149,5.915640382092987e-06
1.2300000000000009,-0.010935371647427215,-0.11079323514560835,0.21595260524058438,0.14861014161820932,5.915640352290614e-06
1.2320000000000009,-0.010935371842714023,-0.11079323646426606,0.21595260531693636,0.14861014163072356,5.9156403242911395e-06
1.2340000000000009,-0.01093537202610202,-0.11079323769668606,0.21595260538820113,0.14861014164241557,5.9156402979854954e-06
1.2360000000000009,-0.01093537219831625,-0.11079323884850786,0.21595260545472064,0.1486101416533395,5.9156402732712145e-06
1.2380000000000009,-0.010935372360037566,-0.1107932399250021,0.2159526055168136,0.14861014166354597,5.915640250052029e-06
1.2400000000000009,-0.010935372511905338,-0.11079324093109488,0.2159526055747771,0.14861014167308215,5.915640228237494e-06
1.2420000000000009,-0.010935372654519968,-0.11079324187139014,0.21595260562888793,0.1486101416819922,5.91564020774264e-06
1.2440000000000009,-0.010935372788445275,-0.11079324275019073,0.21595260567940427,0.14861014169031744,5.915640188487637e-06
1.2460000000000009,-0.010935372914210722,-0.11079324357151815,0.21595260572656672,0.14861014169809625,5.915640170397486e-06
1.2480000000000009,-0.010935373032313506,-0.110793244339131,0.2159526057705995,0.14861014170536463,5.915640153401725e-06
1.2500000000000009,-0.010935373143220526,-0.11079324505654198,0.21595260581171188,0.14861014171215622,5.915640137434151e-06
1.252000000000001,-0.010935373247370235,-0.11079324572703417,0.21595260585009893,0.14861014171850234,5.915640122432573e-06
1.254000000000001,-0.010935373345174365,-0.11079324635367592,0.21595260588594242,0.1486101417244323,5.9156401083385565e-06
1.256000000000001,-0.010935373437019556,-0.11079324693933497,0.21595260591941207,0.1486101417299735,5.915640095097204e-06
1.258000000000001,-0.010935373523268892,-0.11079324748669149,0.21595260595066604,0.1486101417351515,5.9156400826569385e-06
1.260000000000001,-0.010935373604263336,-0.11079324799825038,0.2159526059798519,0.14861014173999013,5.915640070969306e-06
1.262000000000001,-0.010935373680323065,-0.11079324847635276,0.2159526060071074,0.14861014174451176,5.915640059988778e-06
1.264000000000001,-0.010935373751748755,-0.11079324892318666,0.21595260603256083,0.14861014174873713,5.9156400496725845e-06
1.266000000000001,-0.01093537381882276,-0.11079324934079697,0.21595260605633204,0.1486101417526858,5.9156400399805396e-06
1.268000000000001,-0.010935373881810222,-0.11079324973109492,0.2159526060785328,0.14861014175637588,5.915640030874888e-06
1.270000000000001,-0.010935373940960133,-0.1107932500958667,0.21595260609926742,0.14861014175982434,5.915640022320163e-06
1.272000000000001,-0.010935373996506311,-0.1107932504367817,0.21595260611863318,0.1486101417630471,5.9156400142830355e-06
1.274000000000001,-0.01093537404866833,-0.11079325075540021,0.21595260613672093,0.1486101417660589,5.915640006732199e-06
1.276000000000001,-0.010935374097652379,-0.11079325105318036,0.21595260615361536,0.14861014176887363,5.915639999638237e-06
1.278000000000001,-0.01093537414365209,-0.11079325133148502,0.21595260616939557,0.14861014177150417,5.915639992973513e-06
1.280000000000001,-0.010935374186849289,-0.11079325159158784,0.21595260618413534,0.14861014177396262,5.9156399867120605e-06
1.282000000000001,-0.01093537422741473,-0.11079325183467931,0.2159526061979036,0.14861014177626025,5.915639980829487e-06
1.284000000000001,-0.010935374265508762,-0.11079325206187193,0.21595260621076462,0.1486101417784076,5.915639975302872e-06
1.286000000000001,-0.01093537430128196,-0.11079325227420551,0.21595260622277843,0.1486101417804145,5.9156399701106815e-06
1.288000000000001,-0.010935374334875724,-0.11079325247265188,0.21595260623400103,0.1486101417822902,5.915639965232686e-06
1.290000000000001,-0.010935374366422841,-0.11079325265811923,0.2159526062444847,0.14861014178404328,5.915639960649881e-06
1.292000000000001,-0.01093537439604801,-0.11079325283145644,0.21595260625427828,0.14861014178568174,5.915639956344405e-06
1.294000000000001,-0.010935374423868324,-0.11079325299345684,0.21595260626342738,0.14861014178721307,5.915639952299482e-06
1.296000000000001,-0.010935374449993747,-0.11079325314486188,0.21595260627197452,0.14861014178864432,5.9156399484993516e-06
1.298000000000001,-0.010935374474527545,-0.11079325328636451,0.21595260627995944,0.14861014178998203,5.915639944929202e-06
1.300000000000001,-0.010935374497566685,-0.11079325341861236,0.21595260628741925,0.1486101417912323,5.91563994157512e-06
1.302000000000001,-0.010935374519202236,-0.11079325354221074,0.2159526062943886,0.1486101417924009,5.9156399384240336e-06
1.304000000000001,-0.010935374539519706,-0.11079325365772531,0.21595260630089974,0.1486101417934931,5.915639935463663e-06
1.306000000000001,-0.0109353745585994,-0.11079325376568482,0.21595260630698299,0.14861014179451398,5.915639932682468e-06
1.308000000000001,-0.010935374576516735,-0.11079325386658333,0.21595260631266647,0.1486101417954681,5.915639930069607e-06
1.310000000000001,-0.01093537459334252,-0.1107932539608827,0.21595260631797653,0.1486101417963599,5.915639927614897e-06
1.312000000000001,-0.010935374609143263,-0.1107932540490145,0.21595260632293778,0.14861014179719342,5.915639925308768e-06
1.314000000000001,-0.010935374623981411,-0.11079325413138211,0.21595260632757318,0.14861014179797252,5.915639923142229e-06
1.316000000000001,-0.010935374637915609,-0.11079325420836254,0.2159526063319042,0.1486101417987007,5.915639921106835e-06
1.318000000000001,-0.01093537465100093,-0.11079325428030813,0.21595260633595081,0.1486101417993813,5.915639919194652e-06
1.320000000000001,-0.01093537466328909,-0.11079325434754818,0.21595260633973176,0.14861014180001747,5.915639917398223e-06
1.322000000000001,-0.010935374674828654,-0.11079325441039042,0.2159526063432646,0.14861014180061205,5.915639915710543e-06
1.324000000000001,-0.010935374685665232,-0.11079325446912248,0.21595260634656552,0.14861014180116783,5.915639914125032e-06
1.326000000000001,-0.010935374695841648,-0.11079325452401324,0.21595260634964983,0.14861014180168725,5.915639912635506e-06
1.328000000000001,-0.010935374705398123,-0.11079325457531387,0.2159526063525318,0.14861014180217277,5.915639911236157e-06
1.330000000000001,-0.010935374714372425,-0.1107932546232592,0.21595260635522467,0.14861014180262655,5.915639909921528e-06
1.332000000000001,-0.010935374722800022,-0.11079325466806869,0.2159526063577409,0.1486101418030507,5.915639908686492e-06
1.334000000000001,-0.010935374730714218,-0.11079325470994744,0.21595260636009214,0.14861014180344717,5.915639907526232e-06
1.336000000000001,-0.010935374738146295,-0.1107932547490871,0.2159526063622891,0.1486101418038177,5.915639906436221e-06
1.338000000000001,-0.010935374745125619,-0.11079325478566686,0.21595260636434205,0.14861014180416404,5.9156399054122086e-06
1.340000000000001,-0.010935374751679777,-0.11079325481985411,0.21595260636626035,0.14861014180448776,5.9156399044502e-06
1.342000000000001,-0.010935374757834666,-0.11079325485180533,0.2159526063680529,0.14861014180479032,5.915639903546443e-06
1.344000000000001,-0.010935374763614614,-0.11079325488166679,0.21595260636972796,0.14861014180507312,5.9156399026974095e-06
1.346000000000001,-0.01093537476904246,-0.11079325490957517,0.21595260637129324,0.1486101418053374,5.915639901899791e-06
1.348000000000001,-0.010935374774139656,-0.11079325493565821,0.2159526063727559,0.14861014180558446,5.915639901150471e-06
1.350000000000001,-0.010935374778926345,-0.11079325496003528,0.2159526063741227,0.14861014180581536,5.9156399004465296e-06
1.352000000000001,-0.010935374783421443,-0.11079325498281796,0.2159526063753999,0.14861014180603122,5.915639899785218e-06
1.354000000000001,-0.010935374787642713,-0.11079325500411054,0.21595260637659341,0.14861014180623291,5.915639899163954e-06
1.356000000000001,-0.010935374791606837,-0.11079325502401047,0.21595260637770877,0.14861014180642146,5.915639898580315e-06
1.358000000000001,-0.010935374795329482,-0.11079325504260884,0.215952606378751,0.1486101418065977,5.915639898032023e-06
1.360000000000001,-0.010935374798825354,-0.11079325505999078,0.215952606379725,0.1486101418067624,5.915639897516939e-06
1.362000000000001,-0.010935374802108275,-0.11079325507623584,0.21595260638063513,0.14861014180691634,5.915639897033053e-06
1.364000000000001,-0.010935374805191212,-0.11079325509141841,0.21595260638148567,0.14861014180706023,5.915639896578474e-06
1.366000000000001,-0.010935374808086349,-0.11079325510560793,0.21595260638228045,0.14861014180719473,5.915639896151428e-06
1.368000000000001,-0.010935374810805126,-0.11079325511886938,0.21595260638302322,0.14861014180732038,5.915639895750249e-06
1.370000000000001,-0.010935374813358288,-0.11079325513126348,0.21595260638371733,0.14861014180743787,5.9156398953733706e-06
1.372000000000001,-0.010935374815755924,-0.11079325514284694,0.21595260638436597,0.14861014180754767,5.915639895019322e-06
1.374000000000001,-0.01093537481800751,-0.11079325515367275,0.21595260638497216,0.1486101418076503,5.91563989468672e-06
1.376000000000001,-0.010935374820121939,-0.11079325516379049,0.21595260638553865,0.1486101418077462,5.915639894374267e-06
1.378000000000001,-0.010935374822107567,-0.1107932551732465,0.21595260638606803,0.14861014180783585,5.915639894080741e-06
1.380000000000001,-0.010935374823972246,-0.11079325518208402,0.21595260638656275,0.14861014180791965,5.915639893804997e-06
1.382000000000001,-0.010935374825723333,-0.11079325519034353,0.2159526063870251,0.14861014180799798,5.915639893545956e-06
1.384000000000001,-0.010935374827367759,-0.11079325519806281,0.21595260638745717,0.14861014180807117,5.91563989330261e-06
1.386000000000001,-0.010935374828912013,-0.11079325520527719,0.21595260638786096,0.14861014180813958,5.915639893074005e-06
1.388000000000001,-0.010935374830362202,-0.11079325521201974,0.21595260638823832,0.14861014180820353,5.9156398928592514e-06
1.390000000000001,-0.010935374831724054,-0.11079325521832128,0.21595260638859093,0.1486101418082633,5.9156398926575085e-06
1.392000000000001,-0.010935374833002953,-0.11079325522421066,0.2159526063889205,0.14861014180831914,5.91563989246799e-06
1.394000000000001,-0.010935374834203948,-0.11079325522971482,0.21595260638922847,0.14861014180837134,5.915639892289953e-06
1.396000000000001,-0.010935374835331788,-0.110793255234859,0.21595260638951633,0.1486101418084201,5.915639892122705e-06
1.398000000000001,-0.010935374836390926,-0.11079325523966672,0.2159526063897853,0.1486101418084657,5.91563989196559e-06
1.400000000000001,-0.01093537483738555,-0.11079325524415999,0.21595260639003666,0.14861014180850832,5.915639891817996e-06
1.402000000000001,-0.01093537483831959,-0.11079325524835935,0.2159526063902716,0.14861014180854817,5.9156398916793455e-06
1.404000000000001,-0.010935374839196734,-0.11079325525228408,0.21595260639049116,0.1486101418085854,5.915639891549097e-06
1.406000000000001,-0.010935374840020448,-0.1107932552559521,0.2159526063906963,0.14861014180862017,5.915639891426741e-06
1.408000000000001,-0.010935374840793991,-0.11079325525938019,0.21595260639088806,0.1486101418086527,5.915639891311799e-06
1.410000000000001,-0.010935374841520414,-0.11079325526258409,0.21595260639106728,0.1486101418086831,5.915639891203822e-06
1.412000000000001,-0.01093537484220259,-0.11079325526557843,0.21595260639123473,0.1486101418087115,5.915639891102388e-06
1.414000000000001,-0.010935374842843213,-0.11079325526837691,0.21595260639139127,0.14861014180873802,5.915639891007101e-06
1.416000000000001,-0.010935374843444813,-0.11079325527099235,0.21595260639153757,0.14861014180876284,5.915639890917591e-06
1.418000000000001,-0.010935374844009771,-0.11079325527343672,0.21595260639167427,0.148610141808786,5.915639890833504e-06
1.420000000000001,-0.010935374844540316,-0.11079325527572124,0.21595260639180203,0.14861014180880766,5.915639890754516e-06
1.422000000000001,-0.010935374845038546,-0.11079325527785631,0.2159526063919214,0.14861014180882792,5.915639890680315e-06
1.424000000000001,-0.010935374845506426,-0.11079325527985176,0.21595260639203298,0.14861014180884685,5.915639890610611e-06
1.426000000000001,-0.01093537484594581,-0.11079325528171668,0.2159526063921373,0.14861014180886456,5.91563989054513e-06
1.428000000000001,-0.010935374846358429,-0.11079325528345962,0.21595260639223474,0.1486101418088811,5.9156398904836205e-06
1.430000000000001,-0.010935374846745916,-0.11079325528508858,0.21595260639232586,0.14861014180889656,5.9156398904258384e-06
1.432000000000001,-0.010935374847109802,-0.11079325528661099,0.21595260639241096,0.148610141808911,5.915639890371559e-06
1.434000000000001,-0.010935374847451522,-0.11079325528803381,0.21595260639249053,0.14861014180892448,5.915639890320571e-06
1.436000000000001,-0.010935374847772428,-0.11079325528936358,0.2159526063925649,0.1486101418089371,5.915639890272672e-06
1.438000000000001,-0.010935374848073788,-0.11079325529060637,0.21595260639263436,0.1486101418089489,5.915639890227679e-06
1.440000000000001,-0.010935374848356794,-0.11079325529176788,0.21595260639269928,0.14861014180895996,5.915639890185415e-06
1.442000000000001,-0.01093537484862256,-0.11079325529285343,0.21595260639275995,0.14861014180897025,5.915639890145712e-06
1.444000000000001,-0.010935374848872139,-0.11079325529386795,0.2159526063928167,0.14861014180897988,5.915639890108415e-06
1.446000000000001,-0.010935374849106517,-0.11079325529481614,0.2159526063928697,0.14861014180898888,5.9156398900733795e-06
1.448000000000001,-0.01093537484932662,-0.11079325529570229,0.21595260639291924,0.14861014180899726,5.91563989004047e-06
1.450000000000001,-0.010935374849533316,-0.11079325529653049,0.21595260639296554,0.14861014180900511,5.915639890009555e-06
1.452000000000001,-0.010935374849727423,-0.11079325529730452,0.21595260639300878,0.14861014180901247,5.915639889980514e-06
1.454000000000001,-0.010935374849909706,-0.11079325529802793,0.21595260639304922,0.14861014180901932,5.9156398899532355e-06
1.456000000000001,-0.010935374850080889,-0.11079325529870403,0.215952606393087,0.14861014180902574,5.9156398899276086e-06
1.458000000000001,-0.010935374850241644,-0.1107932552993359,0.21595260639312233,0.14861014180903173,5.915639889903537e-06
1.460000000000001,-0.010935374850392605,-0.11079325529992644,0.2159526063931554,0.14861014180903734,5.915639889880924e-06
1.462000000000001,-0.010935374850534375,-0.11079325530047834,0.21595260639318622,0.14861014180904258,5.915639889859683e-06
1.464000000000001,-0.010935374850667508,-0.11079325530099417,0.21595260639321506,0.14861014180904747,5.915639889839729e-06
1.466000000000001,-0.010935374850792533,-0.11079325530147625,0.21595260639324199,0.14861014180905205,5.915639889820987e-06
1.468000000000001,-0.010935374850909944,-0.1107932553019268,0.21595260639326716,0.14861014180905632,5.91563988980338e-06
1.470000000000001,-0.010935374851020203,-0.11079325530234786,0.2159526063932907,0.14861014180906032,5.915639889786842e-06
1.472000000000001,-0.010935374851123746,-0.11079325530274141,0.21595260639331268,0.14861014180906407,5.9156398897713056e-06
1.474000000000001,-0.010935374851220982,-0.11079325530310921,0.21595260639333325,0.14861014180906754,5.915639889756711e-06
1.476000000000001,-0.010935374851312298,-0.11079325530345296,0.21595260639335243,0.14861014180907078,5.915639889743e-06
1.478000000000001,-0.010935374851398049,-0.11079325530377422,0.21595260639337038,0.14861014180907384,5.915639889730121e-06
1.480000000000001,-0.010935374851478578,-0.11079325530407448,0.21595260639338718,0.1486101418090767,5.915639889718024e-06
1.482000000000001,-0.010935374851554203,-0.11079325530435508,0.21595260639340286,0.14861014180907936,5.915639889706659e-06
1.484000000000001,-0.010935374851625223,-0.11079325530461735,0.2159526063934175,0.14861014180908186,5.915639889695984e-06
1.486000000000001,-0.010935374851691916,-0.11079325530486245,0.2159526063934312,0.1486101418090842,5.915639889685956e-06
1.488000000000001,-0.010935374851754547,-0.11079325530509151,0.215952606393444,0.14861014180908635,5.915639889676535e-06
1.490000000000001,-0.010935374851813366,-0.11079325530530561,0.21595260639345598,0.14861014180908838,5.915639889667686e-06
1.492000000000001,-0.0109353748518686,-0.1107932553055057,0.21595260639346714,0.14861014180909027,5.9156398896593736e-06
1.494000000000001,-0.010935374851920468,-0.11079325530569269,0.2159526063934776,0.14861014180909204,5.9156398896515665e-06
1.496000000000001,-0.010935374851969182,-0.11079325530586746,0.2159526063934874,0.1486101418090937,5.915639889644232e-06
1.498000000000001,-0.010935374852014923,-0.1107932553060308,0.2159526063934965,0.14861014180909524,5.915639889637342e-06
1.500000000000001,-0.010935374852057882,-0.11079325530618345,0.21595260639350503,0.14861014180909668,5.91563988963087e-06
1.5020000000000011,-0.010935374852098223,-0.11079325530632611,0.21595260639351302,0.14861014180909804,5.915639889624791e-06
1.5040000000000011,-0.01093537485213611,-0.11079325530645945,0.21595260639352046,0.14861014180909932,5.915639889619079e-06
1.5060000000000011,-0.010935374852171689,-0.11079325530658406,0.21595260639352742,0.1486101418091005,5.915639889613715e-06
1.5080000000000011,-0.0109353748522051,-0.11079325530670052,0.21595260639353392,0.14861014180910162,5.915639889608678e-06
1.5100000000000011,-0.010935374852236474,-0.11079325530680936,0.21595260639354,0.14861014180910267,5.915639889603944e-06
1.5120000000000011,-0.010935737316504717,-0.10877530630936014,0.21784134463343338,0.14874726458043078,5.936815882659838e-06
1.5140000000000011,-0.012284979528192725,-0.1282814505386848,0.24635162095795954,0.1746100464916452,5.726183975113681e-06
1.5160000000000011,-0.015606202522595763,-0.16845484685583184,0.30047865354753867,0.22517773264619867,5.225344956197707e-06
1.5180000000000011,-0.021276238431075564,-0.22847379812510468,0.37925277098880916,0.2994691922455639,4.434674656443536e-06
1.5200000000000011,-0.029919169304913222,-0.3075492975288482,0.4817382564988111,0.39654137929734384,3.314737252928189e-06
1.5220000000000011,-0.04140771307224567,-0.4049257786791155,0.6070328990405612,0.5154881322513858,1.970009694984302e-06
1.5240000000000011,-0.05525074240054053,-0.519878999019703,0.7542668746435172,0.6554387380764131,5.503345902195024e-07
1.5260000000000011,-0.07057359253012194,-0.6517148722731776,0.9226018370541635,0.815556624225888,-7.56658197694525e-07
1.5280000000000011,-0.0865563705208049,-0.7997674079296432,1.1112297974506546,0.9950380002510363,-1.8125412108004718e-06
1.5300000000000011,-0.10314020510947129,-0.963396122760366,1.3193718806666677,1.1931104819284315,-2.64414257513529e-06
1.5320000000000011,-0.11954509540895691,-1.1419880441799117,1.546278150005354,1.409032211150588,-3.1487845226709617e-06
1.5340000000000011,-0.13505606806828496,-1.3340497171176946,1.7921877930540424,1.6247069652873534,-3.2538451891483206e-06
1.5360000000000011,-0.14938376744981882,-1.5385230971977866,2.0569357296778477,1.8294610194241816,-2.9837103261182677e-06
1.5380000000000011,-0.16297855959351829,-1.7551511502112866,2.3395528688064404,2.027398695329862,-2.498600015751595e-06
1.5400000000000011,-0.17558839328220419,-1.9830210290996737,2.6398255902961005,2.2096331323626712,-1.8004524019135112e-06
1.5420000000000011,-0.18693890014571424,-2.2213218869971194,2.9574818780247227,2.368621293002959,-8.900499661759519e-07
1.5440000000000011,-0.19708873830823342,-2.4696859740372674,3.2918162455221345,2.5049089047196054,1.6722033437315013e-07
1.5460000000000012,-0.20698265006888242,-2.7286477076516453,3.6411793584813346,2.6364303402955778,1.1538641573901395e-06
1.5480000000000012,-0.21688318702640746,-2.998029628939123,4.004739448308938,2.7673401726913127,2.0231675723545088e-06
1.5500000000000012,-0.22675442875715804,-3.2773799009172135,4.38200698830009,2.8961893380942745,2.7943660141477162e-06
1.5520000000000012,-0.23652513958904411,-3.5641949717764247,4.762793533630552,3.0219064941544778,3.5048261416355603e-06
1.5540000000000012,-0.24614964508619402,-3.8534450385782804,5.124343021684609,3.144932531304777,4.199128261957475e-06
1.5560000000000012,-0.2555381926966979,-4.142890487661659,5.45664882009351,3.2640743520660878,4.9027706033326104e-06
1.5580000000000012,-0.2647142979863528,-4.432803734020649,5.760679857063569,3.379712679722944,5.5988153831511785e-06
1.5600000000000012,-0.2737280372762681,-4.723464442720407,6.037335567328706,3.4928061414470957,6.26904038118987e-06
1.5620000000000012,-0.2827468967157095,-5.015237107157271,6.28736084845716,3.606439801459386,6.87792327080409e-06
1.5640000000000012,-0.291882657143027,-5.308398732853168,6.511544456274019,3.7223895106422815,7.408506458755259e-06
1.5660000000000012,-0.301248999572458,-5.603198516859665,6.710654425854257,3.8422588325333007,7.8482942641692e-06
1.5680000000000012,-0.31102250285587735,-5.899914843468503,6.885375667927374,3.96860141104687,8.177468948525216e-06
1.5700000000000012,-0.3212780979314952,-6.198704244800326,7.036485949327545,4.101859890569312,8.400626034654252e-06
1.5720000000000012,-0.3332747480994253,-6.5075435038021565,7.197927887921789,4.255675026686095,8.26071092322021e-06
1.5740000000000012,-0.34685762642797113,-6.827908185023999,7.378270651363327,4.428615795687615,7.849629676654236e-06
1.5760000000000012,-0.3614120949125633,-7.158989863242501,7.577208257188703,4.613177793950622,7.339269258853917e-06
1.5780000000000012,-0.37625604879613894,-7.498801849635124,7.790093650771249,4.797149821898263,6.887230468331048e-06
1.5800000000000012,-0.39072920171218106,-7.845017451689834,8.009810417262328,4.970320627099327,6.616646296836429e-06
1.5820000000000012,-0.4043102789861338,-8.189340839003467,8.227941524775444,5.125620112746159,6.587996911779461e-06
1.5840000000000012,-0.41663362229202605,-8.513275013081023,8.43444576425151,5.258669053466614,6.8010853683204184e-06
1.5860000000000012,-0.42766353355183195,-8.808991044204749,8.628543141501645,5.372310550742451,7.192987009937587e-06
1.5880000000000012,-0.4381242156592535,-9.091645068478218,8.83110285851117,5.483422965559342,7.574637506733444e-06
1.5900000000000012,-0.44809599864066674,-9.356883089976414,9.040250583637754,5.594705933835643,7.921560392819352e-06
1.5920000000000012,-0.4575451197418234,-9.598477513439763,9.25005025331361,5.705773853597978,8.240309227827093e-06
1.5940000000000012,-0.46635327501585233,-9.811538411490194,9.45291140602351,5.814237842810097,8.557682904644153e-06
1.5960000000000012,-0.4744900854468465,-9.99590389370583,9.644795940630832,5.919014918822367,8.881466789997538e-06
1.5980000000000012,-0.4824006306817804,-10.161308797653362,9.835083150607028,6.026897952774703,9.125625625762052e-06
1.6000000000000012,-0.4901198581335505,-10.310346470589247,10.021909320713142,6.136530623677773,9.305493758776453e-06
1.6020000000000012,-0.4976051368521237,-10.444414960494731,10.201804516905828,6.245037828839174,9.44920193350219e-06
1.6040000000000012,-0.5048438699695098,-10.56659889256507,10.373083114625084,6.350394715042394,9.573842875097791e-06
1.6060000000000012,-0.5118071278941232,-10.679798662076664,10.534248654837539,6.450667936619963,9.6954165940672e-06
1.6080000000000012,-0.5186472788754145,-10.7920355577331,10.689733634784192,6.547745206063197,9.791793179025275e-06
1.6100000000000012,-0.5255534172397007,-10.911414892013156,10.844848072728148,6.64429375494246,9.837565372408433e-06
1.6120000000000012,-0.5332460034772628,-11.046558651273262,11.016398971473636,6.751369649109649,9.697599909029675e-06
1.6140000000000012,-0.5420940699406791,-11.19805603982021,11.20801108196576,6.873519430503723,9.340777018605652e-06
1.6160000000000012,-0.5521045785951554,-11.365228438212274,11.418977555874363,7.009152900347506,8.815911827491367e-06
1.6180000000000012,-0.5634276099598519,-11.54756338723114,11.64844495921245,7.159696365397774,8.138762569660926e-06
1.6200000000000012,-0.5756268202308137,-11.743992698294534,11.895590452978896,7.31665917249442,7.427719975117635e-06
1.6220000000000012,-0.5881990537829358,-11.951347933199587,12.148906471901965,7.472352632513283,6.805165025335039e-06
1.6240000000000012,-0.6006572370669963,-12.166802499181458,12.397663508293679,7.6204646259437325,6.363220174139832e-06
1.6260000000000012,-0.6126841282443208,-12.388707509219563,12.635454825209088,7.758275830775944,6.135998567684441e-06
1.6280000000000012,-0.6245306846198629,-12.618703253970166,12.869156080566214,7.892496213891101,6.026683140376827e-06
1.6300000000000012,-0.6362528855708347,-12.857197624504783,13.1008895950072,8.026115542371185,5.998443437092866e-06
1.6320000000000012,-0.6477260188022435,-13.103502957085517,13.328424162606336,8.158628415168312,6.059671276962217e-06
1.6340000000000012,-0.6587266097697967,-13.356357065734278,13.547162534675218,8.287481612664507,6.2370810479253915e-06
1.6360000000000012,-0.6691071640619525,-13.614926890976593,13.754203894696383,8.410994303783136,6.534444379437683e-06
1.6380000000000012,-0.6787135298665579,-13.878329691973487,13.946410293494194,8.527042511431805,6.954708694133558e-06
1.6400000000000012,-0.6875524361926547,-14.13914104185743,14.12223750175188,8.63511107959191,7.456633013717544e-06
1.6420000000000012,-0.6956844382720865,-14.389044460939479,14.281446193432494,8.735315572018669,7.992738320587684e-06
1.6440000000000012,-0.7034292251780161,-14.628416881840758,14.432115139289545,8.832499256314549,8.477224049056157e-06
1.6460000000000012,-0.711033328489613,-14.85680953084178,14.580342286026285,8.929880666101097,8.85826170607535e-06
1.6480000000000012,-0.7187366484803785,-15.075313363614713,14.732258152246771,9.030434791417632,9.099887363811507e-06
1.6500000000000012,-0.7266647442452441,-15.283611355366068,14.890806079361681,9.13504088226179,9.199434009104695e-06
