Ceciluh/Robotics_Control_Lab_4.1/trajectory_test.csv
time,shoulder_pan,shoulder_lift,elbow_flex,wrist_flex,wrist_roll
0.002,-4.375746602714603,-91.42366940504945,89.80179567130101,54.60426907176684,2.9674918631498297e-06
0.004,-4.351054364641246,-90.7037685479498,89.65499820227622,54.124560406614044,1.6147255392829606e-06
0.006,-4.330262791507187,-90.10868023881932,89.47030031206346,53.72587797907965,-2.71657058535946e-05
0.008,-4.312044812130136,-89.5885948661952,89.15541023554566,53.38955922253313,0.00031392874993045215
0.01,-4.31066788527953,-89.82826437778037,88.88308461183611,53.35292664291255,0.003007148123797034
0.012,-4.303738873305954,-89.98469439677858,88.51700279322675,53.305400169740025,0.01365080686077394
0.014,-4.285203252077772,-90.13497741812492,88.15221152159312,53.27298316571685,0.030941729463055657
0.016,-4.257521689667521,-90.23146343639415,87.77728578041511,53.23235244054332,0.0548405203424408
0.018000000000000002,-4.236980181960229,-90.27833553163384,87.43779095319412,53.17286012657019,0.07707103506074242
0.020000000000000004,-4.161239125249282,-90.24025343485381,87.10370273251198,53.082618763829174,0.13046724273248897
0.022000000000000006,-4.152510028829517,-90.1787722440882,86.78549710123787,52.980150697025074,0.15117056688298047
0.024000000000000007,-4.207319054708287,-90.08835488592621,86.48201615444363,52.86969901708809,0.13684798898471245
0.02600000000000001,-4.197739819596339,-89.9901941396282,86.19303012917705,52.75735574664274,0.14956474212363055
0.02800000000000001,-4.249349588487487,-89.86343649344403,85.90620047266518,52.63807149410125,0.13322298192747176
0.030000000000000013,-4.264030718142857,-89.64523913537191,85.59703964656954,52.50214389114002,0.1287013674261971
0.032000000000000015,-4.139838652170215,-89.20704592382032,85.23943158552916,52.31265317460322,0.15031272297926743
0.034000000000000016,-4.008088078337463,-88.73925339286741,84.90692325303044,52.129018715697924,0.14988732483519626
0.03600000000000002,-4.045582051735893,-88.158171969467,84.2641992006219,51.95933896817391,0.14337433498043547
0.03800000000000002,-4.076938155120522,-87.67036627028244,83.61443799770478,51.82275086945732,0.14167912803214439
0.04000000000000002,-4.099012538917372,-87.27288336827588,82.72745654750155,51.697537955760616,0.13579207726097503
0.04200000000000002,-4.115756670525368,-86.93479793005388,81.75644512726171,51.6684506803532,0.3159417255741518
0.044000000000000025,-4.128293356353752,-86.63901089297406,80.76106120977595,51.66127691581658,0.5608316498978884
0.04600000000000003,-4.138122205239055,-86.38583429228157,79.78836719627256,51.65234761083659,0.7956279809771112
0.04800000000000003,-4.145268816324378,-86.15387779158725,78.86363029801879,51.63372988897983,1.0244111961478952
0.05000000000000003,-4.150176776583453,-85.93639434966549,78.0214368630338,51.60446599903961,1.2489708943811013
0.05200000000000003,-4.152242428023851,-85.71245056872945,78.51073085870978,51.74384641421554,1.3260295237860003
0.054000000000000034,-4.152354328005358,-85.53250313875627,79.29827055222569,51.903014582234626,1.3583758225176101
0.056000000000000036,-4.14950843228612,-85.36045158607085,79.60962435391298,51.90995908160175,1.4404405976937036
0.05800000000000004,-4.1454634997969055,-85.20199519113947,79.27273578117288,51.7702360735443,1.619107677499109
0.06000000000000004,-4.140722809880797,-85.04293612973959,79.06068792460717,51.55109384685476,1.7271310790753391
0.06200000000000004,-4.13578069580833,-84.89232990912826,79.23531881030445,51.39735191128731,1.6167000060613914
0.06400000000000004,-4.129634626496384,-84.7317765674961,79.50402343661496,51.24925595729921,1.485647190960232
0.06600000000000004,-4.122827670657595,-84.53611796557018,79.80555016007327,51.10186664859434,1.3591912676598035
0.06800000000000005,-4.105231093821559,-84.22531961137472,80.14879452780266,50.94429787608789,1.2354439294373227
0.07000000000000005,-4.076045912736456,-83.81709289313025,80.48217629798599,50.788897570768135,1.1150323440831362
0.07200000000000005,-4.0364337579378144,-83.33746300521973,80.74442798753371,50.04158308847117,1.0661895604352698
0.07400000000000005,-3.9909824005406036,-82.59069937271411,80.94867497220007,49.11360190623817,1.0184458784574324
0.07600000000000005,-3.9568653758639933,-81.55803511471566,81.11181419964933,47.83753781195492,0.9712693781591347
0.07800000000000006,-3.9672131084975764,-80.23111022218352,81.25348006613567,45.93749221830049,0.9240666876638358
0.08000000000000006,-3.9899073848276174,-78.56917920678602,81.39161600674936,42.98270816707537,0.8764341709557173
0.08200000000000006,-4.0101845119183475,-76.45287508726814,81.56241704882255,38.33660160503173,0.827273101514952
0.08400000000000006,-4.02837681068107,-73.38146187648756,81.82560881442672,30.93272289262852,0.7747403972337072
0.08600000000000006,-4.044241228387032,-68.18373299700585,82.32314262171573,18.238586846084225,0.7153282814025241
0.08800000000000006,-4.056254070199261,-58.35718817120812,83.45527137072,-7.157259967405707,0.6422706902892483
0.09000000000000007,-4.053898215771828,-32.95684977964649,86.7770590429958,-69.79626499657932,0.5992036555822072
0.09200000000000007,-2.4170798478266304,23.22328304341744,100.65014708242792,-291.1763743461854,0.6776222043626561
0.09400000000000007,-3.275607302581799,1329.6610883310182,211.3011143658706,-1350.2611279964542,0.10184795755928701
0.002,-5.974966205076708e-09,3.535656323630026e-05,3.281071082671723e-05,2.3060874172964427e-06,3.6940116429662114e-10
0.004,-4.136527073247894,-86.34298326072602,84.20361073675717,51.59919715494085,3.1363830867059503e-07
0.006,-4.114349682560501,-85.57386667591662,83.46426418999063,51.15086853771284,3.439025761023293e-08
0.008,-4.0956066723098425,-84.92913342923192,82.86177426258737,50.7795513955793,-9.327641826847438e-06
0.01,-4.079237434158289,-84.34424716648483,82.36622536182233,50.46813654294699,-4.13821995485233e-05
0.012,-4.064735493427316,-83.53444505808031,81.9585695369939,50.20697863165308,-9.444722339175026e-05
0.014,-4.045380387975247,-82.37112293049503,81.64137843284205,49.996441055290155,-7.526177166935645e-05
0.016,-4.02067514012694,-80.60059573824788,81.406763485404,49.826672009945554,0.00017395479884437187
0.018000000000000002,-3.9889646339030556,-77.83744681260382,81.27766507279586,49.695549679285236,0.0010531682164959843
0.020000000000000004,-3.9427309555404872,-73.5722099954413,81.32952971354625,49.604360770586965,0.0034265206501035736
0.022000000000000006,-3.8655236524454244,-67.43041502073709,81.74094845663352,49.55175212079246,0.009329908386575611
0.024000000000000007,-3.7496237489091744,-60.20141659937082,82.82593068623966,49.511021148349464,0.023484263904742883
0.02600000000000001,-3.657802165518029,-56.039823312454196,84.78637738566991,49.38214512887635,0.055560391065032654
0.02800000000000001,-3.722802423877309,-61.18513593843383,86.78373329689543,44.7893130485028,0.12826305224895995
0.030000000000000013,-3.780888326826341,-65.55106749819797,86.56768127385563,36.587538160459275,0.1950295368061838
0.032000000000000015,-3.822803002178437,-68.9834769578295,85.76751743397628,30.576170476467556,0.21789575525552005
0.034000000000000016,-3.8502735737986806,-71.6225056550825,85.0953909678348,26.89648713538971,0.21659135074498764
0.03600000000000002,-3.8776024749062614,-74.21359094692019,84.37771901082299,24.406268830219805,0.21008884481998502
0.03800000000000002,-3.90586392194625,-76.30202794530413,83.71112129736086,23.025954343810294,0.20723531967984313
0.04000000000000002,-3.918881791349082,-77.97911847317145,83.18165170970681,22.442572758045273,0.21028346601687628
0.04200000000000002,-3.9027508004125884,-79.26418075768643,82.75191900204864,22.400801526335542,0.21335592769080483
0.044000000000000025,-3.9044946042666755,-80.24776558110658,82.45724936574854,22.667662115682468,0.21114478213112609
0.04600000000000003,-3.8186922393285125,-80.94443531717495,82.24797135273671,23.141070751661463,0.2099540279491563
0.04800000000000003,-3.814959583859479,-81.45189606099645,82.03645562164404,23.7329089193489,0.20986942167295847
0.05000000000000003,-3.9134412594883354,-81.77548739005685,81.78068530133964,24.398646142924715,0.2078767445069962
0.05200000000000003,-3.982797006149879,-82.03778060466523,81.47192216629095,25.09861304316511,0.21433761105937932
0.054000000000000034,-3.836207310697222,-82.07645032080585,81.12924642580019,25.815773163872027,0.2337425877267494
0.056000000000000036,-3.9251640938333563,-81.9502723914287,80.74688010706801,26.512967257192543,0.24536432098927377
0.05800000000000004,-3.9425711869499716,-81.39060792782573,80.34836255111767,27.141250997800984,0.2547028599383028
0.06000000000000004,-3.9868564525230834,-80.03882210983873,79.92120784890221,27.55156923441172,0.25598338862590614
0.06200000000000004,-3.9807437436418915,-65.6861353626194,75.79681229497861,26.829794660820728,0.25281884322608567
0.06400000000000004,-4.0024873700024965,-69.495806716218,28.95745516313709,16.268945099286668,0.23671452166606005
0.06600000000000004,-4.207223247695621,223.23673120199805,-75.27394641528502,-5.387424259066719,0.3561207993917808
0.06800000000000005,-13.685939058632407,-237.74970773096288,-12804.93683734886,-2761.448810454114,4.042884183853164
0.002,-5.974966205076708e-09,3.535656323630026e-05,3.281071082671723e-05,2.3060874172964427e-06,3.6940116429662114e-10
0.004,-3.9727629238404036,-82.90993739475267,80.8546749707104,49.547544831782695,-5.248205010454062e-05
0.006,-3.9518781783857686,-82.17243219932827,80.12962862344031,49.11232820371863,-8.254514718034252e-05
0.008,-3.934211147008775,-81.5635491888996,79.51543029253693,48.74620249380159,-7.931905614827337e-05
0.01,-3.9192213242866036,-81.0614783441299,78.95383458162993,48.438593201963755,-3.395490287934568e-05
0.012,-3.9063315009939727,-80.64393317412845,78.29943447030692,48.18022768105318,9.24070898031536e-05
0.014,-3.8953175685283807,-80.2950456484706,77.59419095640924,47.964155606216075,0.00031062000879070715
0.016,-3.885929027403683,-80.00049613962189,76.87511960440392,47.78387602794948,0.0006301452638498204
0.018000000000000002,-3.877705630128704,-79.74461932005559,76.17433623400933,47.63157079668323,0.001060753156173884
0.020000000000000004,-3.8698827410539756,-79.50924791359533,75.52949613127898,47.49741774724576,0.0016149850837344653
0.022000000000000006,-3.862954295526984,-79.30445723391696,74.98264352020398,47.38656755906905,0.002275299440598426
0.024000000000000007,-3.8569489510855752,-79.13110267350571,74.55323673498063,47.29784528674246,0.0030065337620919304
0.02600000000000001,-3.851226704258262,-78.97648499857235,74.25586052325363,47.222232711341746,0.003880162340097501
0.02800000000000001,-3.8456052387991377,-78.83652657236388,74.1108370013448,47.156008749732635,0.0048919326987814345
0.030000000000000013,-3.83997896694749,-78.70709077209338,74.13522333885744,47.09594289103758,0.005987619275472804
0.032000000000000015,-3.83414775157759,-78.58047804626764,74.34510636091304,47.037534729882296,0.007100411218941193
0.034000000000000016,-3.828001911055671,-78.4491416436977,74.65556104235242,46.977717313264904,0.008152353625666646
0.03600000000000002,-3.816320785997469,-78.2916758597484,74.88450004499671,46.905898311257225,0.009091896650778178
0.03800000000000002,-3.793745518614144,-78.14552035032419,75.0760278255591,46.8432275370408,0.009959531804071338
0.04000000000000002,-3.7621230687299283,-77.71076034870926,75.20012360542475,46.765272748054414,0.010844598139924487
0.04200000000000002,-3.7194036671211137,-76.78763463082488,75.31876081779049,46.70207217007826,0.011819530286286874
0.044000000000000025,-3.660513268949351,-74.85247959124742,75.44464599183374,46.64897386156848,0.01307647060386141
0.04600000000000003,-3.5941045380951206,-70.9279129248776,75.66480326493682,46.6398247420734,0.01527650150907563
0.04800000000000003,-3.595884038112003,-63.33979348950122,76.23583218242705,46.798275625430946,0.020969618390326367
0.05000000000000003,-3.6368836874809407,-50.65533197753341,77.96299091673133,47.558379968307804,0.040407180387763975
0.05200000000000003,-3.6948982848202387,-40.80379398758089,82.84119312108386,50.11688893397534,0.10847407771817069
0.054000000000000034,-3.788681376823817,-49.57867989956563,90.12026667905872,54.84468652184509,0.2637443932615204
0.056000000000000036,-3.884981430858243,-59.59282800364812,91.26744280122799,57.68621015885889,0.424626914952862
0.05800000000000004,-3.9285566863635664,-66.88535333966206,88.91286960605682,58.03830681925082,0.5344332741394983
0.06000000000000004,-3.9272986868427866,-70.9593442811503,84.64339605249206,56.90528843065186,0.5840991967276444
0.06200000000000004,-3.902424625299325,-72.87151560286097,78.9667838861793,55.195535410534205,0.5883531115798004
0.06400000000000004,-3.868620291990023,-73.63772737712561,77.5479312852982,53.389375738926475,0.569797105705253
0.06600000000000004,-3.833212684327388,-73.336486897692,77.06145055991205,51.975962335541745,0.5859883654359845
0.06800000000000005,-3.7858982977574573,-72.29387989326258,76.7867212522172,50.97737907121126,0.7644288999351093
0.07000000000000005,-3.72722288462921,-70.78329164844308,76.6415104300696,50.12670101342646,1.0023771379122706
0.07200000000000005,-3.6423036560005393,-69.01557009146882,76.47068960130903,49.29828228036532,1.2116959534049359
0.07400000000000005,-3.5034156911148058,-67.76034725556171,76.3091330198911,47.57115900552001,1.6209923981971555
0.07600000000000005,-3.2931063923183213,-67.98730844845059,76.35412979904156,46.700258406431324,1.8505201958726143
0.07800000000000006,-2.9791992907320504,-68.62201396960192,76.2094897236497,45.834488396398385,2.052993448010137
0.08000000000000006,-2.456879231920875,-69.74075806151245,76.02117097947045,45.381912370965374,2.405559192688328
0.08200000000000006,-1.9313781139009876,-70.89394144476037,76.01624509544473,45.30733318325467,2.5167247328939
0.08400000000000006,-1.1878835320191308,-71.81351071108823,76.07667475101726,45.260734816390396,2.5967159634120107
0.08600000000000006,-0.20440502863991528,-72.54957931928107,76.1424042220046,45.24254436661658,2.666028782364631
0.08800000000000006,-0.8898686495189985,-73.69191494603801,76.05091100373225,45.2712049868994,2.654391198618692
0.09000000000000007,-1.450258184597542,-74.62828444272351,75.79377149234298,45.31972002645281,2.6742383914849976
0.09200000000000007,-1.8772574196572767,-75.33176987459936,75.22734206972694,45.318463709526,2.5068526463230008
0.09400000000000007,-2.226509894347604,-75.86560434748193,74.73582856902227,45.31564843398475,2.317672186944932
0.09600000000000007,-2.4829231725607217,-76.23896759130564,74.31427191236826,45.283301360233374,2.1692015608636748
0.09800000000000007,-2.7463535473937286,-76.47100817491048,73.93354312426543,45.31560162864465,2.1055911860439007
0.10000000000000007,-2.8660251415396325,-76.5867915059013,73.58329159570441,45.27377824330026,1.9532993109117383
0.10200000000000008,-3.0546195541377044,-76.63230425348486,73.29578538161009,45.21335135902313,1.8919035460430202
0.10400000000000008,-3.1996905647099614,-76.5321412477261,73.06282324062269,45.160571798830944,1.781689316004617
0.10600000000000008,-3.3478279059333746,-76.24767667482999,72.86072213077988,45.071049452378574,1.7529129161259691
0.10800000000000008,-3.4027029497607617,-75.74409210760726,72.6667609106422,44.96903417030056,1.7431028696781954
0.11000000000000008,-3.446091805081796,-75.3288651306432,72.5065058651984,44.930926493223296,1.6431536424955273
0.11200000000000009,-3.4790848745753284,-74.97860136020788,72.05164561860572,44.78380771938832,1.5530518495984094
0.11400000000000009,-3.5048273391225195,-74.69221634261991,71.59233393668598,44.621711446599086,1.488078004479537
0.11600000000000009,-3.52399364441754,-74.4380009759223,71.06605076869872,44.47448137397775,1.4257778174219158
0.11800000000000009,-3.5387214825162743,-74.22271400255664,70.52327086172971,44.34714870592053,1.3659921285478152
0.12000000000000009,-3.549499917763572,-74.02698653841341,69.98108912440351,44.22899810163894,1.3085835530278283
0.1220000000000001,-3.5570137818296113,-73.84203672482326,69.45949704410765,44.11553587448173,1.2534332416238565
0.1240000000000001,-3.5612669353007202,-73.65052582979806,68.96532947785589,43.85913836570603,1.200436496801653
0.12600000000000008,-3.5638429656560238,-73.27412164856167,68.56280575733825,43.44987676296336,1.1495201050438495
0.12800000000000009,-3.564869935007942,-72.78182018851959,68.15119288718333,42.93415327238307,1.1007017229971083
0.1300000000000001,-3.564490788808967,-72.21916867499169,67.68545723266558,42.29763069505586,1.0539475103232203
0.1320000000000001,-3.562827637170836,-71.5103958474293,67.17453392050861,41.48878429997796,1.0092457446051981
0.1340000000000001,-3.5601848157013176,-70.63578230636547,66.58994719581757,40.44379043560271,0.9667120145346844
0.1360000000000001,-3.557013052653767,-69.51564515445997,65.91933207897087,39.05966333781363,0.9266805163037758
0.1380000000000001,-3.550546889900872,-67.98410553827564,65.13516663169814,37.118160148091604,0.889958274538107
0.1400000000000001,-3.53669945787019,-65.87298269173253,64.17542938715827,34.25009920654739,0.8582058004867055
0.1420000000000001,-3.514454354094353,-62.71221760621618,63.01835642391011,29.721606884725077,0.8344803290132395
0.1440000000000001,-3.485991849645632,-57.660677505624356,61.567875214610346,21.759829141443287,0.8243238845711995
0.1460000000000001,-3.474154971122524,-48.22010045835633,60.24489131266593,5.6603900548578,0.8400561050492282
0.1480000000000001,-3.4853120777589757,-29.593493486796156,59.467852902156345,-36.14263967246029,0.9193011915148518
0.1500000000000001,-3.4948481831902103,47.58091499581863,63.062634562731105,-176.47898907043407,1.0570400029365858
0.1520000000000001,-3.714393138061097,65.41813694204617,67.08382114951556,-1305.085750498147,3.0920161677230764
0.002,-5.974966205076708e-09,3.535656323630026e-05,3.281071082671723e-05,2.3060874172964427e-06,3.6940116429662114e-10
0.004,-3.584239463502306,-74.76629503185409,72.91047043060824,44.680317448083976,-5.24050996851945e-06
0.006,-3.5665194624626695,-74.0931779186441,72.25724537146716,44.28601409471425,-4.304589273207977e-06
0.008,-3.551087792882216,-73.52153718487388,71.71080035433559,43.95200176272883,4.117548712621884e-06
0.01,-3.537657742744386,-73.0323683112526,71.25593831856855,43.66918105599084,3.6853925472934623e-05
0.012,-3.5264490852773793,-72.58691491024848,70.88882242805452,43.436152200847154,9.20455982218522e-05
0.014,-3.516466171987649,-72.0040595826109,70.58151872243594,43.236758872639356,0.00017154321804769472
0.016,-3.5075388176810405,-71.19486423039325,70.32802052074824,43.06586130389072,0.00032654752470487704
0.018000000000000002,-3.5000747637838447,-70.01262335766273,70.1400484510093,42.92634996775567,0.0006368324663577391
0.020000000000000004,-3.4935830611853866,-68.16118508716036,70.02744215885873,42.8129835977496,0.0012464291544625583
0.022000000000000006,-3.487714837389369,-65.14597346475223,70.04701481999484,42.73100330336848,0.0024656324684010065
0.024000000000000007,-3.4816566167901435,-60.27132301566496,70.36735580646162,42.705483205761,0.005066418632474172
0.02600000000000001,-3.4456464294121405,-53.263454399025875,71.42670799175072,42.8074024490909,0.011565636887418773
0.02800000000000001,-3.3724855049400606,-47.72536228525786,74.08244042150804,43.185779117484046,0.029173944496909583
0.030000000000000013,-3.3991935005447536,-52.62655183145722,78.17240287912607,43.817133791497504,0.06444119836207389
0.032000000000000015,-3.426739511422692,-57.75937585512044,79.65496824578595,43.94511917418209,0.09383942700898273
0.034000000000000016,-3.445552581659756,-61.88933038670089,79.33070748596595,43.81176808710819,0.11667547013188559
0.03600000000000002,-3.454980755890023,-64.71107973352184,78.15185752620793,43.57984180206135,0.12854376152995048
0.03800000000000002,-3.457202962435707,-66.47703845494794,76.72535635598706,43.32875389831297,0.13208229307314545
0.04000000000000002,-3.4548457420423575,-67.54033430410844,75.33648290611448,43.08920516558486,0.13135188604481468
0.04200000000000002,-3.4497795277422876,-68.16913898414198,74.08834472751025,42.86882569816161,0.12860821368051592
0.044000000000000025,-3.443014144697277,-68.53189468635775,72.99954764481954,42.66528446714948,0.12485657859056362
0.04600000000000003,-3.4355518584900584,-68.73970722932869,72.06695650378657,42.479213415920064,0.12056128429429495
0.04800000000000003,-3.4242288886314176,-68.8174541628325,71.27278237424774,42.30880079941696,0.11595998508468228
0.05000000000000003,-3.3979275342468487,-68.54091901881468,70.59103952227038,42.1488933235003,0.11117135187204616
0.05200000000000003,-3.357105667282558,-68.19142236508542,70.00906583260442,42.000784668428324,0.10629682651002534
0.054000000000000034,-3.3835340241282847,-68.99541580882813,69.98641571208161,41.86022558556813,0.10137825999668
0.056000000000000036,-3.406819132195798,-69.59451143761903,69.97745978506097,41.71385981323034,0.09658352963963074
0.05800000000000004,-3.4113541076891005,-70.09001379231363,69.90822018266253,41.56379638790617,0.09200364426274388
0.06000000000000004,-3.407324819719362,-70.46699460472641,69.6815096702769,41.45954535903667,0.08765924717054281
0.06200000000000004,-3.405785932005349,-70.72954272013376,69.19855645384327,41.3618705431009,0.08357512809194753
0.06400000000000004,-3.3382115186847967,-70.88182755096248,68.70597144052438,41.27335341994377,0.07969522660390971
0.06600000000000004,-3.301180359572122,-70.98543212878442,68.295132088766,41.19628680786296,0.07627495736902618
0.06800000000000005,-3.3356168789335854,-71.05819746360176,67.87158241166584,41.12071749181403,0.07333185503671025
0.07000000000000005,-3.2738989270570724,-71.04893358750596,67.38810996749073,41.052737863338166,0.07049842341185206
0.07200000000000005,-3.316920798042609,-71.01662576479622,66.85865207606005,40.99506887472467,0.06828236717268737
0.07400000000000005,-3.357600994528352,-70.90150250621828,66.24912414273376,40.94336278278193,0.06615216010578905
0.07600000000000005,-3.3764107868552093,-70.56980256580601,65.51926656035789,40.896536514719074,0.06406724615636197
0.07800000000000006,-3.3685125697265526,-69.40828281824196,64.48644530193287,40.83176778336083,0.062036284983839105
0.08000000000000006,-3.363249392230409,-68.85415866733442,63.1479623759046,40.78121737696357,0.05994062440363628
0.08200000000000006,-3.3593459825185876,-68.00866534839993,61.35437097131646,40.74206692352246,0.058231131482572564
0.08400000000000006,-3.3568911703733364,-66.85844169946236,58.80905691166282,40.718647352158655,0.057004458675327815
0.08600000000000006,-3.3567657009642597,-65.08478341977472,54.99052324487212,40.731050980131116,0.056578441777301154
0.08800000000000006,-3.3601736777143025,-62.23539650443239,48.72941135057029,40.81237932294472,0.05762871062879812
0.09000000000000007,-3.3708148933939954,-56.85857849122053,37.28401098913224,41.066736034286535,0.062390272709478056
0.09200000000000007,-3.4016916152706136,-45.41474584711749,12.186870648193562,41.82796012603235,0.08028914612417859
0.09400000000000007,-3.504139176990193,-9.72809246693798,-59.237887460027395,44.63582228718755,0.1534104312665218
0.09600000000000007,-4.035013361582438,116.1024050023857,-400.7128941297289,59.86917753016559,0.5800239139214968
0.09800000000000007,-10.627020424217443,3875.1695974109425,-3560.0369035816075,311.26507385958445,8.687943354282549
0.002,-5.974966205076708e-09,3.535656323630026e-05,3.281071082671723e-05,2.3060874172964427e-06,3.6940116429662114e-10
0.004,-3.346925949222051,-69.79049885155791,68.05943312601292,41.70791904781237,-7.492097607720028e-06
0.006,-3.3309983619744625,-69.15819415050018,67.441348268402,41.33825196407856,1.0537201284622055e-05
0.008,-3.3166760492170266,-68.62181113682722,66.91278361835913,41.024796465071326,0.0001085721798316495
0.01,-3.3043652171021503,-68.17804287783301,66.47239883052667,40.766713145306376,0.00029120203507398035
0.012,-3.29185121051951,-67.80700137826112,66.10323730976087,40.55270271943071,0.000544881700637073
0.014,-3.275581926984619,-67.49103304043177,65.79021218903881,40.372342173575404,0.0008601626654065588
0.016,-3.2543492041535482,-67.21961596236332,65.52444572995596,40.21912684470787,0.0012488878466051627
0.018000000000000002,-3.227122261709554,-66.97105081985023,65.28612683330343,40.079739199749866,0.0017273454282653816
0.020000000000000004,-3.195899560041937,-66.7516826110612,65.08142648498374,39.9574178347428,0.0022997807940403335
0.022000000000000006,-3.164874166205832,-66.55741029560374,64.90580465372969,39.849210601882,0.002939643115290922
0.024000000000000007,-3.141968386847188,-66.37456897382336,64.74568373793805,39.7464792231011,0.003657628056326766
0.02600000000000001,-3.1363029094893795,-66.14889696024001,64.60403532759854,39.651433370723296,0.004342346749611489
0.02800000000000001,-3.15206040706708,-65.83348387661235,64.47444186592325,39.559971384489565,0.004862034828079286
0.030000000000000013,-3.1643474192309937,-65.39470576001744,64.35575767363346,39.532643552372726,0.1541367366961803
0.032000000000000015,-3.1738651496931984,-64.80015498812529,64.25770498316422,39.54539462330274,0.4086917695484095
0.034000000000000016,-3.1809494527597275,-64.00989829274772,64.17748323161672,39.57619292972078,0.681847851901168
0.03600000000000002,-3.1862778915449304,-62.996897367156684,64.11443844612116,39.59351948708516,0.9441903464336463
0.03800000000000002,-3.1895977391767762,-61.710819123159396,64.0628504068666,39.568254782810634,1.2122523272322183
0.04000000000000002,-3.1913362334092104,-60.12487971193296,64.1014185899958,39.614092208704626,1.3201276910655322
0.04200000000000002,-3.1913310086398554,-58.2454366134081,64.18637974635435,39.5980868450227,1.4522442413582157
0.044000000000000025,-3.188626214146551,-56.110882666424835,64.31206297028154,39.4395061890614,1.7185404793500696
0.04600000000000003,-3.132688271339758,-53.920818851399815,64.54333401885644,38.77991440128707,2.1864732427598548
0.04800000000000003,-3.1396178195500997,-52.450869267955724,64.86858364381317,37.10446772190548,1.995471711442443
0.05000000000000003,-3.0517221349255004,-53.38223080463534,65.23209328800736,34.916772940796406,1.7223234722357936
0.05200000000000003,-3.0819322559602633,-55.64172415636408,65.41727661586631,33.34022555313314,1.763923043299786
0.054000000000000034,-3.1012394475241303,-57.45882888618751,65.3669132428198,26.586400400151263,1.2615706276542729
0.056000000000000036,-3.114890274780959,-58.81434989812075,65.14309559993939,22.52637974419818,1.3698064976734274
0.05800000000000004,-3.123268217361118,-56.29416111995387,64.8907610140845,23.91103916958434,1.2739932000855252
0.06000000000000004,-3.0828325307046587,-57.66484161423528,64.78409210975079,18.499309909037198,1.2132421999808647
0.06200000000000004,-3.0938079262502534,-52.40577746086354,64.75486335167129,15.016072113415625,1.166030180855953
0.06400000000000004,-2.928942517708353,-53.07792106411177,65.01107281901004,7.001855795959244,1.1374022719615997
0.06600000000000004,-2.9716909054479634,-45.3671537258092,65.4796492780844,0.8670276230613183,1.134518371257672
0.06800000000000005,-2.643320114660815,-49.08280707510886,66.29092662223934,-12.669211544895596,1.1299509538555006
0.07000000000000005,-2.746730355275492,-32.5756103587961,67.87843056376046,-21.32048655060487,1.1694121127027857
0.07200000000000005,-2.2000793617946695,-39.75990417494679,69.31691545517673,-53.95303724262791,1.158240006743455
0.07400000000000005,-2.282678099695536,-4.915552060504325,75.55759873315539,-76.05550163481841,1.0966684304767478
0.07600000000000005,-1.8284838441205247,-19.242059156861288,77.68623843766542,-187.65936547666473,1.3346516201693228
0.07800000000000006,-1.5272612976691673,-27.772175477511418,123.10536251274974,-267.823773172508,2.945182037715814
0.08000000000000006,-1.2611277324176597,-36.60442381888468,173.0344685999786,-635.6232800004682,2.226856623880508
0.08200000000000006,5.065715950192166,-34.78743668010171,366.6979956199046,-1496.645737949763,8.767101970912329
0.08400000000000006,90.14197165611456,42.852051156339186,1150.5709775372886,-6641.442869998941,59.43316957034594
0.002,-5.974966205076708e-09,3.535656323630026e-05,3.281071082671723e-05,2.3060874172964427e-06,3.6940116429662114e-10
0.004,-3.131459920987637,-65.89319098551626,63.78795382915856,38.76877565661725,1.166362256356452e-05
0.006,-3.1389726320443723,-65.72505481048888,63.389419253378264,38.46121813894196,-0.05740013148942763
0.008,-3.0300583127502536,-65.51800842277221,63.01643052278142,38.201982623812505,-0.13400794177625164
0.01,-3.06196630707941,-65.33428558592158,62.5414763686109,37.991668936021526,-0.12867418334202824
0.012,-3.0682502336233703,-65.06252682953159,62.14243953932607,37.80867516952146,-0.12340897824592023
0.014,-3.0899302213625877,-64.71434179352492,61.79314657730562,37.64241773644446,-0.1183108204364647
0.016,-3.078738138817281,-64.10768513872014,61.48352617831214,37.49152371417249,-0.11316861468695365
0.018000000000000002,-3.0689693973279404,-63.604457788756136,61.208388074075394,37.359803114447224,-0.10828602424026136
0.020000000000000004,-3.060914891016891,-63.197879072561086,60.9713720506651,37.24937516558682,-0.1036342136479011
0.022000000000000006,-3.0540260485213664,-62.86549319786995,60.72394648182366,37.152694139187076,-0.09919035069884959
0.024000000000000007,-3.0474260984010093,-62.57913211282318,60.32296484570827,37.05849856445167,-0.09493909366150176
0.02600000000000001,-3.041331493578021,-62.33308891450237,59.81574299383379,36.95854450773142,-0.0908887146238691
0.02800000000000001,-3.0357820715008237,-62.11904754086656,59.24695676925791,36.798754385776455,-0.08704265429638487
0.030000000000000013,-3.030656491532456,-61.92585184074119,58.659429256018434,36.56503189661134,-0.08339217109533008
0.032000000000000015,-3.025643292055705,-61.73725819184471,58.086084572171906,36.243415532843535,-0.0799079606022649
0.034000000000000016,-3.020702495686146,-61.20258482550852,57.484524125554245,35.8202698733458,-0.07653568569567654
0.03600000000000002,-3.015787688938203,-60.680239842376466,56.636081041589776,35.28917103107452,-0.07317841476393028
0.03800000000000002,-3.0108561326319134,-59.89246237954833,55.54534212194939,34.58484310766417,-0.06971538919010456
0.04000000000000002,-3.0064242433432398,-58.92060873789941,54.01747326681979,33.63430127697229,-0.06589340877264316
0.04200000000000002,-3.0020164251289394,-57.45619028483517,51.856086521576664,32.27896280827705,-0.0611611289925269
0.044000000000000025,-2.9978579759240787,-55.387094150663366,48.553942519963954,30.25444730502418,-0.05439128447131247
0.04600000000000003,-2.9940879132201235,-51.927209081645294,43.35061972116793,27.03938389506134,-0.04303954322030208
0.04800000000000003,-2.992012391360109,-46.342849413580055,34.17361732892928,21.478309795183506,-0.02221067614118866
0.05000000000000003,-2.9926063464903487,-34.309497812296684,16.841576997222795,10.620745670979122,0.017481888163638628
0.05200000000000003,-3.00381649832958,-11.597659881034666,-23.907653213054004,-14.565615649541478,0.07378347274042563
0.054000000000000034,-3.0298269500310715,75.61819294759258,-120.78271029552207,-80.91901256503557,0.3526297787116635
0.056000000000000036,-3.2906021740137446,128.0155578466867,-559.0863442078803,-332.35556852920485,0.8250645049558173
0.05800000000000004,-2.8739441784947055,4497.1446487600515,-1347.1006720081905,-1697.6315604209972,24.65964837475234
0.06000000000000004,-85.66694892283256,32262.515325390257,1629.3269176769047,412.8855661727488,245.53421708034008
0.002,-5.974966205076708e-09,3.535656323630026e-05,3.281071082671723e-05,2.3060874172964427e-06,3.6940116429662114e-10
0.004,-2.989792507917427,-62.30418343010454,60.75720081744825,37.23361049538848,-1.0620190728807664e-05
0.006,-2.976779164774999,-61.7304144433942,60.19921514861559,36.89853745690141,-8.128352769902082e-06
0.008,-2.9653150006878017,-61.2450058224908,59.732046752914854,36.61684295607263,2.1492365248830587e-05
0.01,-2.9553541110154424,-60.834646497615644,59.34474992666691,36.381991041010636,8.853414814578289e-05
0.012,-2.9465496114054095,-60.48267605665177,59.02200754455962,36.18475013603301,0.00018705044514515456
0.014,-2.938476115639718,-60.11578247677587,58.74768768617626,36.0154886581643,0.000306519836289783
0.016,-2.9313600846440417,-59.6494996782414,58.521100410211154,35.87369346043478,0.0004452526580153791
0.018000000000000002,-2.924590879750155,-58.9832627097182,58.329292598091996,35.75027929418874,0.0006196437418423281
0.020000000000000004,-2.918491979309688,-57.969984226700404,58.184296513735376,35.6503769239481,0.0008714464477177609
0.022000000000000006,-2.9123352959739597,-56.316310104858346,58.09201541432887,35.57278064429587,0.0013163798692688196
0.024000000000000007,-2.9060764063858513,-53.56809851992064,58.11077609089275,35.543519610491025,0.002329384134530266
0.02600000000000001,-2.8712818288310693,-49.110393453756274,58.382534304897014,35.63049582521214,0.005236152918538108
0.02800000000000001,-2.8237988379223244,-42.74759614236305,59.24278233753964,36.00652203674842,0.014714236532508942
0.030000000000000013,-2.761781317166287,-37.726560500326926,61.30161072298723,37.0318817586023,0.04086710062528428
0.032000000000000015,-2.7867215203181135,-42.08999412629725,64.24756253590138,38.726527261069855,0.08985753109701662
0.034000000000000016,-2.813344800080653,-46.43358602298515,65.01778268609436,39.599697967163294,0.13036971737361813
0.03600000000000002,-2.8338056681599824,-49.87679948575346,64.48716353284024,39.73919518041016,0.1574351296773835
0.03800000000000002,-2.8462441561854894,-52.271305843241095,63.43899712637919,39.41382989414474,0.1721748931959595
0.04000000000000002,-2.85084839514759,-53.807733810122414,62.27250210787219,38.84926451670336,0.17779610435088058
0.04200000000000002,-2.851249009765016,-54.796541045598985,61.202340980845705,38.22001631295223,0.17763618651234914
0.044000000000000025,-2.8495555040192815,-55.453257145432474,60.2889728403813,37.61230524459966,0.1741192208638173
0.04600000000000003,-2.8458029763163575,-55.88205084532226,59.504308733735975,37.04701504454169,0.16871347373792853
0.04800000000000003,-2.830147799246108,-56.17802462735679,58.846605800017464,36.5467963099322,0.16232817783357611
0.05000000000000003,-2.8032724662418036,-56.15307618243317,58.28630748362369,36.107893794946456,0.15539647968791595
0.05200000000000003,-2.765459909399038,-55.838509132041786,57.916198294602225,35.813957607643346,0.41001645329473
0.054000000000000034,-2.779273047839641,-56.60590198296178,57.67125716608553,35.54417701976499,0.4132586374651848
0.056000000000000036,-2.7863353732932503,-57.18434892993158,57.512440307132266,35.34847063474786,0.39523683874006604
0.05800000000000004,-2.78745794783928,-57.66480510526659,57.481562977997974,35.1301507046184,0.37810213560471617
0.06000000000000004,-2.7818554095245402,-58.02029915941575,57.453891484056214,34.902094409960554,0.361823404574953
0.06200000000000004,-2.7740892765833722,-58.26125873041613,57.40206206789293,34.68307300138986,0.34633865426311794
0.06400000000000004,-2.7580400234280313,-58.410024394935355,57.03347620695046,34.49250823854438,0.3316022515664735
0.06600000000000004,-2.7819123467780416,-58.47357746964156,56.641594447152514,34.327807445267005,0.31757439227439715
0.06800000000000005,-2.761920006596574,-58.49369910246674,56.27098345712487,34.18537743260676,0.3042007209017821
0.07000000000000005,-2.7917868635369234,-58.483611249811304,55.96083736480503,34.065830795684256,0.2914884850994876
0.07200000000000005,-2.7958046012958206,-58.39366362516637,55.65581656515088,33.95789793583818,0.27930610148958107
0.07400000000000005,-2.6027818141850902,-58.11838350377899,55.32825937543935,33.86055402749938,0.26764947716115356
0.07600000000000005,-2.63389682318093,-57.66041179244116,54.95571615300266,33.762925699091134,0.2570133393605718
0.07800000000000006,-2.6575325133601995,-57.27071438115445,54.53577529121992,33.66900945129008,0.2466965439367734
0.08000000000000006,-2.6753176263559064,-56.93919768797737,54.06742905544363,33.58164387571201,0.236766508079957
0.08200000000000006,-2.688591301233505,-56.65748292782719,53.55877993899461,33.50269623481006,0.22725396746549018
0.08400000000000006,-2.697988130911667,-56.409377030320975,53.016547751700216,33.47910670376199,0.33268174697561237
0.08600000000000006,-2.704131307751692,-56.18333033298078,52.46187718567339,33.46221324775011,0.48594077176451855
0.08800000000000006,-2.7080600249711404,-55.9815935883419,51.94473305978361,33.466265051105665,0.6122894855971694
0.09000000000000007,-2.709587150400287,-55.78559693429487,51.43840650771953,33.44590048598642,0.7543678856961568
0.09200000000000007,-2.7099386371101115,-55.60883859197083,50.94303044010478,33.39581249233413,0.9030663730523468
0.09400000000000007,-2.7084640847097328,-55.4283011621786,50.489236543166435,33.371295765108066,1.049005672511817
0.09600000000000007,-2.7064346008654496,-55.262877632170344,50.44268292310538,33.41853035736817,1.1106997294580208
0.09800000000000007,-2.7029628899595135,-55.093962886994134,50.12435377246689,33.3560031476098,1.2116366770985691
0.10000000000000007,-2.6987851600911212,-54.90952066694624,49.79518953287945,33.201298999196325,1.1718310517844752
0.10200000000000008,-2.6943786107241743,-54.649328998379225,49.51857313645755,33.0526185463252,1.1048489056254749
0.10400000000000008,-2.6899955073710213,-54.37057395944571,49.28104559265029,32.91891668745605,1.032704207987304
0.10600000000000008,-2.685179265432483,-54.07080604326894,49.07303135667554,32.790822418323145,0.9555687549275691
0.10800000000000008,-2.6802261802756226,-53.76437288284887,48.90184466342255,32.62045965002275,0.8687432650814417
0.11000000000000008,-2.6751281532797573,-53.44486173279589,48.784048287524634,32.3431811465889,0.7758950319383285
0.11200000000000009,-2.6702819206031494,-53.09889930619917,48.75312411260379,31.890439837299386,0.7430377777256288
0.11400000000000009,-2.6657038782156492,-52.66822322516337,48.84690165622,31.364295111190764,0.7113415682766098
0.11600000000000009,-2.660755498364716,-52.112686316242545,49.06582919155022,30.750244185304922,0.6807111298175226
0.11800000000000009,-2.6565324788465388,-51.47085092064719,49.4094694620672,30.043123459965745,0.6510330474878238
0.12000000000000009,-2.6519041139214674,-50.70844527077818,49.883110537929426,29.133878709357575,0.6220770461510932
0.1220000000000001,-2.6479350260288106,-49.89121437236203,50.29297146986609,27.89176109948359,0.5935459499993405
0.1240000000000001,-2.6438001820035644,-48.94446548561784,50.619277734429744,26.126259744640215,0.5651315681975927
0.12600000000000008,-2.6392587166532193,-47.771350621660964,50.89175771748523,23.59988486857136,0.5364466593443503
0.12800000000000009,-2.627453399365948,-46.081932952322276,51.127879945589214,19.91925118283953,0.5069240307446136
0.1300000000000001,-2.5949764439669445,-43.75028046633432,51.4071574466182,14.252136855665704,0.4752487120232023
0.1320000000000001,-2.597342147501344,-39.90854531038504,51.81273758151197,5.046969991725998,0.43960424654539787
0.1340000000000001,-2.372205427440563,-33.29782121749563,52.57873357964341,-12.033742579749848,0.4035636809864863
0.1360000000000001,-2.4860945849955964,-18.4787631048577,54.50600545331949,-48.03431270937774,0.45053192100845074
0.1380000000000001,-0.8013739479221893,7.3846422691510085,60.715279876335366,-147.52650255379186,0.6730311569307157
0.1400000000000001,-2.969787213119083,318.4856492192939,92.47440043461827,-488.53269193436466,-0.07051544576954143
0.1420000000000001,414.97996840202467,-228.1536647138894,443.99993439297293,-10870.332821681584,-17.99114503296717
0.002,-5.974966205076708e-09,3.535656323630026e-05,3.281071082671723e-05,2.3060874172964427e-06,3.6940116429662114e-10
0.004,-2.6192009168515464,-54.533296500936736,53.18180603968257,32.59150677639666,2.647372966968642e-06
0.006,-2.6088239441704304,-54.01399283697879,52.680349983773986,32.2896898260996,2.385551375583001e-06
0.008,-2.5995986645204754,-53.577001340155405,52.26559802315388,32.03764083708603,1.392841508311799e-06
0.01,-2.5882137907309386,-53.20301874253976,51.91934890191971,31.824812444777443,4.6215466906664864e-08
0.012,-2.572427575822117,-52.82697251046587,51.62969147286416,31.64484120658015,-1.3387160695832005e-05
0.014,-2.5497537105427455,-52.35582433527343,51.38270938667593,31.48983449782141,-5.4172422073998204e-05
0.016,-2.5163939926204715,-51.745032015938115,51.17504535189716,31.35765546738939,-0.00012455658535390118
0.018000000000000002,-2.4659509538946063,-50.92398059737231,51.00185130485646,31.244558571467646,-0.0001953748926369643
0.020000000000000004,-2.389048306672096,-49.80393160197312,50.86627184912228,31.150227572558755,-0.00015723817874051637
0.022000000000000006,-2.2729239958774254,-48.28186051893567,50.77541124398846,31.074184109985126,0.000358628477446711
0.024000000000000007,-2.324692498227048,-49.31214128158051,50.74839234837575,31.02161390434641,0.0021274002610921637
0.02600000000000001,-2.366301951889874,-50.10653571239265,50.63994597266694,30.954382198994022,0.0023896538221074796
0.02800000000000001,-2.384332220257055,-50.74197003597064,50.49240775174401,30.87670723194925,0.0020208159630737323
0.030000000000000013,-2.395640056923269,-51.236874861217714,50.616952598811054,30.794127755171957,0.0013966090228878462
0.032000000000000015,-2.4096892530599874,-51.60135633588976,50.753658625744976,30.70562630707058,0.0008305640711854496
0.034000000000000016,-2.4137900007352173,-51.8498294013379,50.84262753053686,30.60953908477086,0.00038649197215727014
0.03600000000000002,-2.423558336631944,-52.00707475012089,50.61548898878378,30.51618977684821,7.410486929372424e-05
0.03800000000000002,-2.4527646287605056,-52.10316389059271,50.316729419936465,30.429263391101117,-0.0001660244992082992
0.04000000000000002,-2.4054959595335372,-52.119394817397264,50.050890191726495,30.350136184246825,-0.0003631732266059291
0.04200000000000002,-2.4358794955034972,-52.074618313229436,49.82080024985956,30.27605283144449,-0.0005898063123363607
0.044000000000000025,-2.388936031878409,-51.8434119629901,49.614684612193194,30.203621288552128,-0.0007375637407106615
0.04600000000000003,-2.3886732906517647,-51.60535527328706,49.43053189677144,30.13521361387458,-0.0009170566247317222
0.04800000000000003,-2.400271921053884,-51.25823009468719,49.26445756677623,30.070466756676296,-0.0010181403786997465
0.05000000000000003,-2.413491205040035,-50.965070088832434,49.014474526627666,30.006123141467267,-0.0010340389589968343
0.05200000000000003,-2.4233325996806503,-50.71385647020214,48.67017493633184,29.919222609671692,-0.0010101049013626386
0.054000000000000034,-2.4305085492071017,-50.49686832289263,48.23696595584705,29.810827766027618,-0.0009724480315969246
0.056000000000000036,-2.4350401200554304,-50.295016986163596,47.70413982940563,29.678575442119705,-0.0009227827996535263
0.05800000000000004,-2.438057642269004,-50.11508400176214,47.09148761823901,29.542239898338366,-0.0008530610395120657
0.06000000000000004,-2.4395377831692255,-49.94187565459161,46.389778096019796,29.414356871169424,-0.0007445872599175592
0.06200000000000004,-2.4397359367049942,-49.48981618372131,45.53724327480474,29.301857630977672,-0.0005953756327372373
0.06400000000000004,-2.4389649368011264,-48.94638278378718,44.384397706028146,29.18849433875489,-0.0004225998671018558
0.06600000000000004,-2.4377420316709424,-48.19519483587662,42.797065015375395,29.104594363860976,-0.0001686549651874945
0.06800000000000005,-2.4360496080282315,-47.1425306490952,40.49690597469785,29.095186905208173,0.00024535470807661555
0.07000000000000005,-2.434107652965128,-45.524791989422525,37.00587161783648,29.109284135490384,0.0009879811500911992
0.07200000000000005,-2.4329225413095186,-42.88552416729047,31.265036822060353,29.138485610659398,0.0024051366012783288
0.07400000000000005,-2.433224013397828,-37.98189049864824,20.663686326905218,29.223573597358012,0.005361135101631149
0.07600000000000005,-2.4380706449465523,-27.30382192904813,-2.5531704066135603,29.514264842367965,0.012917956360930145
0.07800000000000006,-2.4555250182115884,1.5839583792225511,-64.87175719059931,30.842655929514976,0.043649154475739534
0.08000000000000006,-2.5502764729702867,118.5966025304339,-312.2301367640482,38.74400896313003,0.32883266352185747
0.08200000000000006,-3.374996829058855,1043.2457168772894,-2305.364673590979,128.1552785819557,2.891046614916246
0.002,-5.974966205076708e-09,3.535656323630026e-05,3.281071082671723e-05,2.3060874172964427e-06,3.6940116429662114e-10
0.004,-2.4154507479378533,-50.26314154169653,49.01547886822178,30.039118958810757,-2.820469974713455e-06
0.006,-2.4056855130295385,-49.75818842858378,48.522588868330985,29.744265745883343,-1.811783185997485e-06
0.008,-2.397413388244914,-49.343201813920984,48.117158858893596,29.502379980030693,1.942396074389345e-05
0.01,-2.390264028948132,-48.99840010640016,47.78108466013259,29.30253026764391,6.685287508446194e-05
0.012,-2.383661534463392,-48.701989876252995,47.494315628921306,29.132245935116444,0.00013569413450939774
0.014,-2.376774666978649,-48.42866053948337,47.233396918095046,28.976737795005796,0.0002193432612504493
0.016,-2.3705602288130616,-48.19252860739174,47.01226049731012,28.84426488468168,0.00030994674176961905
0.018000000000000002,-2.3644514899640563,-47.977036656939816,46.81476553902442,28.724646348555307,0.00040042923867155723
0.020000000000000004,-2.3585042191535757,-47.743428573851986,46.63792137528966,28.61597634514848,0.0004844280076808572
0.022000000000000006,-2.352692952192627,-47.451579012869466,46.47865410658154,28.516201719471724,0.0005590641160694416
0.024000000000000007,-2.3469925489130534,-47.0684927414505,46.33574892611021,28.424056368386548,0.0006244365411493624
0.02600000000000001,-2.341365545289795,-46.5553416998611,46.21656047879782,28.34327096217592,0.0006859281456884128
0.02800000000000001,-2.332502307938057,-45.834619929529254,46.11494544781797,28.268365760251633,0.0007593490079723495
0.030000000000000013,-2.3185596166407594,-44.79740988344105,46.02455125021855,28.191630061141918,0.0008810900168471891
0.032000000000000015,-2.298928437867412,-43.352687950255714,45.97837200446982,28.127276893510317,0.0011192422951907242
0.034000000000000016,-2.270031967650877,-41.38490348249576,45.99595716376989,28.075459163602627,0.0015777281352066317
0.03600000000000002,-2.2275704576823934,-38.85002541303864,46.122092488461256,28.04253307073717,0.0024005667256859053
0.03800000000000002,-2.159900705456265,-35.90744869069183,46.399400311616446,28.015822654339694,0.0035854466507339337
0.04000000000000002,-2.0767049558095834,-33.14372967195769,46.90563805062619,28.005308567344553,0.005107830450855892
0.04200000000000002,-1.9527006738261556,-31.66635089992,47.58326242405554,27.959385916895734,0.0059515897354577825
0.044000000000000025,-1.8396091716239047,-32.57678728192494,48.23255247331607,27.856529014718443,0.004098432207346736
0.04600000000000003,-1.7377879704801185,-35.24300912210383,48.53486679207125,27.7634179701352,0.0017151406852793697
0.04800000000000003,-1.6271278955354047,-37.371709946986,48.408338007378475,27.741318977293176,0.05864367113906069
0.05000000000000003,-1.4581019094926364,-39.05641218199008,48.05461612206813,27.669320844623353,0.11412598699315984
0.05200000000000003,-1.1661076724789912,-40.35725160116704,47.59278837641163,27.564961235464704,0.27935138898537354
0.054000000000000034,-0.6962933154325457,-41.33243650722863,47.080608196311395,27.441002786512485,0.4051317331944211
0.056000000000000036,-1.0000325158033565,-42.491258928765255,46.586861383446376,27.353971320006035,0.5805638867679588
0.05800000000000004,-1.2441509028139288,-43.4166504189935,46.17785506662401,27.347292253894395,0.6953766057421944
0.06000000000000004,-1.426578476865147,-44.1211685435189,45.82614278956377,27.320166515765827,0.7990972883465034
0.06200000000000004,-1.5772071956624332,-44.65567944201619,45.56795945112381,27.278191525012677,0.9303765813441044
0.06400000000000004,-1.6657988183157895,-45.0490200538825,45.484094121398456,27.270154961095574,1.0042662553122357
0.06600000000000004,-1.7431275095786412,-45.330803030586786,45.40726692018904,27.26124170656988,1.0344863940184945
0.06800000000000005,-1.8467846358376376,-45.5335287803888,45.28311537864368,27.21280027747282,1.006033110603486
0.07000000000000005,-1.864054420404369,-45.62240017025883,44.911573789757284,27.126633737504598,0.969917676697379
0.07200000000000005,-1.943214888024578,-45.63215602828834,44.61096555923702,27.01038477444087,0.8135633251953923
0.07400000000000005,-1.996152580200817,-45.478559712458605,44.41343047901972,26.969192222452893,0.7088558910420121
0.07600000000000005,-2.0541741267976823,-45.24751431090003,44.271418240490654,26.9424753425645,0.5784404402984196
0.07800000000000006,-2.0655266756662627,-44.957461620403876,43.99011926220738,26.89023931591565,0.7331986954645605
0.08000000000000006,-2.0789328228350676,-44.71144208904929,43.77948360781808,26.841892447900626,0.8905297738328706
0.08200000000000006,-2.0925954423379256,-44.49832607932295,43.562937043478236,26.818652620437376,1.0420262940239329
0.08400000000000006,-2.1058357282405056,-44.317111931545895,43.38104851501044,26.796368113652,1.1901220501262997
0.08600000000000006,-2.117604793135702,-44.15310532613856,43.22422235723881,26.768919527798086,1.2222896676732937
0.08800000000000006,-2.1255091189266597,-43.97805770497726,43.08284624773373,26.751206879188008,1.2167781324716633
0.09000000000000007,-2.1311188986173257,-43.823694712997394,42.9319078163538,26.70398231655076,1.1531954479576214
0.09200000000000007,-2.134606817873242,-43.69271226253266,42.56864513445005,26.531872940538044,1.1055883051768038
0.09400000000000007,-2.1369073705511914,-43.57838525299741,42.208387520955405,26.38642862683918,1.0599062823356213
0.09600000000000007,-2.1378221673662243,-43.467874363249734,41.84910669047575,26.25670727821325,1.0160651409069037
0.09800000000000007,-2.1376004966377313,-43.359265110215304,41.497656652193015,26.139048173431704,0.9739826279206314
0.10000000000000007,-2.1367196128461763,-43.25671508356722,41.166026933357,26.034086880208157,0.9335823399052687
0.10200000000000008,-2.1348627692569195,-43.148974653993236,40.84683754988163,25.933501724757523,0.8947879493991793
0.10400000000000008,-2.1325522884942676,-43.043358357829675,40.550868885167915,25.84050287199328,0.8575316295881885
0.10600000000000008,-2.1293168956639295,-42.927211052486705,40.26756063511624,25.70406650646183,0.8217476076839848
0.10800000000000008,-2.1246903478019115,-42.80985875873641,40.019435374848904,25.510845028969765,0.7873822062497499
0.11000000000000008,-2.117958367601663,-42.57946948773101,39.80570582279823,25.26974351251655,0.7543861298071882
0.11200000000000009,-2.1106820287263575,-42.3082111212379,39.577205746018464,24.989407247554357,0.7227059462121137
0.11400000000000009,-2.1038874179244136,-42.013556033352195,39.34123102223828,24.6741676525226,0.6922926023493797
0.11600000000000009,-2.097824483983553,-41.69044073576347,39.09820281565112,24.31807453685431,0.6631047445510906
0.11800000000000009,-2.092195172796322,-41.322253269820926,38.844307801720745,23.90686662225748,0.6351091553461692
0.12000000000000009,-2.086978325100259,-40.9030901289548,38.58718447745345,23.430903667838304,0.6082876065120668
0.1220000000000001,-2.081782027977707,-40.42390687726913,38.33926682161638,22.87818330815122,0.5826422899860172
0.1240000000000001,-2.075989181229892,-39.87377779549916,38.12376708778814,22.23586937830395,0.5582044816742688
0.12600000000000008,-2.0698891861396636,-39.261137429264956,37.97775771906914,21.49933235049474,0.5350439592780613
0.12800000000000009,-2.0625469255498916,-38.56854617882208,37.959555946574156,20.658472741592377,0.5132731743395442
0.1300000000000001,-2.056408754328075,-37.854213358093375,38.11896176031389,19.712177066364273,0.4930212354934568
0.1320000000000001,-2.0484866596852256,-37.109220089975494,38.521283758132554,18.644842838469938,0.474403214279776
0.1340000000000001,-2.0380181531185735,-36.24268234123294,38.834770410996235,17.483788853326633,0.45738058040672236
0.1360000000000001,-2.024815209683636,-35.224722854339944,39.10865030643186,16.25703018389742,0.4418949205939093
0.1380000000000001,-2.0102390974597277,-33.9976733532246,39.36820235110269,15.026431011292829,0.4277436759472014
0.1400000000000001,-1.9918844809219816,-32.561707503554864,39.65364014965313,13.868097019102375,0.4146660676487367
0.1420000000000001,-1.9747427906872874,-30.8884825351306,40.00253914361702,12.930087735889888,0.4023414146526598
0.1440000000000001,-1.9399541639740019,-28.961008866870905,40.46596093429505,12.464714049369318,0.3901468998783566
0.1460000000000001,-1.9475360923450065,-26.866573167477185,41.115313923011236,12.864338374830133,0.3778922231358339
0.1480000000000001,-1.748700971033739,-25.125059134275954,42.035060962142396,14.656074631055668,0.36509182653796174
0.1500000000000001,-1.8427305219954044,-25.036538006604196,43.23590102233606,16.653029590844024,0.358679927459644
0.1520000000000001,-1.8813955194267658,-28.133685641119634,44.38158778070053,18.353643693335677,0.35596644429952223
0.1540000000000001,-1.8842589433365131,-30.802680381949656,44.73482877724892,19.684969928733196,0.35290246177629087
0.1560000000000001,-1.9085342765549909,-32.9567508412785,44.563465288979955,20.70483574565993,0.3496041851861805
0.1580000000000001,-1.9045420636691972,-34.61288462875178,44.094136358018424,21.47157543832124,0.34287594830557105
0.16000000000000011,-1.921713101548183,-35.83935249311963,43.48597281240133,22.039615742432773,0.3341306277757274
0.16200000000000012,-1.9128558248098346,-36.728620053921496,42.84184199117325,22.456815603610288,0.3233425191252555
0.16400000000000012,-1.9140500201414792,-37.35263714326564,42.206183824049795,22.75366645618791,0.31203545541116456
0.16600000000000012,-1.9057499512189486,-37.79629368863668,41.62164440256865,22.967045614499238,0.30052133522846325
0.16800000000000012,-1.8938042516537859,-38.09821227193179,41.08536824242317,23.110123210486623,0.2890511787720391
0.17000000000000012,-1.8780840024012904,-38.03417131634917,40.61080215320949,23.206044615349676,0.27768404184052803
0.17200000000000013,-1.901590288422147,-38.61102917807849,40.20448886021554,23.27078253407259,0.26676979727393707
0.17400000000000013,-1.913517072653819,-39.055432703351805,39.82670871864296,23.298449826487992,0.2559144505055576
0.17600000000000013,-1.919256091556204,-39.39051325672381,39.48096382009244,23.299366185484764,0.2452620483520891
0.17800000000000013,-1.9163247019539802,-39.63891512254385,39.18813832281066,23.2832436860824,0.23490343052264268
0.18000000000000013,-1.9173405906086143,-39.80830501269933,38.93263680489525,23.25517634491418,0.22493185492093512
0.18200000000000013,-1.9087035912615649,-39.9184339880362,38.911378758683504,23.22059188117668,0.2153219843245903
0.18400000000000014,-1.9094219557610028,-39.97330274249326,38.92333170117899,23.176105090857067,0.20613070079685672
0.18600000000000014,-1.9201054627145502,-39.97644632606197,38.89077266944229,23.119643316840786,0.19732436380598722
0.18800000000000014,-1.93059227421356,-39.92220741557794,38.73675160318548,23.004840624994827,0.18885961377613514
0.19000000000000014,-1.944909271626186,-39.79984897697464,38.40756288914908,22.95151362385447,0.18072932316617432
0.19200000000000014,-1.9708748172791082,-39.60102219301108,38.12934368343141,22.903423451058938,0.1728820853304629
0.19400000000000014,-1.9621418713431698,-39.26106808462545,37.88685898079056,22.853939026189387,0.16518229594158423
0.19600000000000015,-1.953972777227648,-38.978335058476986,37.64744035270854,22.80162952476047,0.15777958917406598
0.19800000000000015,-1.9464466772417122,-38.73548476210728,37.37449237718262,22.73450504531053,0.15067151052621847
0.20000000000000015,-1.9397774699764636,-38.52510161790641,37.05869330305602,22.65959820298237,0.14385403920434048
0.20200000000000015,-1.9337912708366092,-38.338202801438676,36.69132968204719,22.584107510216093,0.13732624444950614
0.20400000000000015,-1.9277018296667454,-38.15548923422307,36.25377790598476,22.51233714003029,0.13109407631798858
0.20600000000000016,-1.9222746409564353,-37.99561829555821,35.771747641794896,22.471514626240094,0.12516752508907786
0.20800000000000016,-1.9169835801054151,-37.8529709081623,35.25248372789083,22.4333897334018,0.1195639755093663
0.21000000000000016,-1.9111624163236267,-37.71454381080905,34.68991115987546,22.393907211211868,0.11430559570933639
0.21200000000000016,-1.9046992572395587,-37.57765744210634,34.08878345537134,22.35476166855866,0.10941571754586277
0.21400000000000016,-1.8981521826564134,-37.362041073948646,33.448972543971635,22.322274959490663,0.10490553960295308
0.21600000000000016,-1.8923296144748234,-37.0277241423374,32.73136421030858,22.288494160267394,0.10075667271938164
0.21800000000000017,-1.8884461180574306,-36.639431379755955,31.918056716761072,22.257787301655164,0.09694186376452577
0.22000000000000017,-1.8860759757965837,-36.199440810371996,30.988480248370493,22.228632848196785,0.09346217553213595
0.22200000000000017,-1.884923991144474,-35.704126315344176,29.933325967317806,22.204055097030345,0.09033354995943178
0.22400000000000017,-1.8841754047105101,-35.152969474009545,28.749894313255425,22.183086206079306,0.0875789976637958
0.22600000000000017,-1.883890680255573,-34.54266358267687,27.45339296167851,22.18290329596635,0.08522568875818298
0.22800000000000017,-1.8815768749807924,-33.87385498311488,26.037741808916792,22.195316720749748,0.08330800860740084
0.23000000000000018,-1.8743057857953052,-33.150885526998366,24.531972045422506,22.226598799293942,0.08188917570167713
0.23200000000000018,-1.8543497619808584,-32.417461624858895,23.015894707968194,22.264273750910164,0.08106404901934858
0.23400000000000018,-1.8157931755490582,-31.70706125414191,21.602727335001383,22.32047388871248,0.0810295061410019
0.23600000000000018,-1.7504265807315382,-31.096116255734124,20.438849018140214,22.37547882668518,0.08206074255920733
0.23800000000000018,-1.6618455287832223,-30.628753104689785,19.632442193357235,22.43211562270428,0.08451900953560451
0.24000000000000019,-1.5595930858620664,-30.35567840998248,19.268460995772692,22.467276657882895,0.08858276484176782
0.2420000000000002,-1.4581832249622073,-30.329001995224186,19.416379826356103,22.461013165092,0.09400737381186658
0.2440000000000002,-1.3670184253910131,-30.56032238585196,20.044571439332387,22.407657391836352,0.09914418510712546
0.2460000000000002,-1.2797265117632084,-31.019280008337535,21.024423736753086,22.317995078783426,0.1211301217289229
0.2480000000000002,-1.1696078722740382,-31.72592766509962,22.701772700871004,22.233295034697576,0.18217782226873536
0.25000000000000017,-1.0317287371097061,-32.39555106231058,24.702733526876862,22.155906441107884,0.27102612796508957
0.25200000000000017,-0.8906176183292576,-32.90274060508147,26.35528258541372,22.041944353198748,0.3653724998516229
0.25400000000000017,-0.7400333714226137,-33.2843048831412,27.700144727317017,21.916765694532167,0.46615608326418345
0.25600000000000017,-0.5639229149229714,-33.44604499135103,28.74325568398953,21.758885165205992,0.5798819775660999
0.2580000000000002,-0.3985560059250859,-33.38177508766017,29.703793754892487,21.597054087095295,0.673941859290524
0.2600000000000002,-0.32975603280822496,-33.013875670436065,30.511600144859855,21.432297352136093,0.6945655151072673
0.2620000000000002,-0.4043561524219066,-32.31870415318203,31.13482460993173,21.26020647926709,0.6657390709483464
0.2640000000000002,-0.5832405874729345,-31.346208369649432,31.61921391615135,20.73601455781277,0.4666545852970863
0.2660000000000002,-0.8299994139941977,-30.16272968429739,32.0249094383511,19.5935138109163,0.44255784836864315
0.2680000000000002,-0.9819173834345476,-28.84516946490418,32.3288911536778,17.715207587837682,0.4205904954978191
0.2700000000000002,-1.0682958664834457,-27.81752611534899,32.62142250930461,14.953427947129459,0.39796297971458094
0.2720000000000002,-1.1144138178800864,-27.296117892128514,32.88516238810041,11.403249581407689,0.3744306837591702
0.2740000000000002,-1.2043922898794228,-28.618634266211107,33.086713479270195,12.276934808748225,0.3557638132782269
0.2760000000000002,-1.268577311653074,-29.623579500367406,33.15311324217495,13.107661329584985,0.33434283313229746
0.2780000000000002,-1.3362442496758098,-30.404725853421287,33.142958173392636,14.129352355796314,0.3065253630550515
0.2800000000000002,-1.392271487377934,-31.00245995365934,33.07078092321528,15.045414246178133,0.2763096310630961
0.2820000000000002,-1.436140414216838,-31.427230905251694,32.96836428565457,15.759524787281979,0.24913698181866556
0.2840000000000002,-1.4853990097964977,-32.06496756718636,32.89013519777548,16.342298841114555,0.22910454216410517
0.2860000000000002,-1.52589164944016,-32.54435707983504,32.79447656581625,16.810979447383993,0.21357148102247372
0.2880000000000002,-1.5477484227125018,-32.92823630735939,32.69480563928123,17.25126818681443,0.19861877436301087
0.2900000000000002,-1.5614953367240183,-33.21575325866356,32.59204861462534,17.57682827947954,0.1864975139125511
0.2920000000000002,-1.5744570709465702,-33.414048255404914,32.50204608334338,17.77104648710837,0.17706355386140876
0.2940000000000002,-1.5740304998295482,-33.54730383373732,32.42038522070809,17.90987053280418,0.16878133505019255
0.2960000000000002,-1.5804226020043388,-33.627957766231205,32.45554958764653,18.05071812383391,0.15990148275343463
0.2980000000000002,-1.613972860243088,-33.6665804365927,32.541407488950334,18.185537434321528,0.15041437776399644
0.3000000000000002,-1.5614967877681143,-33.6567547098784,32.578261072150106,18.276562407516185,0.14217190156961015
0.3020000000000002,-1.6375535216845536,-33.59186980044481,32.55961197100251,18.298058136935072,0.13493976043690845
0.3040000000000002,-1.6511492489344135,-33.40106047824503,32.344693011572716,18.20649898080202,0.12906646654665957
0.3060000000000002,-1.6397782591191776,-33.10882271601829,32.14747491539213,18.10448353395802,0.12354137655827199
0.3080000000000002,-1.6298231753273371,-32.85722680160336,31.955783816038295,18.05904184798697,0.1182247714671708
0.3100000000000002,-1.6212356401938024,-32.63766312298107,31.772404177244987,18.123968450293763,0.11310246979535113
0.3120000000000002,-1.6147114002134757,-32.45130690308023,31.612165180262824,18.194195519514732,0.10816353136807054
0.3140000000000002,-1.6095681929083698,-32.28419867856066,31.46293647275688,18.25955439702808,0.10340501596955311
0.3160000000000002,-1.6053346040993224,-32.12821691390974,31.31803822740619,18.312778475669163,0.09882220316423199
0.3180000000000002,-1.602025456092202,-31.98625452207893,31.181523388710254,18.35398012593241,0.09441003029578611
0.32000000000000023,-1.599096436183116,-31.849889744359732,31.04619334828896,18.37629742596674,0.09016220266932624
0.32200000000000023,-1.596709475209409,-31.726565116466823,30.90058066460378,18.385630287773722,0.08607505603589417
0.32400000000000023,-1.594488113931557,-31.612888674195702,30.723199005528723,18.382141156089723,0.08214634203848231
0.32600000000000023,-1.591951288812939,-31.502200939672065,30.517889377358383,18.361896656824733,0.07837286645667035
0.32800000000000024,-1.588893885980521,-31.393399007340935,30.29212191546757,18.324501481736462,0.07475146207704475
0.33000000000000024,-1.585299888068238,-31.28897707830798,30.0563627882974,18.2723930051673,0.07127956159303662
0.33200000000000024,-1.5808739030123702,-31.185658784425176,29.81353110995372,18.204529865105318,0.06795426422346545
0.33400000000000024,-1.5751947668993516,-31.07802376945704,29.562626439367836,18.11861425476358,0.06477215245357314
0.33600000000000024,-1.5681120352060816,-30.966152918674556,29.30759103594111,18.016537501582995,0.061729861553001954
0.33800000000000024,-1.5601079820639554,-30.85682926278282,29.0628139178435,17.907950125200447,0.05882396997137075
0.34000000000000025,-1.5509564831798492,-30.68859987111773,28.807886963975815,17.78813841379649,0.05604659984345271
0.34200000000000025,-1.5406335966849898,-30.495969005084685,28.5239453784283,17.657178926508927,0.0533846494020679
0.34400000000000025,-1.5290882562596766,-30.287881351434756,28.208306364102434,17.51717785236685,0.0508332740651881
0.34600000000000025,-1.5157706057083722,-30.0610960281581,27.853298386962038,17.366747448470356,0.04838830072449064
0.34800000000000025,-1.5005708376138458,-29.823117033399292,27.46404380281499,17.212306334485096,0.04604222927500445
0.35000000000000026,-1.4826759752657148,-29.57440824735118,27.03876092190871,17.05699457886455,0.043779546857454325
0.35200000000000026,-1.4608490499642537,-29.319923106722904,26.581192882070876,16.908111331567415,0.04156874845032202
0.35400000000000026,-1.433188717670788,-29.07198012241978,26.104932190279673,16.77892126211646,0.03934649305460055
0.35600000000000026,-1.3961973018342142,-28.847055278797836,25.6310251397274,16.68634103794475,0.03699097248042313
0.35800000000000026,-1.34250449968434,-28.66689313440849,25.189387469896637,16.651588640980364,0.03427575503245685
0.36000000000000026,-1.2592726005103934,-28.568458478562942,24.833452497172676,16.702909938887057,0.030788895972097278
0.36200000000000027,-1.117429275602674,-28.576009623847813,24.603684792756013,16.855834868456554,0.025799132366354983
0.36400000000000027,-0.8567812775480385,-28.69289129881786,24.543090496738714,16.981631722955598,0.018003548019484294
0.36600000000000027,-0.33459475494716795,-28.767126811878306,24.604191719309604,17.072722184515293,0.004816125389363704
0.36800000000000027,0.7064266781353479,-28.799826955195012,24.910485621895234,17.13893599184256,-0.018230363100973014
0.3700000000000003,2.632076029516244,-28.2427059851489,25.56910034147938,17.191097049123755,-0.05554825358770837
0.3720000000000003,4.224961869725769,-24.392975994197013,26.219660658081192,17.27253094819484,-0.09384865945092374
0.3740000000000003,-5.828627744126384,-15.092912255468146,27.002871499816642,17.452246077685363,-0.011571827771835587
0.3760000000000003,22.653899029830466,-5.697631925258971,28.416588440423045,18.226257692784042,-0.20465407923825607
0.3780000000000003,-229.01537372880384,118.34167412380239,37.49438891001756,22.831214262533823,0.21576664452962652
0.3800000000000003,14181.470511420388,9707.419393495384,707.2736981122662,339.2147429333197,39.76735830891668
0.002,-5.974966205076708e-09,3.535656323630026e-05,3.281071082671723e-05,2.3060874172964427e-06,3.6940116429662114e-10
0.004,-1.427219932289961,-29.65521969465673,28.919966261425227,17.726026752081168,1.3479287073721845e-07
0.006,-1.4218817744550891,-29.33651506585011,28.61069403496102,17.542235212733363,3.982590927413791e-07
0.008,-1.4162682620082392,-29.063030158788262,28.346994494470426,17.384717673948213,8.861383158087694e-07
0.01,-1.4100029484169578,-28.821353602792648,28.11589006829986,17.245727589313187,2.3906114080378826e-06
0.012,-1.403074981780018,-28.607704972140066,27.91336620001197,17.123016156543432,3.877896205621471e-06
0.014,-1.3952125187736222,-28.41538253173599,27.73236619675894,17.012469925144824,3.6876192832177953e-06
0.016,-1.3860313275141787,-28.2289029585839,27.56605460662707,16.910115569563573,2.96770661360293e-06
0.018000000000000002,-1.3754567009712813,-28.035286170325627,27.417434559333213,16.817939813795537,7.896551661942266e-07
0.020000000000000004,-1.362676780184972,-27.827204827608178,27.279644104887304,16.73167598441132,-1.588505199003525e-05
0.022000000000000006,-1.3465428717506902,-27.595466209932685,27.142260124731997,16.644841556181568,-5.161582287336758e-05
0.024000000000000007,-1.3483821022351703,-27.74636405975847,27.016724701609256,16.564706462521528,-0.00011245377616708483
0.02600000000000001,-1.3472506175533154,-27.865689293936953,26.90027352337768,16.492972090981088,-0.00013495066849816264
0.02800000000000001,-1.3411653366580139,-27.926915371018904,26.77539792123962,16.418808091594972,-0.00012766776851271552
0.030000000000000013,-1.3322416266243713,-27.959872794191703,26.659066938288063,16.35122520908892,-0.00010264304142084893
0.032000000000000015,-1.3243149830878047,-27.96064738639351,26.668449021842566,16.371992369190863,0.2087257247253852
0.034000000000000016,-1.3111677499524472,-27.93104685986685,26.65154451809246,16.369000253778676,0.4292763463888493
0.03600000000000002,-1.3037006162129752,-27.878883349036165,26.608239621289435,16.31141458671162,0.4422563502447547
0.03800000000000002,-1.326495217005122,-27.81651515770728,26.628915158787425,16.255136281722386,0.4405913767166924
0.04000000000000002,-1.3806337291403898,-27.73278847560236,26.640824959182446,16.188586208374655,0.42328913170817634
0.04200000000000002,-1.407608688702829,-27.622832326892144,26.621298408472242,16.101615440846075,0.40546431453298637
0.044000000000000025,-1.3316302660555015,-27.43232770775197,26.552707551826657,16.00376801656436,0.38829077849488214
0.04600000000000003,-1.3255603827254954,-27.133268043456383,26.30129207654647,15.907604142956716,0.371896007551663
0.04800000000000003,-1.319988469285891,-26.87060357845377,26.080010997146122,15.816074939794943,0.3561704269980587
0.05000000000000003,-1.3156678081499766,-26.652280999128305,25.88917218194867,15.737746967457223,0.3410873654643357
0.05200000000000003,-1.3121351437584448,-26.4631909107302,25.7214336835201,15.666316883250943,0.32662180534385743
0.054000000000000034,-1.309208375226488,-26.296161183573673,25.570869665469814,15.599713234795214,0.31274945948861205
0.056000000000000036,-1.3064970360418904,-26.14039673463391,25.42784802996687,15.533271447121141,0.299446824225725
0.05800000000000004,-1.3042717449066665,-25.999899357061828,25.289893736647166,15.493093075332432,0.32867162584360604
0.06000000000000004,-1.302258911682057,-25.868326555027625,25.14569349694544,15.457038425129987,0.37617462458668166
0.06200000000000004,-1.3004800699061814,-25.74456351364747,24.997060995404638,15.416895559487237,0.4244855867037706
0.06400000000000004,-1.2988832148450296,-25.626280296839195,24.84429401243897,15.372999481654674,0.47386648432608425
0.06600000000000004,-1.2968341700445323,-25.499859487125292,24.676282706248184,15.318313779453941,0.525069213096888
0.06800000000000005,-1.295020430482773,-25.380790748203292,24.52975834107784,15.281999895907218,0.5778675385667037
0.07000000000000005,-1.293428156978159,-25.272694937599937,24.398967475851865,15.261189927716407,0.6263820509250447
0.07200000000000005,-1.2904767579148846,-25.14956449505621,24.232297424462082,15.216449139711406,0.652921195664377
0.07400000000000005,-1.2873585191301051,-25.03853732341004,24.18054375562736,15.212470478916241,0.6527347573844402
0.07600000000000005,-1.283113783181935,-24.930909596436432,24.117501156714592,15.174494464540368,0.6448548465814955
0.07800000000000006,-1.2772269809125478,-24.822926889370994,24.014878023999774,15.098588877688814,0.6152573499078621
0.08000000000000006,-1.2695641689630475,-24.715644327351185,23.865186994811747,15.014794230639133,0.5911225040955554
0.08200000000000006,-1.2605574882522315,-24.612490890573007,23.688465422400956,14.925684201731391,0.5674022389799112
0.08400000000000006,-1.250770583420984,-24.513974991270942,23.52515067031459,14.833654067668874,0.5439442714118009
0.08600000000000006,-1.2400843241892439,-24.409085465102454,23.373959551595497,14.740444037947238,0.5211796626076731
0.08800000000000006,-1.2293351531744499,-24.303538109083917,23.229503973843464,14.652473052155768,0.49935276176647964
0.09000000000000007,-1.2194948144199553,-24.20492262707612,23.099693650979656,14.573211823459328,0.47842177185116747
0.09200000000000007,-1.2104386946283565,-24.105098580388745,22.97709792351797,14.496920263796401,0.45834619517360287
0.09400000000000007,-1.2024241252052774,-24.007770568051008,22.865541362534017,14.425119476112886,0.43908819421611167
0.09600000000000007,-1.1951988560257938,-23.909822684478133,22.762221491849793,14.355383763606696,0.42061219992650933
0.09800000000000007,-1.1884817491899007,-23.80910501633903,22.665373413499832,14.285973161783964,0.4028848658362788
0.10000000000000007,-1.1825266149399651,-23.714217030256897,22.582993598335257,14.217413944529762,0.3858761096649112
0.10200000000000008,-1.1769447525942947,-23.620202615103164,22.51054512654389,14.141613575066119,0.369557374792089
0.10400000000000008,-1.1689777292332553,-23.47456477256975,22.403079279630184,14.024707687888295,0.3538974454580679
0.10600000000000008,-1.1631501613352517,-23.37054513025604,22.348263859632894,13.928441771818374,0.3388746876591551
0.10800000000000008,-1.1578465638616449,-23.275268610443547,22.31306582398412,13.835632839060894,0.3244651236130309
0.11000000000000008,-1.152707212791641,-23.17510514669552,22.288729221704806,13.744048910285876,0.31064505826155075
0.11200000000000009,-1.1472037887485431,-23.060229958814038,22.257098143499068,13.64886065804134,0.2973907216778023
0.11400000000000009,-1.1413809949725682,-22.93210098283436,22.20959633272142,13.5521899323345,0.2846794783080258
0.11600000000000009,-1.1355114935831332,-22.798378608994184,22.155568962481052,13.458281013406271,0.2724894526838213
0.11800000000000009,-1.129792300878462,-22.66488467216594,22.101776163531472,13.370058884858173,0.2607995754895471
0.12000000000000009,-1.1233246007903697,-22.514304920284182,22.034480314815486,13.278482053206211,0.24958985482292134
0.1220000000000001,-1.1167628546797839,-22.3623591604135,21.970024653044124,13.192829338977763,0.23884076063857793
0.1240000000000001,-1.1094637190851662,-22.198245299788365,21.900443468116883,13.108086237964452,0.22853381352681873
0.12600000000000008,-1.1008755059217428,-22.014761362263226,21.82238913465927,13.022795873204839,0.21865143310195587
0.12800000000000009,-1.0908381028808982,-21.815723729402986,21.742853897050477,12.941680646601684,0.20917633167268387
0.1300000000000001,-1.0779843139934255,-21.58558017220069,21.652880722954,12.861385292240387,0.20009229204574305
0.1320000000000001,-1.0612490940031059,-21.325506843883375,21.56010440649492,12.788547283652784,0.19138315051937882
0.1340000000000001,-1.0386159604027059,-21.03541309090457,21.471436812750998,12.728817729029554,0.18303333200178237
0.1360000000000001,-1.006453326189613,-20.715248708348472,21.394002647366694,12.686818710894595,0.17502949843015286
0.1380000000000001,-0.9571137155305475,-20.34856408011135,21.32222675216948,12.661554763416467,0.16736414414711487
0.1400000000000001,-0.8761489944971547,-19.91421625553243,21.24982765721033,12.656031275128367,0.1600425731480223
0.1420000000000001,-0.9091370849612453,-20.36982053207576,21.19280173519801,12.671673334988228,0.1525996742102607
0.1440000000000001,-0.9340351983171621,-20.709886520567036,21.110963047895932,12.673759133001143,0.1454559232975736
0.1460000000000001,-0.9509571520587696,-20.970962726281627,21.016620722930167,12.664144286321298,0.1386264279987739
0.1480000000000001,-0.9612974796933327,-21.159285933416438,20.91480520139949,12.644352452430908,0.13210393347170588
0.1500000000000001,-0.969377118162209,-21.287727951334244,20.81035440414206,12.616744879895707,0.12586563218833477
0.1520000000000001,-0.9610795791405519,-21.359108930909183,20.707777117402188,12.580460302089088,0.11994179838515483
0.1540000000000001,-0.9593915043998448,-21.37030029931549,20.588662579752025,12.525489240615444,0.11421012845752787
0.1560000000000001,-0.9810688884080321,-21.3855751382124,20.499517322043484,12.482116994449758,0.1086688696349758
0.1580000000000001,-0.9753050134605924,-21.366651059674176,20.415817058257957,12.435546918004562,0.10350826384588765
0.16000000000000011,-1.0258627405173906,-21.3129351995575,20.413697893071348,12.378508362793232,0.09845179482509502
0.16200000000000012,-1.0448935939962867,-21.237139528287393,20.43651549621674,12.325761224843454,0.09389539479768404
0.16400000000000012,-1.0050623389529776,-21.10256506232852,20.439274239456424,12.271818945415852,0.08969088825303635
0.16600000000000012,-0.998432328970591,-20.907315795038066,20.387283408914776,12.212933925061089,0.08550041234191372
0.16800000000000012,-0.9924191965941257,-20.701242224311713,20.280444169072048,12.122795640369482,0.08148355477261911
0.17000000000000012,-0.9872582723413086,-20.517637310490652,20.111062697554303,12.047525531271317,0.07763470387965986
0.17200000000000013,-0.9822603281475306,-20.345308375225237,19.922821178305256,11.99193580789548,0.07394513675931037
0.17400000000000013,-0.9784441765306435,-20.201459351338475,19.76523553641755,11.943615475967869,0.07040900071249229
0.17600000000000013,-0.9748985844295225,-20.06576357196921,19.617772772004525,11.892246229563757,0.06702192947924719
0.17800000000000013,-0.9716243871008587,-19.938013766742717,19.479746434111778,11.839209845344488,0.06377906868599365
0.18000000000000013,-0.9687521121164241,-19.821469539194467,19.34981065514795,11.783725158990073,0.060674892282666794
0.18200000000000013,-0.965864547994114,-19.708611499062656,19.207922047326644,11.723798121375031,0.05770350133913369
0.18400000000000014,-0.9628581204699824,-19.598304934815335,19.05472742565431,11.660037169310709,0.05485860690412502
0.18600000000000014,-0.9590679914603626,-19.477609856868202,18.878330158719663,11.585867212795357,0.0521348953711022
0.18800000000000014,-0.9558973271318967,-19.376436751815227,18.711437362935268,11.521131308429077,0.049526669455291605
0.19000000000000014,-0.9525750211024455,-19.279179342293098,18.540648280315953,11.458037871951406,0.04702935154394651
0.19200000000000014,-0.9488392467588587,-19.181008740746496,18.362639915783262,11.39525006043318,0.0446388111834487
0.19400000000000014,-0.9443658806694453,-19.07594986542459,18.172736962138035,11.330924581138214,0.042351161336539045
0.19600000000000015,-0.9395910846657763,-18.973783450753956,17.98223786477618,11.272633267372127,0.04016227169425977
0.19800000000000015,-0.9343626681332096,-18.871951950443233,17.790316940075652,11.220530172866923,0.03806791271300649
0.20000000000000015,-0.9281733096932174,-18.7605318878303,17.58918307160802,11.168918039109338,0.03606379367883681
0.20200000000000015,-0.9221077711607835,-18.662599128407706,17.4039331750188,11.123235402183012,0.03414489920073056
0.20400000000000015,-0.9155699313934785,-18.56618215079759,17.22398062678383,11.076793421542513,0.0323068011360361
0.20600000000000016,-0.9083750421532104,-18.467957869814523,17.047162149262867,11.027943232562702,0.0305451439307354
0.20800000000000016,-0.9005833394107441,-18.36978937329924,16.87629299481665,10.978024421507936,0.028855628519683867
0.21000000000000016,-0.8921981198966861,-18.27254452261928,16.713105224954663,10.927698169845515,0.0272341479025287
0.21200000000000016,-0.8829039931730449,-18.170717337203037,16.553359339579025,10.873754261380965,0.02567721934579851
0.21400000000000016,-0.8730382150035786,-18.07295484353423,16.40605934077017,10.821395217930476,0.024181442841338066
0.21600000000000016,-0.8624952101899408,-17.979258053972927,16.271562413300085,10.770642419723599,0.022743903364278843
0.21800000000000017,-0.8508329688257343,-17.883472170430238,16.144497759530818,10.717823531413195,0.021362733241254556
0.22000000000000017,-0.8380274191521775,-17.789145697060096,16.02857619534257,10.665072100066011,0.02003650500003358
0.22200000000000017,-0.823908860493424,-17.69784334157369,15.925284821716911,10.613355018405976,0.018764333635304734
0.22400000000000017,-0.8079988918148538,-17.606339800544113,15.831537361517821,10.560785580864698,0.01754642399255624
0.22600000000000017,-0.7899417176832833,-17.515676058916444,15.748207553087164,10.508047872049438,0.01638369727086499
0.22800000000000017,-0.7679155066357731,-17.403815452118838,15.655232855211892,10.441980909018435,0.015281100434779897
0.23000000000000018,-0.7432396531975048,-17.309484480245608,15.588817268910905,10.385884708204415,0.014239096391699214
0.23200000000000018,-0.7144067993788246,-17.21786929399245,15.534012984343066,10.331024148584767,0.013261427646624099
0.23400000000000018,-0.6794977930203313,-17.115949131031478,15.47849788555683,10.269700212711003,0.012354710622907496
0.23600000000000018,-0.6382171703980818,-17.021699775973257,15.439114730522391,10.212788693067266,0.011523853744389242
0.23800000000000018,-0.5885757972450036,-16.926853057389906,15.407807914044884,10.155448951028726,0.010776470424814798
0.24000000000000019,-0.5289350556596992,-16.834095041116335,15.38733680128049,10.099378313396608,0.010120733173284211
0.2420000000000002,-0.4567280226974419,-16.738008407602003,15.373166780793593,10.041401322846959,0.009566122718598403
0.2440000000000002,-0.3697945358173412,-16.642918854745822,15.370574637875928,9.984152795697693,0.009120560581701269
0.2460000000000002,-0.26517783307415477,-16.544978988761418,15.377556660810145,9.925342611610775,0.008781906579348886
0.2480000000000002,-0.13992624152917665,-16.443161389295998,15.395542049039015,9.864317461592783,0.008541199739460279
0.25000000000000017,0.0077549962638756575,-16.3385375287542,15.42242417180135,9.80161815244859,0.008376058019543987
0.25200000000000017,0.17928259602875407,-16.238996296213937,15.430734424030247,9.741818770854588,0.00824958835492076
0.25400000000000017,0.38037744679891716,-16.144013607978412,15.424078925057241,9.68434330812161,0.008146412285441289
0.25600000000000017,0.618511420005759,-16.04695449255127,15.399217880781594,9.62483148860239,0.008050790769239854
0.2580000000000002,0.8997696097737213,-15.95439657248391,15.365140371343632,9.56677230434479,0.007948668224856906
0.2600000000000002,1.230161096747775,-15.862592985746033,15.347517214776849,9.562523895133655,0.022785832665805483
0.2620000000000002,1.6060690749937747,-15.775403148900903,15.329572791725395,9.555082798717812,0.0324657119354974
0.2640000000000002,1.140454210476511,-15.792301923770232,15.281742521131049,9.522735506756419,0.04630962759379105
0.2660000000000002,0.7673392467069361,-15.77598357982574,15.187523258758022,9.459079932310436,0.07502086578670199
0.2680000000000002,0.4717573928173414,-15.736219888823355,15.069640963969343,9.384783697932454,0.09749359151868137
0.2700000000000002,0.2369084429439453,-15.682984989684249,14.9487396493271,9.305030432815208,0.13484969992335122
0.2720000000000002,0.06559532327541195,-15.618593126785115,14.841307238830868,9.232166054747164,0.16901891961766857
0.2740000000000002,-0.07259028481106233,-15.546542712078933,14.739376207174503,9.157557003952169,0.17673597254670673
0.2760000000000002,-0.20748021127533023,-15.458729454473024,14.645973778450664,9.105566385313864,0.19803709350996807
0.2780000000000002,-0.2867754014356325,-15.357314900019434,14.5542849633781,9.041162109000725,0.2130702848822754
0.2800000000000002,-0.38758966756422153,-15.23383834538684,14.458611042286355,8.959073177658627,0.21263330955289472
0.2820000000000002,-0.4495917042162301,-15.108251772587519,14.429502714728049,8.884817750680062,0.190349309052676
0.2840000000000002,-0.5156194428187018,-14.965896566824366,14.400087931085922,8.80173285892693,0.1833713873474514
0.2860000000000002,-0.53110615290265,-14.769323168591972,14.32740688607408,8.681890987287037,0.15967894597684643
0.2880000000000002,-0.5439963033946892,-14.566939848234846,14.222866155754062,8.535583243386506,0.1404655295899431
0.2900000000000002,-0.5518047184351017,-14.334319699363984,14.098881300912621,8.379611340342178,0.11356609124486641
0.2920000000000002,-0.5536812940193497,-14.160654520549237,13.98673009718227,8.297242541485634,0.08905124558152297
0.2940000000000002,-0.555657118543238,-14.024551010378717,13.889929781050752,8.254066428317307,0.0765960717552518
0.2960000000000002,-0.557424484349263,-13.89525553260677,13.79513679766734,8.221394356629702,0.08520547485159993
0.2980000000000002,-0.5581629790095806,-13.718424739131725,13.673117268576036,8.17391790344011,0.10209743706012646
0.3000000000000002,-0.5595963092222261,-13.556406372936753,13.561593451422922,8.142835429708509,0.1326917545679176
0.3020000000000002,-0.5603050838660386,-13.370418223334747,13.420750204337747,8.094320902276994,0.179630595759561
0.3040000000000002,-0.5624726423963734,-13.20500553806237,13.296664875595715,8.056900687431064,0.2107931945327154
0.3060000000000002,-0.5648976908418315,-13.06826723852813,13.15092841035462,8.00351615624811,0.21733659986196227
0.3080000000000002,-0.5685283449119612,-13.004493795848648,13.005504545350824,7.933297189227119,0.2080245752885213
0.3100000000000002,-0.5728161311793278,-12.933114165236681,12.86725453544074,7.864576442136081,0.19910203179503846
0.3120000000000002,-0.5777771858164985,-12.862264981716017,12.737495896235554,7.801062026944419,0.1905482353019702
0.3140000000000002,-0.5827592826218096,-12.785375724104957,12.608643364060484,7.737887011659367,0.18234363888532337
0.3160000000000002,-0.5876422480338168,-12.709814123129416,12.487205507726955,7.678715794920463,0.17446992063586114
0.3180000000000002,-0.5916944518332614,-12.627083694653004,12.363926674890592,7.617856492328173,0.16691069849412812
0.32000000000000023,-0.5949244149523695,-12.544448321814299,12.245387441233532,7.5591711510712125,0.15965172398326094
0.32200000000000023,-0.5969844988827137,-12.458843286085193,12.128086241548981,7.500436482148587,0.1526808133380112
0.32400000000000023,-0.5978907839047923,-12.37198938365937,12.013355639082116,7.442367633492248,0.1459873929017731
0.32600000000000023,-0.5976194540825803,-12.282779047928853,11.89984139597877,7.384048393320131,0.13956199926718058
0.32800000000000024,-0.5958119019351239,-12.18154029808611,11.777853855607262,7.319486176617014,0.13339561924385163
0.33000000000000024,-0.5934295473574535,-12.085441739930909,11.664228558930036,7.2581112948549205,0.12747970287477506
0.33200000000000024,-0.5902505240299931,-11.98681103266707,11.551553821319969,7.194143554466272,0.12180561390570357
0.33400000000000024,-0.5865394947985174,-11.888037658536037,11.442241217583089,7.129361621401225,0.1163646350154152
0.33600000000000024,-0.582434708028106,-11.789324469281462,11.336545753757088,7.06425134276921,0.11114787716046168
0.33800000000000024,-0.578002667273744,-11.689952525116361,11.233803687819698,6.998739445509371,0.10614635550964491
0.34000000000000025,-0.5734725440555811,-11.593052199580518,11.137016659804132,6.935059633195142,0.10135111639416372
0.34200000000000025,-0.5681425525261978,-11.483167767165469,11.0313535319649,6.8642709493479215,0.09675316902004927
0.34400000000000025,-0.5629073365305715,-11.37806687076422,10.934004121118837,6.797348191261859,0.09234381471725751
0.34600000000000025,-0.5574509873862926,-11.270673667764651,10.83803525779049,6.730348443064365,0.08811453376373288
0.34800000000000025,-0.5513145436452972,-11.151431938582919,10.734341967996297,6.657868023344325,0.08405692215564697
0.35000000000000026,-0.5455750099171238,-11.042392355904273,10.643958884246636,6.593190653768538,0.08016325892766066
0.35200000000000026,-0.5399289810255071,-10.937052808976661,10.560211837660678,6.532456798182112,0.07642619140628716
0.35400000000000026,-0.5344662501577458,-10.837192719810725,10.483808932835116,6.476700009999829,0.07283882223410953
0.35600000000000026,-0.5286522453692537,-10.732011400035766,10.398453147755639,6.4196322936134855,0.0693940316704498
0.35800000000000026,-0.5230368265507761,-10.633196001716017,10.31625775501888,6.365426477526217,0.06608598277909364
0.36000000000000026,-0.5171983025801655,-10.532285673672593,10.229742558627736,6.30931759854616,0.06290904478423305
0.36200000000000027,-0.5111641897998808,-10.428203016644964,10.140501308400314,6.252141008364683,0.059858048402055865
0.36400000000000027,-0.5052362766844877,-10.327958797345158,10.05553844648792,6.198067646782723,0.05692774892454887
0.36600000000000027,-0.49877425408699555,-10.219147841700678,9.96321604041355,6.1398674492738765,0.054112697292059066
0.36800000000000027,-0.4921492978476122,-10.1105373088909,9.872292997708607,6.082827290536428,0.051407755248894696
0.3700000000000003,-0.48447846457330757,-9.985176504186956,9.76681208926433,6.017102807451847,0.04880737704273193
0.3720000000000003,-0.47649323405226374,-9.859775200433688,9.663191415299838,5.952700239317737,0.04630650175971267
0.3740000000000003,-0.46802004362329325,-9.732265757807163,9.559533278073367,5.888413346886079,0.043900057192146895
0.3760000000000003,-0.46852324278547036,-9.709671857817675,9.452254709020881,5.821857045048371,0.04152474965065201
0.3780000000000003,-0.46864815891442696,-9.675124219169676,9.3508773960683,5.759513625856229,0.03927605336764712
0.3800000000000003,-0.46563396205299545,-9.631046846204367,9.25020190404926,5.697615332480714,0.03715686943083168
0.3820000000000003,-0.4605537873870301,-9.570705753646106,9.14651820477607,5.634137981154439,0.03514502739682578
0.3840000000000003,-0.4564827341520496,-9.495041066598683,9.03879513547494,5.568326662037172,0.03321708991749795
0.3860000000000003,-0.444009164603512,-9.406406074514518,8.932052497528552,5.501672605461365,0.031398884531095614
0.3880000000000003,-0.44047453681097404,-9.317470298481865,8.831647481157411,5.437649907514934,0.02961152875278148
0.3900000000000003,-0.44359321161074455,-9.227145163268023,8.736602249838393,5.3754960046020415,0.02789538531925691
0.3920000000000003,-0.4301998232001345,-9.126982714911993,8.643089907539018,5.3127828722909625,0.026303850877836706
0.3940000000000003,-0.44117021645211774,-9.011999590566264,8.544274402536187,5.245448924034491,0.024727503323693775
0.3960000000000003,-0.44615501336389995,-8.87971131166984,8.458140338209077,5.177442387878001,0.023276546770922876
0.3980000000000003,-0.4700884452400034,-8.739952851390141,8.3875013521809,5.1104026110107865,0.02191207982448009
0.4000000000000003,-0.4643076711906407,-8.6033692012004,8.32475661825609,5.047634905332705,0.020657845340562
0.4020000000000003,-0.45730506688706674,-8.454567814177214,8.239438147637916,4.976349900592976,0.01942790459025471
0.4040000000000003,-0.4501584227576852,-8.309030421826266,8.13551394707344,4.89933513951628,0.01822297570649099
0.4060000000000003,-0.4428445453987238,-8.160476497260461,8.021194650961485,4.833931887615802,0.01705260730560656
0.4080000000000003,-0.4352041680699018,-8.022722551166716,7.89012906088329,4.758823972730569,0.01591352728364082
0.4100000000000003,-0.4284444779266618,-7.9081413562818605,7.765113229163587,4.701952231652473,0.014813909945159966
0.4120000000000003,-0.4212140302221521,-7.785454566451702,7.634633175318906,4.637516354284755,0.013754312298582995
0.4140000000000003,-0.41362842376554754,-7.656581158362514,7.500096314400682,4.56735004567313,0.012731895969731432
0.4160000000000003,-0.4073462740972078,-7.555616955289479,7.39440578643057,4.512542152084871,0.011746499635697695
0.4180000000000003,-0.4010886029917582,-7.455725964716712,7.291093609970163,4.457479367230082,0.01079658916041521
0.4200000000000003,-0.39479659990758725,-7.355820599710754,7.188858908653493,4.401842618098397,0.009880851318807794
0.4220000000000003,-0.3883159264909048,-7.252986666463969,7.084665237730786,4.344144878511401,0.008998060420502592
0.4240000000000003,-0.38207332036784103,-7.156279662285235,6.987188624466557,4.28996872758301,0.00814768297840966
0.4260000000000003,-0.37557805984938697,-7.055783203081063,6.886596073725838,4.232850744005421,0.007328796463437243
0.4280000000000003,-0.3690631204464212,-6.956486494652356,6.7869603328161165,4.175909142140725,0.006540931369213272
0.4300000000000003,-0.36277818126249267,-6.863305128310178,6.693319694716717,4.122187189890893,0.005783914862430249
0.43200000000000033,-0.356380414788359,-6.7688885799304135,6.5986407007855465,4.067378860962719,0.005057232757427386
0.43400000000000033,-0.3497958724604887,-6.6714465145834305,6.501276220713689,4.010482753856545,0.004360327330473805
0.43600000000000033,-0.34327659963484447,-6.575680585917497,6.405910833813125,3.9543608083990263,0.0036927228720500154
0.43800000000000033,-0.33533975167229557,-6.450933286218943,6.2825950231238785,3.880743931172684,0.0030534875911280308
0.44000000000000034,-0.32872562515146014,-6.352829039500488,6.185768771554072,3.822892170839624,0.0024424187473942225
0.44200000000000034,-0.3222879584808512,-6.256698420886854,6.091380914892184,3.766092244698978,0.0018749126394581848
0.44400000000000034,-0.31598160136037323,-6.161031872707621,6.000043706732489,3.7132555376843275,0.0005023603180867688
0.44600000000000034,-0.3093950659920606,-6.057216582674366,5.900674619839934,3.6563011911431658,-0.0008795737969167181
0.44800000000000034,-0.30297135409784115,-5.954284378748593,5.801673582928845,3.5982976238113213,-0.002009747340659966
0.45000000000000034,-0.29655075829684197,-5.848805760382619,5.699829208011688,3.5384493638463943,-0.0015822592736630505
0.45200000000000035,-0.2904590859461211,-5.747683537568209,5.601656928790386,3.480103681145205,0.0029887230521966363
0.45400000000000035,-0.2841219149162881,-5.6389581725685725,5.495993786714699,3.4165965081437344,0.00800069646141158
0.45600000000000035,-0.27846437249159556,-5.542167919216052,5.401930501851644,3.359768701194028,0.013617397263483093
0.45800000000000035,-0.2725172727699588,-5.437319667090673,5.299990655084016,3.2977647544928628,0.019793540781764613
0.46000000000000035,-0.2667070263585303,-5.333313322281315,5.201012095658686,3.243350360984238,0.024541850130118857
0.46200000000000035,-0.26103654817144617,-5.230842049065736,5.102693606997501,3.1879315378079647,0.0292702111236413
0.46400000000000036,-0.2551523212328064,-5.122801972184677,4.997628975539698,3.124709548726632,0.03503544890525834
0.46600000000000036,-0.2494463661612104,-5.0175129268117775,4.894578946975208,3.058182210398627,0.039365356321962426
0.46800000000000036,-0.24362577211874045,-4.909094087042513,4.788520050308948,2.9887816200722264,0.04289767211148538
0.47000000000000036,-0.23798555816696298,-4.803772184663989,4.6854912909270094,2.9209330838110548,0.040673435520932354
0.47200000000000036,-0.2322687619887953,-4.696319275009551,4.580645000526456,2.8528694503966854,0.0385397106006992
0.47400000000000037,-0.2263536877810208,-4.584175627031891,4.47169389380347,2.783017549422803,0.036492902978132555
0.47600000000000037,-0.2208523490582512,-4.480326409966509,4.371150791004869,2.718907037536184,0.034529671870772834
0.47800000000000037,-0.21502279886419962,-4.369358034661904,4.263999482597903,2.6507481035720595,0.032646751353776204
0.48000000000000037,-0.20999624811423245,-4.279548710985189,4.155670711112566,2.6015513709103315,0.03322926705218259
0.4820000000000004,-0.20504385487351537,-4.185862542108502,4.042763850058114,2.548851265326193,0.03079830091356282
0.4840000000000004,-0.2009357009542569,-4.0926195140859125,3.933446996798377,2.4951808470556736,0.029969763992804307
0.4860000000000004,-0.19716886807032305,-4.001398859568993,3.8218783371937617,2.4452919040907504,0.0290491203168549
0.4880000000000004,-0.1930395720689116,-3.9031909147678983,3.7050492157310035,2.389584979543878,0.027727327884305184
0.4900000000000004,-0.1887445173624487,-3.803934359560702,3.5901262310793918,2.3313813927107403,0.026041806536460585
0.4920000000000004,-0.1834542667277651,-3.7153681757706787,3.505548837918784,2.2696726845691804,0.02364404164896834
0.4940000000000004,-0.1782211397099289,-3.622134849493552,3.415123220627752,2.20675655175652,0.02181421651905433
0.4960000000000004,-0.17244586183581512,-3.5267887018042385,3.322845490682163,2.143364132937929,0.01925880583066761
0.4980000000000004,-0.1665933074128438,-3.427784282781748,3.226107583667871,2.078808157492123,0.015576100504688665
0.5000000000000003,-0.1613362759851225,-3.331694048294241,3.13086846174373,2.016979112131719,0.011343808515280732
0.5020000000000003,-0.1562430077090798,-3.237496389023842,3.0359937330443674,1.9571296749523814,0.007937433979709236
0.5040000000000003,-0.15096526924032752,-3.1388888085584177,2.9494963127075975,1.8958625506982112,0.007151586679947611
0.5060000000000003,-0.1465929232425821,-3.039376626323713,2.862993939806157,1.83480918197786,0.007532259773135952
0.5080000000000003,-0.14055205987762454,-2.9261883716225014,2.7633172168111333,1.7662907232634781,0.006266339970209402
0.5100000000000003,-0.1364612591238568,-2.8147698191647894,2.665080319307858,1.6992605227771878,0.007072943320513217
0.5120000000000003,-0.13136379227992062,-2.7072739264957266,2.570493773704269,1.6360817070773865,0.00645527946671419
0.5140000000000003,-0.12694864396791805,-2.5985070866424755,2.4741263686529926,1.570825940068667,0.006560613678517113
0.5160000000000003,-0.12149952155798935,-2.4927962472752627,2.380970503963788,1.5052676670706115,0.005747256745307199
0.5180000000000003,-0.11574725954987501,-2.3792849206206266,2.2801935284238355,1.433366953095415,0.00497608518169251
0.5200000000000004,-0.11011392097720754,-2.269384579626929,2.182363384197716,1.3628050608563431,0.0037985132772619485
0.5220000000000004,-0.10402565802502806,-2.1458581537956896,2.069767898903833,1.285364253357061,0.0031409011781444117
0.5240000000000004,-0.09793253216164134,-2.0220748737656513,1.9545139070994775,1.2100864071549913,0.00258300036837023
0.5260000000000004,-0.09196667529982805,-1.899624232300829,1.841690000174954,1.1351322397904404,0.002006029211720753
0.5280000000000004,-0.08644811359560178,-1.7881326531003026,1.7370808918159153,1.0677248732298243,0.001530048359589807
0.5300000000000004,-0.08038786342511732,-1.6703860801235266,1.6224821059671002,0.9972087888066481,0.0011891314599165378
0.5320000000000004,-0.0745200760065346,-1.5562599658669043,1.5113988650037131,0.9288586900487329,0.0009258537341975826
0.5340000000000004,-0.06945253138269629,-1.4585083258095306,1.4162721053728062,0.8702960345751678,0.0007225300998046777
0.5360000000000004,-0.06410258987164663,-1.354435204350447,1.3149709247234862,0.8079612446206506,0.0005655014606762494
0.5380000000000004,-0.05903272375201562,-1.2558385949449902,1.2190024832751845,0.7489039199261309,0.00044422253780708644
0.5400000000000004,-0.053868418077527944,-1.1548670389796172,1.1207117695732975,0.6884335943954534,0.00035054943056734536
0.5420000000000004,-0.04884706180391956,-1.0565013976951998,1.0249574204212524,0.6295266287480046,0.0002781942916479209
0.5440000000000004,-0.04361005938763254,-0.953220244556837,0.9244059031300725,0.5676896128403668,0.00022133362850050423
0.5460000000000004,-0.03825973893881253,-0.8471676341868918,0.8211490991838017,0.504203870004795,0.00017609855530557924
0.5480000000000004,-0.033349637817060955,-0.7499665093392837,0.7265220573321193,0.4460137868258825,0.00014011199469782048
0.5500000000000004,-0.02842670821618446,-0.6521276272756313,0.6312716772699123,0.38744995490074347,0.00011148285051577174
0.5520000000000004,-0.022836352362458283,-0.5399169718804303,0.5220057443421751,0.32030706488763405,8.87065941653917e-05
0.5540000000000004,-0.017668669946652088,-0.4362175870003618,0.42103927494393795,0.25825667402789604,7.058651464505126e-05
0.5560000000000004,-0.012473806176464649,-0.33161741314031135,0.31919410501140116,0.1956753074061065,5.61705183349428e-05
0.5580000000000004,-0.007293682899949801,-0.2270185872866634,0.21735008503649922,0.1331017701373934,4.470119637714664e-05
0.5600000000000004,-0.0019880174369267534,-0.11353606509895782,0.10684361404572164,0.06522786803636055,3.554481694774285e-05
0.5620000000000004,0.002710152952259291,-0.006445072312063678,0.0028916836401695137,0.001744928014459161,2.8221135996459783e-05
0.5640000000000004,0.005923127150189545,0.005540765976647512,-0.01199041222979074,-0.007211674108898671,5.023416386140444e-05
0.5660000000000004,0.0008552951042412912,-0.09374931886573974,0.08498009549252628,0.05201653211121846,4.5277527277750643e-05
