Ceciluh/Robotics_Control_Lab_4.1/simulation_code/trajectory_p2.csv
time,shoulder_pan,shoulder_lift,elbow_flex,wrist_flex,wrist_roll
0.002,-0.07679996848290643,-1.6099994082609965,1.570031497962252,0.9620002685893447,2.7503512242735617e-10
0.004,-0.07678247197584971,-1.6095462349700178,1.5697309570906104,0.9617036695459592,3.416998734285429e-09
0.006,-0.07671564221618757,-1.608656132752375,1.5691161148992372,0.9609993438922124,1.2896934746861041e-08
0.008,-0.07659183417724323,-1.6073469970876864,1.5681976545588592,0.9599033566440465,2.8250678077431877e-08
0.01,-0.07641320754344784,-1.6056359897302581,1.5669858982726386,0.9584311454768346,4.7785377978086274e-08
0.012,-0.07617064095247846,-1.6035395698308852,1.5654908282668338,0.9565975613021197,7.153544090321735e-08
0.014,-0.07587984326975372,-1.6010735200457384,1.5637220808542995,0.9544168592988734,9.631543540866618e-08
0.016,-0.07553391759883553,-1.5982529774260796,1.5616889791100796,0.9519027608594388,1.2245486013404608e-07
0.018000000000000002,-0.07515869215885572,-1.5950924555260555,1.5594005170043774,0.9490684266040977,1.460354294489785e-07
0.020000000000000004,-0.07476892450787913,-1.5916058731409608,1.556865390143846,0.9459265144512222,1.653821926943167e-07
0.022000000000000006,-0.07439161623145822,-1.587806576551093,1.5540919941836102,0.9424891786574985,1.776599135098892e-07
0.024000000000000007,-0.07404804213577619,-1.58370736454369,1.5510884426664497,0.9387681038606009,1.8143415124445172e-07
0.02600000000000001,-0.07374817155587003,-1.5793205116883033,1.5478625783634672,0.9347745270166105,1.7711541627073368e-07
0.02800000000000001,-0.07349297913315635,-1.5746577899242336,1.5444219805280919,0.9305192518493688,1.662841105995406e-07
0.030000000000000013,-0.07328164173784761,-1.56973048848711,1.5407739696890959,0.9260126589072524,1.505145638886651e-07
0.032000000000000015,-0.07310668731038263,-1.5645494345060482,1.5369256181139448,0.9212647254585495,1.3197399879590054e-07
0.034000000000000016,-0.07296126908123456,-1.5591337038896371,1.5328634519408566,0.9166759036618469,1.1215687091915616e-07
0.03600000000000002,-0.07283617195995518,-1.5534993279343217,1.528579670241853,0.9125414432031147,9.261820709296075e-08
0.03800000000000002,-0.07271264657509083,-1.547656282205828,1.5240794283587358,0.908910152515042,7.59264642958033e-08
0.04000000000000002,-0.07258274161402176,-1.5416144911015923,1.5193668402037346,0.9058467655402646,6.270605377088912e-08
0.04200000000000002,-0.07244164384701153,-1.5353816845598194,1.5144501392413938,0.9033342588215216,5.304887450611736e-08
0.044000000000000025,-0.072283056639436,-1.5289626052636194,1.5093437139874677,0.9012333178095595,4.72327065175737e-08
0.04600000000000003,-0.07210353233377914,-1.5223610842618231,1.5040632390722086,0.8993716759312129,4.508323447795214e-08
0.04800000000000003,-0.07190383292134843,-1.5155811886051789,1.4986229446401644,0.8975950578664005,4.5867561893490474e-08
0.05000000000000003,-0.07167784185633175,-1.5086246636601732,1.4930419180520318,0.8956483635698943,4.98952982140579e-08
0.05200000000000003,-0.07143598554285442,-1.5014983239512314,1.4873259590694383,0.8935167761177972,5.513223061418546e-08
0.054000000000000034,-0.07118977698969599,-1.4942096715778104,1.481478262924364,0.8912308502732138,5.977554386992137e-08
0.056000000000000036,-0.07094867234451677,-1.4870974658801757,1.4755232567755947,0.8888412201151822,6.273294142272596e-08
0.05800000000000004,-0.07071108718072885,-1.480374222645995,1.4694824643344855,0.8862850514213853,6.458831820369219e-08
0.06000000000000004,-0.07047895031074355,-1.474238106559515,1.4633713394109678,0.8835842265275304,6.531922306438937e-08
0.06200000000000004,-0.07025597985790037,-1.4687568297645683,1.4571933942321673,0.8808103989818967,6.463076554666313e-08
0.06400000000000004,-0.0700397811931835,-1.4639050638815725,1.4509492414245817,0.8779703623760352,6.310523249100205e-08
0.06600000000000004,-0.06983262265174592,-1.4596599715141072,1.4446355361157397,0.8751456240271179,6.058285386125154e-08
0.06800000000000005,-0.06963487985431516,-1.455998037597953,1.438250263332561,0.8723935500182222,5.720734323049429e-08
0.07000000000000005,-0.06942782956124871,-1.4523651197166745,1.4317697133476062,0.8694945593604925,5.5583735958758586e-08
0.07200000000000005,-0.06921515313898723,-1.4487053746817335,1.425188012401336,0.8665441526305371,5.484147385854938e-08
0.07400000000000005,-0.06899451483037254,-1.4448468281916835,1.4184966056750519,0.8635400746023523,5.5072612481254165e-08
0.07600000000000005,-0.06877170912696122,-1.4408264241845627,1.4116960865427262,0.8605829681173418,5.5287102290709334e-08
0.07800000000000006,-0.068550152670786,-1.4366613125351109,1.4047882904820275,0.8577248155206892,5.502138785143022e-08
0.08000000000000006,-0.06833158413474173,-1.4323772373136483,1.397911439949376,0.8549739452817097,5.397417569485163e-08
0.08200000000000006,-0.06811560592301052,-1.427989980124975,1.3913311968579158,0.8522955117571825,5.2041115461789475e-08
0.08400000000000006,-0.06790327399120881,-1.4235578652243455,1.3852646801395703,0.8496797747009252,4.902553756121094e-08
0.08600000000000006,-0.06769776453557097,-1.4191830442634719,1.3798120748038034,0.8471569773930903,4.465714342566651e-08
0.08800000000000006,-0.0674982190805859,-1.4148714897517898,1.374954586018419,0.8447084484961774,3.941445358204267e-08
0.09000000000000007,-0.06730164201723253,-1.4105849137617807,1.3706724222537578,0.8422871629326809,3.397089016056871e-08
0.09200000000000007,-0.06711045350644618,-1.406404231384972,1.3669506745149054,0.8399261088667413,2.8152831554058256e-08
0.09400000000000007,-0.06692489386269274,-1.4023568143604532,1.363772785231366,0.8376276759511444,2.2109925129919363e-08
0.09600000000000007,-0.0667448156001541,-1.3984434057184747,1.361000099092118,0.8353969313448156,1.6169332767257714e-08
0.09800000000000007,-0.06657003858409914,-1.3946588758328213,1.3584755610515244,0.8332380408643724,1.061853062553439e-08
0.10000000000000007,-0.06639431200980508,-1.3908522958063432,1.3559361338291445,0.8310728120237243,6.613609810029495e-09
0.10200000000000008,-0.06620909885550176,-1.3868301102862166,1.353156183268329,0.8287875441451733,5.312409310790471e-09
0.10400000000000008,-0.06601666867486089,-1.3826641054612347,1.3501472931757799,0.8264100599087957,5.884452974722444e-09
0.10600000000000008,-0.06581614134248576,-1.3783503635657215,1.3469175745960487,0.8239237368633224,8.056979859961695e-09
0.10800000000000008,-0.06560670165091613,-1.3738805099321187,1.3434743667681739,0.8213149391862659,1.158158736864844e-08
0.11000000000000008,-0.06537654089681667,-1.3691367118772542,1.3398250029888483,0.8184200365588767,1.772356970206462e-08
0.11200000000000009,-0.06512118198715278,-1.3641296164807062,1.3359779059144745,0.8152216975191939,2.6464746142348828e-08
0.11400000000000009,-0.064853255281462,-1.3588722710233456,1.3319329656725791,0.8118516791102783,3.545944481661807e-08
0.11600000000000009,-0.06457888826659411,-1.3533763962678953,1.3276924325323893,0.8083978037416787,4.3700330351040364e-08
0.11800000000000009,-0.06431037748911551,-1.3478510299795645,1.3232685448045496,0.8050357217943639,4.958441173296632e-08
0.12000000000000009,-0.06405838592207225,-1.3425514818432938,1.3186784889403036,0.8019134361465661,5.209056019545898e-08
0.1220000000000001,-0.06382911498182901,-1.337642944987482,1.3139362611784693,0.7991083517148545,5.103852762964307e-08
0.1240000000000001,-0.06361956051254058,-1.3330903370134328,1.3090477895081476,0.7965625118773668,4.7557558430349005e-08
0.12600000000000008,-0.06341932108830287,-1.328696324398733,1.3040120049931825,0.794115160554558,4.3570263633487054e-08
0.12800000000000009,-0.06322761856382286,-1.3244768481439777,1.2988359508366811,0.7917520456190112,3.9333988645817885e-08
0.1300000000000001,-0.06303682022817231,-1.3202899665288512,1.2935194583012808,0.7893647283858846,3.5970808423769865e-08
0.1320000000000001,-0.0628477256064354,-1.3161748541587468,1.2880691712187824,0.7869726996784371,3.3235667455952426e-08
0.1340000000000001,-0.06266009367681272,-1.3121408880859953,1.2825152255406358,0.7845801430907728,3.10271151344699e-08
0.1360000000000001,-0.06246375552682209,-1.307967525646816,1.2768706870260063,0.782049937739412,3.0593046697309864e-08
0.1380000000000001,-0.0622522332795075,-1.3035236472089629,1.2711709470875705,0.7793025940889843,3.238856236857158e-08
0.1400000000000001,-0.062030361436172694,-1.2989176170274703,1.2656139393549033,0.77641378903791,3.5022572599050074e-08
0.1420000000000001,-0.06180136336327914,-1.294214700957527,1.2603084565579727,0.7734397710526016,3.770728068408023e-08
0.1440000000000001,-0.06156373241454239,-1.2893548548407243,1.255216888209859,0.7703732082532609,4.063815975211124e-08
0.1460000000000001,-0.06132475729717112,-1.2844883984189321,1.2504355265201539,0.7673210822930023,4.2624567835778576e-08
0.1480000000000001,-0.061088253268206424,-1.2796769446483505,1.245964325728493,0.7643385584360638,4.332033756329929e-08
0.1500000000000001,-0.06085543550581633,-1.2749213192943352,1.241737846725265,0.7614406432388428,4.2903442633817005e-08
0.1520000000000001,-0.06063024497451154,-1.2702956478327456,1.2377442128175125,0.7586737989578295,4.109966147876744e-08
0.1540000000000001,-0.06041438082939482,-1.265826393946024,1.2339362090632822,0.7560504160418091,3.805611425920194e-08
0.1560000000000001,-0.06020459200729108,-1.2614289767384443,1.230183912384239,0.7535148995851451,3.468067007204214e-08
0.1580000000000001,-0.06000153161578126,-1.2571255207010479,1.2264557802957112,0.7510643055410277,3.1051040172083204e-08
0.16000000000000011,-0.0597979661822974,-1.252754010438581,1.2225830761589414,0.7485921582112254,2.8472015177147954e-08
0.16200000000000012,-0.05957508796276898,-1.248105160790287,1.2185174071190377,0.7458294241281755,2.940853552297707e-08
0.16400000000000012,-0.059313996596853186,-1.2431896606370745,1.2142668572925324,0.7427579328809872,3.5647121342575895e-08
0.16600000000000012,-0.0590151462113461,-1.238018308626902,1.2098374797556266,0.7393898310577528,4.5972850601469674e-08
0.16800000000000012,-0.05865435755709436,-1.2326014900979858,1.2052351323142214,0.7357368024406793,6.262912285962718e-08
0.17000000000000012,-0.05825450977540209,-1.2269491135028563,1.200465451589956,0.7318100344975887,8.109062677813025e-08
0.17200000000000013,-0.057820847935192016,-1.2210707014801383,1.1955338903349708,0.7276202848923946,1.000606333122235e-07
0.17400000000000013,-0.05738589178679612,-1.2149753551380975,1.1904457031218856,0.7231778662078268,1.1487367159433888e-07
0.17600000000000013,-0.05697953333086468,-1.2086718049039367,1.1852059671606066,0.7184926854323731,1.2220189735318851e-07
0.17800000000000013,-0.05660241230781939,-1.202168456490238,1.1798196005786084,0.7135742784518375,1.233734336096566e-07
0.18000000000000013,-0.056268211650638826,-1.1954767089945981,1.1742811822548112,0.7086080320270677,1.1770617633620011e-07
0.18200000000000013,-0.05596195195443543,-1.188604659381721,1.168594391624898,0.7036233067231351,1.0863756390451558e-07
0.18400000000000014,-0.055684729144356085,-1.1815643398516182,1.1627498579853848,0.6988719785502728,9.670682562561376e-08
0.18600000000000014,-0.05541203345338778,-1.174359974711164,1.1567610116171738,0.6942160644191037,8.598741208372243e-08
0.18800000000000014,-0.05514260517748489,-1.167000871257288,1.1506247177528812,0.6897955556262789,7.648014017783107e-08
0.19000000000000014,-0.05488049421234304,-1.159496273844184,1.1443371326815526,0.6857630688568658,6.745153733529629e-08
0.19200000000000014,-0.0546168360855,-1.15185045807834,1.1379085461025535,0.682029791861244,6.015617973990395e-08
0.19400000000000014,-0.05434920443327058,-1.144068268115032,1.1313465121692838,0.6785482737577263,5.469254794256448e-08
0.19600000000000015,-0.05408102237990706,-1.1361551830715415,1.124655731882198,0.6753156379617953,5.0307099114106346e-08
0.19800000000000015,-0.05381419556664888,-1.1282956537605495,1.1178600258570026,0.6722910735851513,4.6640376459136406e-08
0.20000000000000015,-0.05354312215793452,-1.1206408854455403,1.1109867988270683,0.6693172452066851,4.445341000355522e-08
0.20200000000000015,-0.05326324049944701,-1.1132717788901498,1.1040551992636898,0.6662540582947436,4.4169070267935036e-08
0.20400000000000015,-0.052970899261631864,-1.106193843804355,1.0970751733661828,0.6629867555957616,4.5948354693317785e-08
0.20600000000000016,-0.05266752919127358,-1.0994398342150247,1.0900533769178937,0.6594942973778721,4.916224700279118e-08
0.20800000000000016,-0.05235833801316009,-1.0930572659971638,1.0829933261927234,0.6558294593164449,5.2739328027395426e-08
0.21000000000000016,-0.05205647997888428,-1.087222322193717,1.0759032041887462,0.6521777624235655,5.4693322414437977e-08
0.21200000000000016,-0.051770761585278435,-1.081987019257371,1.0687825338007144,0.6486655162343138,5.404788621169787e-08
0.21400000000000016,-0.05148377630794203,-1.0768167456996118,1.0615955013400307,0.6450327998917555,5.370234974313653e-08
0.21600000000000016,-0.051196777122394274,-1.0716159715864013,1.0543322204685976,0.6413214833752103,5.338348775078098e-08
0.21800000000000017,-0.050896473798483964,-1.0661792356753639,1.0469841248215388,0.6373693677510189,5.493801491790815e-08
0.22000000000000017,-0.05059107604549412,-1.0605187691802251,1.0395452854056642,0.6333334480918328,5.677589587339578e-08
0.22200000000000017,-0.05028681278517659,-1.0546456924200711,1.032012054496975,0.6293337501353674,5.7913796020664156e-08
0.22400000000000017,-0.04999042696641317,-1.0486301807784155,1.0243871682975445,0.6254880617541172,5.75203507908169e-08
0.22600000000000017,-0.04970625829045227,-1.0426389424355158,1.0169279400346958,0.6218530012361897,5.4957157405676214e-08
0.22800000000000017,-0.049420897259426264,-1.0364689753081902,1.0095619638799889,0.6182326730158653,5.2678769509338216e-08
0.23000000000000018,-0.049137269297235824,-1.0302156095305195,1.0024986420690543,0.6146573872790259,4.996127576845173e-08
0.23200000000000018,-0.04883806753745716,-1.0237851652043308,0.9955034304815067,0.6108934746742506,4.97719559804078e-08
0.23400000000000018,-0.048530172708780794,-1.0172046150071485,0.9887275600897751,0.6070282451711411,5.039426913144806e-08
0.23600000000000018,-0.048222056244409575,-1.0105646712652938,0.9823150564492766,0.603174423948798,5.0252077073127644e-08
0.23800000000000018,-0.0479172695359904,-1.0039798081196365,0.9762911782829076,0.5993824393659813,4.900246842602967e-08
0.24000000000000019,-0.04762641387698246,-0.9977293232137806,0.9708056952442236,0.5957986214108172,4.522780057021579e-08
0.2420000000000002,-0.04734785814520092,-0.9917705605001306,0.965729794630958,0.5923923567753033,3.990583971180358e-08
0.2440000000000002,-0.04706373268845428,-0.9856550978566648,0.9605848815324312,0.5889052330241786,3.659021134904752e-08
0.2460000000000002,-0.04677783381424354,-0.9794934906658501,0.9553747681392987,0.5853893978283037,3.4413444505315485e-08
0.2480000000000002,-0.04647974514238044,-0.9731250686644786,0.9500097596712627,0.5816873507376444,3.478268766446642e-08
0.25000000000000017,-0.04617306478569279,-0.966574462810027,0.9444939073851203,0.5778537294592077,3.666249614777684e-08
0.25200000000000017,-0.045863900634633054,-0.9599926784653322,0.93884302042529,0.5739864193208356,3.886895976314344e-08
0.25400000000000017,-0.04556412354017672,-0.9536515458742799,0.9330815213701389,0.5702676928113434,3.963277685617622e-08
0.25600000000000017,-0.04527870463247198,-0.9476723633994695,0.9273180314200293,0.5667562590249727,3.83744980868106e-08
0.2580000000000002,-0.04496671356914202,-0.9414793300997194,0.9214223675215486,0.5629632853170008,4.144753801023823e-08
0.2600000000000002,-0.0446106595487082,-0.9350808869736958,0.9153987378714986,0.5588998631226478,5.03966340390538e-08
0.2620000000000002,-0.04422559948733962,-0.9284850751093233,0.9092511915433847,0.5545766218714406,6.181336066173926e-08
0.2640000000000002,-0.0438356612512438,-0.9216995927206341,0.9029836357459013,0.5500037623286322,7.166187073186034e-08
0.2660000000000002,-0.04344901336637162,-0.9147322691476493,0.8965987564585107,0.545209251241991,7.897096824226065e-08
0.2680000000000002,-0.043081548135723076,-0.9075964713570132,0.8900838206336824,0.5404741532557328,8.178999943497281e-08
0.2700000000000002,-0.04270638327993714,-0.9002920283590654,0.8834611451357872,0.5355053605909663,8.492195008260506e-08
0.2720000000000002,-0.04232757800075618,-0.8928273697238848,0.8767292663240257,0.5303914468768323,8.765434481858604e-08
0.2740000000000002,-0.0419543221273591,-0.8852134006479612,0.8698797113379566,0.5253366100286776,8.864249419024761e-08
0.2760000000000002,-0.04160121743978014,-0.8774622385154494,0.862900527770444,0.5206055737973854,8.603570720789607e-08
0.2780000000000002,-0.04127818699151983,-0.8696434219345377,0.8557931846801022,0.5163715401630047,7.912223149119368e-08
0.2800000000000002,-0.040977961651686746,-0.8618625204332531,0.8485813768431166,0.5125339230690853,6.996889581165918e-08
0.2820000000000002,-0.04069158451021708,-0.8541869912925489,0.8412860998272194,0.50895259205717,6.049970879622385e-08
0.2840000000000002,-0.0404018399567749,-0.8464701360841408,0.8339090367386577,0.5053499878426279,5.342894426285188e-08
0.2860000000000002,-0.04010719018087389,-0.8388672007531534,0.8264743839177674,0.5017036635418118,4.8651664347918436e-08
0.2880000000000002,-0.03981310998942616,-0.8316257183028117,0.8190114771204707,0.49809742491048886,4.502505342303023e-08
0.2900000000000002,-0.03952417102371684,-0.8249046383836457,0.8115394987571893,0.4945900027025036,4.171687692549885e-08
0.2920000000000002,-0.03924665052243319,-0.8187959764970242,0.8042049212163185,0.49124662526309787,3.7549502143694304e-08
0.2940000000000002,-0.03896310782325085,-0.8129130449476271,0.7968346774272087,0.4877788976624983,3.546023580903256e-08
0.2960000000000002,-0.03866314329128653,-0.8069468167718674,0.7893989364239162,0.48402702026783884,3.649762577941468e-08
0.2980000000000002,-0.03834718494504925,-0.8008195256953919,0.781908437778457,0.47999821233356754,3.988282251615357e-08
0.3000000000000002,-0.03802679641191785,-0.7947408089223024,0.7746727395804468,0.4758758058526508,4.293900613420388e-08
0.3020000000000002,-0.037706451871373683,-0.7887232609457638,0.7677873044418982,0.47174181509970864,4.484762043507648e-08
0.3040000000000002,-0.037393020599764674,-0.7828439746240727,0.7613655270822228,0.4677127512191,4.4618045646936806e-08
0.3060000000000002,-0.03707049505261264,-0.7767782379848364,0.7549967753701221,0.463571758047628,4.560926329583425e-08
0.3080000000000002,-0.03674135425083465,-0.7705312562466712,0.7486589704434903,0.45936964579292117,4.722467218628287e-08
0.3100000000000002,-0.0364124138459538,-0.7641214416944306,0.7424089103142576,0.45520890533865416,4.819627562890521e-08
0.3120000000000002,-0.036083875664321495,-0.7575454533611409,0.7361831365587633,0.45109358707621594,4.8728206026931516e-08
0.3140000000000002,-0.035762510279130896,-0.7508232869975396,0.7300557269318615,0.4471102276575629,4.776634316147978e-08
0.3160000000000002,-0.03545499791282513,-0.7441601232459147,0.7241503543046683,0.443348414867841,4.4546543916816e-08
0.3180000000000002,-0.035142290121515166,-0.7373105858992289,0.7181017078142929,0.43951380174589666,4.2968733102930746e-08
0.32000000000000023,-0.03481611881487824,-0.730278029685788,0.7119231152423507,0.4354728334116882,4.400043225467262e-08
0.32200000000000023,-0.03447715786920825,-0.7230695998702884,0.7056185965973342,0.4312370885908309,4.700477137432092e-08
0.32400000000000023,-0.03413723517185596,-0.7156970100194577,0.6991815390785109,0.42698952087471936,4.972673121525895e-08
0.32600000000000023,-0.033798884005887216,-0.7082268304349271,0.6926231031035387,0.4227702857123607,5.182973959295191e-08
0.32800000000000024,-0.033470026691290414,-0.7009050439704878,0.6859755662877879,0.4187097129982837,5.2301110653470085e-08
0.33000000000000024,-0.033123131880470266,-0.6934171636772172,0.6792218774747731,0.4143871692725697,5.556061616101485e-08
0.33200000000000024,-0.03276244492373241,-0.6857703058392258,0.6723636715400555,0.40983947551055755,6.036561515281016e-08
0.33400000000000024,-0.03239392974461517,-0.6779733486839923,0.6653983400439432,0.40517153999159083,6.541491815965901e-08
0.33600000000000024,-0.03202883108572847,-0.6702219700984835,0.6583465383478821,0.4005776159148846,6.893607047690184e-08
0.33800000000000024,-0.031674792056948134,-0.662703421732089,0.6512323149216248,0.3961822414275798,7.008419772077626e-08
0.34000000000000025,-0.03133312038171032,-0.6554576362702482,0.6440643484766894,0.39199034507899894,6.912431957008417e-08
0.34200000000000025,-0.03098770690741562,-0.6481303600543122,0.6368080723771171,0.38771065508926345,6.882082612416327e-08
0.34400000000000025,-0.03065007493301321,-0.6409900018678807,0.6294960710848966,0.38353983793095153,6.737528357622176e-08
0.34600000000000025,-0.030323541852832498,-0.6341133014961798,0.6221399978367295,0.3795243153903811,6.454302868234161e-08
0.34800000000000025,-0.030012208353260576,-0.6276243817447021,0.614958008029135,0.3757071914183198,5.970882405178444e-08
0.35000000000000026,-0.029721499383655002,-0.6216675981894823,0.6081987770351269,0.3721524023933645,5.216097299213676e-08
0.35200000000000026,-0.029433388488400228,-0.6157529353517027,0.601508396204269,0.3685611823303657,4.5604061631483165e-08
0.35400000000000026,-0.02913627602734162,-0.609624179586371,0.594702189780826,0.3647621596732123,4.1866182397416494e-08
0.35600000000000026,-0.028830570566825912,-0.6033006985263276,0.587846809470264,0.3607883024568153,4.025235515263456e-08
0.35800000000000026,-0.028521733217092036,-0.5968794278877878,0.5811062634714805,0.3567517862788864,3.92711381319727e-08
0.36000000000000026,-0.028215894862495837,-0.5905247901066423,0.5746443787407862,0.3527750356533566,3.7682053335256726e-08
0.36200000000000027,-0.02790894653782123,-0.5841194719633993,0.5683403190988288,0.34880893985604156,3.638719151827352e-08
0.36400000000000027,-0.02759764594397184,-0.5775749376544401,0.5620825395530523,0.34481511990746294,3.5979405001599953e-08
0.36600000000000027,-0.02726298285734217,-0.570833020694774,0.5556994938196538,0.3405557938484669,3.958443841528593e-08
0.36800000000000027,-0.02688501268593898,-0.5639012105144552,0.5491952709152039,0.33604142374954854,4.940717030542334e-08
0.3700000000000003,-0.026489727973472182,-0.5567865982056054,0.5425737930031206,0.33128203299256775,6.00866439912675e-08
0.3720000000000003,-0.026090233444078997,-0.5494998541064495,0.5358320037673879,0.32639990810737574,6.925095030801501e-08
0.3740000000000003,-0.025697133270678782,-0.5420528765422226,0.5289642986986165,0.3215601986548177,7.53887950803898e-08
0.3760000000000003,-0.025321596098109946,-0.5344575987765869,0.5219647398216279,0.31693579336538624,7.723987777880156e-08
0.3780000000000003,-0.0249615174357226,-0.5267182739899086,0.5148405900197858,0.3124847291241916,7.599202712975039e-08
0.3800000000000003,-0.024621368274512657,-0.5189034204645657,0.5076027867588088,0.30827974158981303,7.161080069464422e-08
0.3820000000000003,-0.02429689896685083,-0.5110859483638147,0.5002723847181805,0.304253692969868,6.552283030294794e-08
0.3840000000000003,-0.02399606962265951,-0.5036663926122068,0.4931590866858192,0.3005440638926069,5.6715364138938284e-08
0.3860000000000003,-0.023725770040069333,-0.496910783447816,0.48661353623408715,0.29724628354718874,4.436767453066447e-08
0.3880000000000003,-0.023481256168992895,-0.49079729519686177,0.4806625663949375,0.29426634975538624,3.005185649414073e-08
0.3900000000000003,-0.023255363437277365,-0.4852893081622411,0.4752508548894792,0.29148486740230806,1.558020618679473e-08
0.3920000000000003,-0.023045519174989062,-0.4803657583724199,0.4703825459090982,0.2888621487874147,1.5504645835921494e-09
0.3940000000000003,-0.02283601317361996,-0.475713055176932,0.4657000745470515,0.2861582851749649,-9.071500628278148e-09
0.3960000000000003,-0.022617682554003458,-0.4710679426482537,0.4609709419146946,0.28325115586889393,-1.5223938764523674e-08
0.3980000000000003,-0.022361257436538103,-0.46615119746291533,0.4560565493784652,0.2800353285606038,-1.3144021261386696e-08
0.4000000000000003,-0.02207465555147941,-0.4609729923460208,0.4509633692425965,0.2765229752629596,-5.775885803003478e-09
0.4020000000000003,-0.021763445372597907,-0.4555431159278936,0.4456976277804011,0.272725780512096,4.832614957652934e-09
0.4040000000000003,-0.02143840502161341,-0.44987096988242564,0.44026531222966353,0.26865495846026,1.6180897674530027e-08
0.4060000000000003,-0.02109467098741031,-0.44396562947399826,0.43467219182205163,0.2643212806844472,2.873804194755789e-08
0.4080000000000003,-0.020729547975074165,-0.43783581491915324,0.428923817858932,0.25973508697489595,4.252154053537897e-08
0.4100000000000003,-0.02035364985058496,-0.4314898798070762,0.4230255274629664,0.2549062987610957,5.5419242098129554e-08
0.4120000000000003,-0.01996817100325025,-0.4249368208224765,0.41698099100981945,0.24986897014270737,6.724082039218485e-08
0.4140000000000003,-0.019589498922604257,-0.41819614566533,0.41077692790404285,0.24493659986323152,7.531846884958739e-08
0.4160000000000003,-0.019211099753235022,-0.41127154147909084,0.40442437888572186,0.24002360913481854,8.138909207652917e-08
0.4180000000000003,-0.018836016524536744,-0.4041724827170809,0.39792472434147635,0.23519900844571187,8.527442421782513e-08
0.4200000000000003,-0.018468941552072658,-0.396908737186209,0.39127841258700186,0.2305459779409164,8.659151805240503e-08
0.4220000000000003,-0.01811424072991703,-0.3894890243579142,0.384487028704321,0.2261278705010168,8.512712707442033e-08
0.4240000000000003,-0.01777685955667003,-0.381921705880856,0.3775522296274907,0.22200545315820042,8.065218299747907e-08
0.4260000000000003,-0.017459386783157244,-0.37421293885450396,0.37047849006347605,0.2181909438858222,7.341620636607755e-08
0.4280000000000003,-0.017146074380069654,-0.36635624435689934,0.3632883800628985,0.2143904348589626,6.672802498040671e-08
0.4300000000000003,-0.01682874319865655,-0.35835110769640355,0.35599475758125443,0.21046033761597308,6.194610249663023e-08
0.43200000000000033,-0.016507607040215564,-0.35020332205544324,0.3486006176781556,0.20641532126965756,5.871169104763908e-08
0.43400000000000033,-0.016188146655997056,-0.34192235620904327,0.3411032399025113,0.2023641238769411,5.5824431024171745e-08
0.43600000000000033,-0.015878467909510162,-0.3336966669845633,0.3335337675805817,0.19847094050272107,5.2054596963739525e-08
0.43800000000000033,-0.015574612995752208,-0.32564630676138784,0.3259241146022928,0.19467551677507444,4.8416816247771626e-08
0.44000000000000034,-0.015274860514228536,-0.31789987774700323,0.3183050473662768,0.19095480015093572,4.534503200543287e-08
0.44200000000000034,-0.014968528600835385,-0.3103267484664175,0.31066368037642633,0.18710896031344615,4.444207017619051e-08
0.44400000000000034,-0.014658023651006189,-0.30304802516144574,0.3030231020381362,0.18320022806033506,4.497698672241705e-08
0.44600000000000034,-0.01434580442744455,-0.296133128357852,0.2953956630462646,0.17928190160032617,4.627948616822824e-08
0.44800000000000034,-0.01403140838915717,-0.28953889511867287,0.287773649817755,0.17534132972746463,4.8185327329128356e-08
0.45000000000000034,-0.013725586482821303,-0.283501576407519,0.2805103460176495,0.17155602552478533,4.835255902317213e-08
0.45200000000000035,-0.013420789339027326,-0.2777330761579578,0.2734517382664114,0.16776468493097776,4.828938424151253e-08
0.45400000000000035,-0.013116746458579276,-0.2721285553982418,0.2666213868088237,0.16395020324595003,4.7876519917882834e-08
0.45600000000000035,-0.012808775635589251,-0.26645542688716856,0.25988724802896235,0.16002640971361254,4.7886711975874594e-08
0.45800000000000035,-0.01249168068214514,-0.2605763253050572,0.25311653412537455,0.1559223525578214,4.9166164167168375e-08
0.46000000000000035,-0.012172512144069302,-0.2545377542791577,0.2464706267356558,0.1517801613580445,4.99684472552199e-08
0.46200000000000035,-0.01185409503298562,-0.2483576663292153,0.2399947541789598,0.1476672172455289,4.983137684457697e-08
0.46400000000000036,-0.011545158354829313,-0.24224914935259284,0.23389851389394162,0.1437508996927496,4.737872666715529e-08
0.46600000000000036,-0.011231117936687473,-0.23595170066113763,0.22774755245648795,0.13977857738295463,4.60799907257111e-08
0.46800000000000036,-0.010912415748614427,-0.2294657241052071,0.22151235048587792,0.135762844420302,4.570459978951259e-08
0.47000000000000036,-0.010581474266093623,-0.22277739079879333,0.21513319655398547,0.13157627804989683,4.750412261143352e-08
0.47200000000000036,-0.01024514377755513,-0.21589956484332246,0.20860833686680882,0.12734600165592683,4.9830597205448806e-08
0.47400000000000037,-0.00990916229783638,-0.2088526409516708,0.20198400316796022,0.1231652650325774,5.149017471879591e-08
0.47600000000000037,-0.009583231886478452,-0.20179871815124956,0.19550574542233376,0.11918562528533429,5.071183445191281e-08
0.47800000000000037,-0.009267389933012425,-0.19479708249740257,0.18918453892889336,0.11538442062427406,4.809986296328118e-08
0.48000000000000037,-0.008961214284648352,-0.1879007635077097,0.18302365944325097,0.11172936059145895,4.424142882953653e-08
0.4820000000000004,-0.008659830054285928,-0.1810345990819923,0.17689655184132708,0.10810914845408917,4.043013829490654e-08
0.4840000000000004,-0.008358102421431732,-0.17412079308735615,0.170679790433332,0.10442100153675546,3.772409556729044e-08
0.4860000000000004,-0.008053076374065502,-0.16715059141026858,0.16434707112816743,0.10061635908588057,3.6492313135075633e-08
0.4880000000000004,-0.007753824716723277,-0.16044246917580704,0.15818161321989016,0.09688275673030038,3.484253825701407e-08
0.4900000000000004,-0.0074454007406289996,-0.15361643819914544,0.15189072976294304,0.09293596503579686,3.542910042562976e-08
0.4920000000000004,-0.007128863707135633,-0.14672253571772856,0.14548634425192017,0.08883149401225707,3.764675332216482e-08
0.4940000000000004,-0.006790645293682887,-0.13963359508527134,0.13894847369433566,0.08446099072480741,4.330421063447358e-08
0.4960000000000004,-0.006446040611447729,-0.13248298449063958,0.1323006241608952,0.08000851151140373,4.912876405855107e-08
0.4980000000000004,-0.0061082353819918445,-0.1255746813467511,0.12565710058206672,0.07575330041627909,5.295183210349092e-08
0.5000000000000003,-0.005776314092595147,-0.11884586223965682,0.1189791503280793,0.07165422511068699,5.5248843049847724e-08
0.5020000000000003,-0.00545253981647722,-0.11233251037360796,0.11234635813046491,0.06772419557762402,5.5807803274115994e-08
0.5040000000000003,-0.005137448890374167,-0.10601930919607035,0.10579314360608968,0.06393765623237896,5.478991513522023e-08
0.5060000000000003,-0.004827513089557663,-0.09977618041506085,0.0992365598074383,0.06019455647103769,5.308898783651314e-08
0.5080000000000003,-0.004514540938170209,-0.09337116856419991,0.09255039991038463,0.05631647807774857,5.215748422386885e-08
0.5100000000000003,-0.004181767892110761,-0.08675659252961648,0.08573613743678898,0.052161141151727965,5.471842717114548e-08
0.5120000000000003,-0.003826730026528386,-0.07993999397363338,0.0787983808462563,0.04773963543170254,6.045434849363427e-08
0.5140000000000003,-0.0034650204064920307,-0.07293169044528985,0.07173812357623563,0.043123841503139415,6.593851471550921e-08
0.5160000000000003,-0.003095142474355311,-0.06573851313331158,0.06455986207016934,0.038321815988688085,7.14087393931291e-08
0.5180000000000003,-0.002721681569994916,-0.05837298137958462,0.05726141460461005,0.03345782067752939,7.59633762498495e-08
0.5200000000000004,-0.0023354541813795883,-0.05083378311563272,0.049855371416571814,0.02839174594038486,8.137373472246231e-08
0.5220000000000004,-0.0019245809346295877,-0.04312523579756785,0.04234762448442338,0.023095796034249907,8.946400447765445e-08
0.5240000000000004,-0.0015078582661276502,-0.03526290482609362,0.03473150702834267,0.017764173274944388,9.62654956213507e-08
0.5260000000000004,-0.0010835915972922797,-0.027250671620784036,0.027012723560550223,0.012371328647041241,1.0226259723446482e-07
0.5280000000000004,-0.0006627809072345075,-0.01910432513531602,0.019183984344453946,0.0071230039230462845,1.0556586724740498e-07
0.5300000000000004,-0.0003098115746195587,-0.011649825908707294,0.012138465969526967,0.002546041100972462,9.667261648511977e-08
0.5320000000000004,-3.653967770985008e-05,-0.004859324507826427,0.005848003541976435,-0.0013856840505621446,7.610899641086934e-08
0.5340000000000004,0.00014479347428679944,0.0012938518977060184,0.000285244090924802,-0.004697343713055896,4.436935494455236e-08
0.5360000000000004,0.00023205513609356735,0.006835232991787272,-0.0045763527719739384,-0.007413184269518064,3.744816321280397e-09
0.5380000000000004,0.00023181305107897114,0.011790004864572603,-0.008761761002664514,-0.009570470358061063,-4.230331789612512e-08
0.5400000000000004,0.0001573964850216457,0.016181534450100146,-0.012295972351669638,-0.01119112045784347,-8.976638859163993e-08
0.5420000000000004,2.6667115271477063e-05,0.020032206251642024,-0.015203189683987097,-0.01229623418835797,-1.3462905700341344e-07
0.5440000000000004,-0.00014025933374871242,0.023366032152820383,-0.01751858324139573,-0.01290535990688908,-1.7329989626940512e-07
0.5460000000000004,-0.00032312082658908677,0.026203412420264867,-0.019264399933670705,-0.013038090242876414,-2.029729152223584e-07
0.5480000000000004,-0.0005033179703720272,0.028563905104748977,-0.02046215165585209,-0.012713274453419325,-2.2180484264497793e-07
0.5500000000000004,-0.0006652958954685305,0.030466265298871767,-0.021132630381195013,-0.011949043860585706,-2.2898884402078566e-07
0.5520000000000004,-0.0007974690212186899,0.031938194519548865,-0.02129849154971786,-0.01076358443834162,-2.247377048703215e-07
0.5540000000000004,-0.000901852177255481,0.032996677002226533,-0.020978985655088364,-0.009173622493590645,-2.1175712270429006e-07
0.5560000000000004,-0.0009733635415972419,0.033657985823602334,-0.020192690833298898,-0.007195238374812646,-1.9105727865427902e-07
0.5580000000000004,-0.0010105808131607595,0.033937734690089566,-0.018957534965556494,-0.0048438915360299074,-1.6419048171878352e-07
0.5600000000000004,-0.0010153207115128873,0.03385090513283996,-0.017290812445848583,-0.0021344428429121223,-1.3305145503827078e-07
0.5620000000000004,-0.0009919980352209928,0.033411871828165414,-0.01520920096449355,0.0009188237911906196,-9.967365663917765e-08
0.5640000000000004,-0.0009468762544547079,0.03264388520214388,-0.012719079928075513,0.004124745419311824,-6.59811100599209e-08
0.5660000000000004,-0.0008872582149072679,0.03158379608809323,-0.009811616455247635,0.007021225966397414,-3.3613503482963254e-08
0.5680000000000004,-0.000820626481666324,0.030256004822837322,-0.006489538427390881,0.00935797117140541,-3.990249795640406e-09
0.5700000000000004,-0.0007539441434766573,0.028668882635607244,-0.0027710017755930337,0.011171649174973902,2.1768520949439516e-08
0.5720000000000004,-0.000693156368170175,0.026831249067066038,0.0013273400407857973,0.012483520889381063,4.3006326936128676e-08
0.5740000000000004,-0.0006428120216529133,0.02475159466056444,0.00578949658886952,0.013313977989060621,5.9512461788854875e-08
0.5760000000000004,-0.000602640448926468,0.02243808593671067,0.010600118166564872,0.013682579377812497,7.205917145337441e-08
0.5780000000000004,-0.0005709803410908201,0.019931494247191324,0.015592222356433195,0.013618028509849141,8.179279739293012e-08
0.5800000000000004,-0.0005474432251702577,0.017364536706831194,0.02016749759232145,0.01317623136929216,9.006640200063894e-08
0.5820000000000004,-0.0005329430004648666,0.014737210805257353,0.02432550522940129,0.012372195808276082,9.687939813713669e-08
0.5840000000000004,-0.0005274443508340898,0.01204679236846379,0.028079196119150194,0.011219442158853255,1.0241174615109005e-07
0.5860000000000004,-0.0005300939341420023,0.009285031759910516,0.0314348928509078,0.009842659551620142,1.0693963608019916e-07
0.5880000000000004,-0.0005394170818371413,0.006438404336866774,0.03439263634473201,0.008474604168317232,1.1077466065002536e-07
0.5900000000000004,-0.000553565243292168,0.0034966241503318527,0.036955260564640866,0.007294969000085729,1.1426095036173499e-07
0.5920000000000004,-0.0005705399915915214,0.0004539227112540325,0.03912977366467199,0.006404311918966392,1.1772985609096683e-07
0.5940000000000004,-0.0005883889341853441,-0.002692730174397856,0.04092548704535518,0.005856104754870355,1.2145031759112445e-07
0.5960000000000004,-0.0006053745238051064,-0.005943531440983736,0.04235639529767529,0.005646060737380699,1.25608737628674e-07
0.5980000000000004,-0.0006200937131819151,-0.00929791635563104,0.043446461510643235,0.0057251881644878036,1.302890621221315e-07
0.6000000000000004,-0.0006322435618371523,-0.012751549056221917,0.044210504780225146,0.006017492788155473,1.3537792659706612e-07
0.6020000000000004,-0.0006422495083820534,-0.016136432024224046,0.044621937502488045,0.0064234046113906314,1.4039832185861666e-07
0.6040000000000004,-0.0006504917361779125,-0.019142253608427178,0.04461844389615345,0.0068397764140753735,1.447526083828252e-07
0.6060000000000004,-0.0006572687103514491,-0.021619770966732725,0.044179541845233,0.007196792865915478,1.4823027022969085e-07
0.6080000000000004,-0.0006628085276626535,-0.023593502521506993,0.04332716225571285,0.00747470768705831,1.5094425831612137e-07
0.6100000000000004,-0.0006673057897261639,-0.02508195496422979,0.04208081559857931,0.007654405795253731,1.529922136665492e-07
0.6120000000000004,-0.0006709259730251971,-0.026101641766238273,0.0404575881396069,0.00773395947052837,1.544563102025565e-07
0.6140000000000004,-0.0006738094354395634,-0.026669249086335594,0.03847302862992842,0.007725226871281683,1.554091796624052e-07
0.6160000000000004,-0.0006760751877974725,-0.026801394443568164,0.03614146564963049,0.007649195664485863,1.5591563259226136e-07
0.6180000000000004,-0.0006778241066798329,-0.026514380232818265,0.03347632553566453,0.0075311461696510144,1.5603440323873294e-07
0.6200000000000004,-0.0006791416655294798,-0.025823977769687447,0.030490412563692643,0.00739631995398699,1.558196208856442e-07
0.6220000000000004,-0.0006801002523421746,-0.02474526559171557,0.027196126465037,0.007266559405505036,1.5532184658867894e-07
0.6240000000000004,-0.0006807611344755131,-0.02329253333328905,0.023605606144714186,0.007158150405390812,1.5458863130976037e-07
0.6260000000000004,-0.0006811544302895042,-0.021681055518328343,0.02019140652287936,0.007060686750738891,1.532137944503065e-07
0.6280000000000004,-0.0006813005042082542,-0.02015629810849904,0.017314891967627852,0.00697723670399025,1.5115891288232368e-07
0.6300000000000004,-0.0006812292950098183,-0.01884387983354212,0.014991851456423618,0.006912847040672968,1.488192053982621e-07
0.6320000000000005,-0.0006809738010779204,-0.017817680813597785,0.013212519786104063,0.0068799141336559596,1.464493943555711e-07
0.6340000000000005,-0.0006805660236868309,-0.01712505583895157,0.01197214571606935,0.006880931080797267,1.4419266566492349e-07
0.6360000000000005,-0.0006800385509494508,-0.016774379031012653,0.011256353252449348,0.006910375358044911,1.4210098518124544e-07
0.6380000000000005,-0.000679423381352177,-0.016740616209586195,0.011042684223663394,0.006957605745027018,1.4016000367625225e-07
0.6400000000000005,-0.0006787506427656644,-0.016973111560611258,0.011302694772565073,0.007009975641100565,1.383137908123787e-07
0.6420000000000005,-0.0006780474023113674,-0.01740449331286012,0.01200432707918309,0.007055617512923503,1.3648743889554647e-07
0.6440000000000005,-0.0006773366672180131,-0.01796006041047912,0.01311389888274014,0.007092671815750155,1.3460347497695502e-07
0.6460000000000005,-0.0006766368294681013,-0.018565416004044558,0.01459881476170211,0.007120383814829681,1.3260024720585432e-07
0.6480000000000005,-0.0006759625891526342,-0.019133524630556474,0.016339435346362223,0.007138998836346643,1.3057381157488448e-07
0.6500000000000005,-0.0006753234137089912,-0.019573485281932233,0.018082523879118045,0.007154141213502109,1.2885173017890902e-07
0.6520000000000005,-0.0006747237043186714,-0.019821119929096007,0.019626477602325606,0.007168928992309207,1.276493235721026e-07
0.6540000000000005,-0.0006741616984090611,-0.019856308979391016,0.02084862763158289,0.0071901419274672295,1.270697569353863e-07
0.6560000000000005,-0.0006736317681274445,-0.019692232267803755,0.021679914829484552,0.007220815389336077,1.2715560090869052e-07
0.6580000000000005,-0.0006731255537507028,-0.01937766187179883,0.02214377591377291,0.007257523756132029,1.278311149278938e-07
0.6600000000000005,-0.000672635178851461,-0.018968167337211485,0.02226670542680636,0.00729718721168438,1.2903612309473808e-07
0.6620000000000005,-0.0006721539885008152,-0.018521882989274138,0.02208614969506348,0.007336314817252451,1.3069970786573855e-07
0.6640000000000005,-0.0006716765779120435,-0.018102924260259008,0.021691969786887384,0.007368312146217887,1.3267159916108744e-07
0.6660000000000005,-0.0006712002065476017,-0.017764736829235322,0.021177480883909142,0.007393511505227193,1.3479440914957793e-07
0.6680000000000005,-0.0006707264073083218,-0.01753423471614262,0.020625264483117738,0.007412624048475562,1.3690434994971633e-07
0.6700000000000005,-0.0006702572232858696,-0.01743106314258295,0.02010578486105384,0.0074211542632931,1.388824393427902e-07
0.6720000000000005,-0.0006697966606869416,-0.017456268556076824,0.01966862923857046,0.007416133477334609,1.4063545226908266e-07
0.6740000000000005,-0.0006693500456098077,-0.017592285262044732,0.019329798152910044,0.007398130090225222,1.421155158722867e-07
0.6760000000000005,-0.0006689226638158445,-0.017813484443226116,0.019100878379404593,0.00736889923032759,1.4327877832699208e-07
0.6780000000000005,-0.0006685193655651718,-0.018087186256454515,0.018977823277593963,0.007331956552595829,1.441089782513105e-07
0.6800000000000005,-0.0006681439558176509,-0.018378514875541378,0.01894547045702099,0.00729180760986387,1.4461423229020275e-07
0.6820000000000005,-0.000667798788372853,-0.01865478810050929,0.01898231647675067,0.0072531489061595286,1.4482263747388985e-07
0.6840000000000005,-0.0006674845857797875,-0.01888898334443332,0.019064868301013418,0.0072201663175086766,1.447772340817703e-07
0.6860000000000005,-0.0006671990705432222,-0.019071637230528415,0.019173812947844895,0.007193596973305051,1.4454782618877414e-07
0.6880000000000005,-0.0006669406574909017,-0.019189889172889465,0.019289673151374077,0.007172516389935836,1.4418637339325825e-07
0.6900000000000005,-0.0006667066187326276,-0.019239548346803862,0.01939794747428832,0.007156150383256846,1.437450532174908e-07
0.6920000000000005,-0.0006664934674331126,-0.019224284815544033,0.019489552635657523,0.007143845394755441,1.4327283505768043e-07
0.6940000000000005,-0.0006662973215919234,-0.019154774538830483,0.019563269328817023,0.007136392040147174,1.428080157457024e-07
0.6960000000000005,-0.0006661143742629095,-0.01904586804532224,0.019622168093997024,0.0071348832098639126,1.4238135100333322e-07
0.6980000000000005,-0.0006659412782587991,-0.01891355461912635,0.019668898632205025,0.007139531423037675,1.4202047292683464e-07
0.7000000000000005,-0.0006657753226780172,-0.018773390831224382,0.01970571109838582,0.00714968062046385,1.4174670089833954e-07
0.7020000000000005,-0.0006656145260449991,-0.01863920856187844,0.019734482786326044,0.007163956824599112,1.4157311401981754e-07
0.7040000000000005,-0.0006654576512137637,-0.018522172529404766,0.019756750540146625,0.007180513872784447,1.4150382822213823e-07
0.7060000000000005,-0.0006653043730532876,-0.018428746937752257,0.019773717787461436,0.0071971835289862274,1.415312830027457e-07
0.7080000000000005,-0.000665155832596549,-0.018355562067446176,0.019784302641602525,0.0072115030211941525,1.4163141889726786e-07
0.7100000000000005,-0.0006650118854510164,-0.018306307952575332,0.019789481775548286,0.007223510396094319,1.4179400758729837e-07
0.7120000000000005,-0.0006648727753735207,-0.018281967122790274,0.01978989829458015,0.007233520408230206,1.4200467654911422e-07
0.7140000000000005,-0.000664739008435205,-0.018281125860399126,0.019785957364103657,0.00724179301195366,1.4224664891739368e-07
0.7160000000000005,-0.0006646112225623521,-0.0183004810318735,0.019777958086569115,0.007248544174056898,1.4250231062074098e-07
0.7180000000000005,-0.000664490068162757,-0.0183354417040403,0.01976623842895914,0.00725395572829334,1.427546444532248e-07
0.7200000000000005,-0.0006643761091647416,-0.01838075032325907,0.019751295776392133,0.007258183992979031,1.4298844908243237e-07
0.7220000000000005,-0.0006642697501700412,-0.018431060295273503,0.019733858024556922,0.007261366958705683,1.4319128311715654e-07
0.7240000000000005,-0.0006641711919120683,-0.01848142300188343,0.019714894035855524,0.007263629946471128,1.433540985247175e-07
0.7260000000000005,-0.0006640804141491804,-0.018527655059747912,0.019695565342368493,0.007265089730286005,1.4347155230758264e-07
0.7280000000000005,-0.0006639971827238938,-0.018566573771514067,0.019677131371549045,0.0072658572058463275,1.4354200878901998e-07
0.7300000000000005,-0.0006639208206822772,-0.018597860037444586,0.019661289082018602,0.007266049494214201,1.4357017060833585e-07
0.7320000000000005,-0.0006638504637072146,-0.018622741024840836,0.01964822285635015,0.0072657897588138875,1.4356665266997062e-07
0.7340000000000005,-0.0006637853840380287,-0.018642250447311885,0.019637543892521543,0.007265184379105264,1.4354102118023048e-07
0.7360000000000005,-0.0006637249755925731,-0.01865726757657414,0.01962891141120979,0.0072643211162760155,1.4350075306737648e-07
0.7380000000000005,-0.0006636688812341038,-0.018667541996894615,0.019622006148420003,0.007263264245882919,1.4344950125498057e-07
0.7400000000000005,-0.0006636167792305122,-0.018672808933679418,0.01961655325314171,0.0072620671092147385,1.4339020450265226e-07
0.7420000000000005,-0.0006635683032791346,-0.018673294356491812,0.019612327166332075,0.007260777571480065,1.4332627812228008e-07
0.7440000000000005,-0.0006635230686592597,-0.018669620801415158,0.019609142264810506,0.007259437821556344,1.432612816832178e-07
0.7460000000000006,-0.0006634806965027977,-0.018662692311992118,0.019606844490329907,0.007258084117582385,1.43198606317664e-07
0.7480000000000006,-0.000663440834345696,-0.018653571756962688,0.019605304141121507,0.0072567465958981335,1.4314121024427683e-07
0.7500000000000006,-0.0006634031717159296,-0.018643362485605323,0.019604409927231534,0.007255449226323997,1.4309142189990552e-07
0.7520000000000006,-0.0006633674501315698,-0.018633104119851033,0.019604064310770844,0.007254209961436224,1.4305082061187033e-07
0.7540000000000006,-0.0006633334674652471,-0.018623689576186753,0.019604180076283634,0.007253041094425242,1.4302019591106346e-07
0.7560000000000006,-0.0006633010975793742,-0.018615671037850223,0.019604675117809504,0.007251948757946015,1.4299928904111105e-07
0.7580000000000006,-0.0006632703385319595,-0.018608844684600046,0.019605463520682306,0.007250930891996772,1.429861301570775e-07
0.7600000000000006,-0.0006632411701271553,-0.018603036284344104,0.019606473940284135,0.007249984998315038,1.4297908490317375e-07
0.7620000000000006,-0.0006632135583402711,-0.01859809690731284,0.01960764738854102,0.007249108244171596,1.429768024220332e-07
0.7640000000000006,-0.0006631874588971061,-0.01859389926040188,0.019608935339018852,0.007248297552208655,1.4297817098781483e-07
0.7660000000000006,-0.0006631628201567883,-0.018590334552005417,0.019610298106062244,0.0072475496775622926,1.4298228017802813e-07
0.7680000000000006,-0.0006631395854219728,-0.018587309810621646,0.019611703459557116,0.007246861273486754,1.4298838865177522e-07
0.7700000000000006,-0.0006631176947791147,-0.01858474559159959,0.01961312544219601,0.0072462289466550395,1.4299589673330947e-07
0.7720000000000006,-0.0006630970865539287,-0.01858257401588308,0.01961454336069856,0.007245649303252453,1.4300432311250832e-07
0.7740000000000006,-0.0006630776984524754,-0.018580737092723912,0.01961594092638668,0.007245118986912332,1.4301328507069415e-07
0.7760000000000006,-0.0006630594684461107,-0.018579185285279576,0.019617305523920783,0.0072446347094698785,1.4302248172347002e-07
0.7780000000000006,-0.0006630423354483775,-0.018577876283951508,0.01961862758994305,0.007244193275433895,1.4303167984379684e-07
0.7800000000000006,-0.0006630262398234847,-0.018576773957401642,0.01961990008591064,0.0072437916009995655,1.4304070189008032e-07
0.7820000000000006,-0.0006630111237590087,-0.018575847455532646,0.01962111805159026,0.007243426728349961,1.4304941591697174e-07
0.7840000000000006,-0.0006629969315296401,-0.018575070442436482,0.019622278227573606,0.007243095835920975,1.4305772709213003e-07
0.7860000000000006,-0.0006629836096739777,-0.018574420440497477,0.019623378736801665,0.007242796245234818,1.430655705813806e-07
0.7880000000000006,-0.0006629711071023836,-0.018573878269557816,0.019624418816490304,0.00724252542484158,1.430729055984303e-07
0.7900000000000006,-0.0006629593751506116,-0.018573427567381583,0.019625398593060346,0.007242280991847202,1.4307971044431938e-07
0.7920000000000006,-0.0006629483675911913,-0.01857305437964501,0.019626318893719255,0.007242060711449494,1.4308597838676765e-07
0.7940000000000006,-0.0006629380406123058,-0.018572746809384175,0.01962718108924099,0.007241862494851869,1.4309171425106588e-07
0.7960000000000006,-0.0006629283527720402,-0.018572494717288605,0.019627986963265724,0.00724168439587698,1.4309693161265588e-07
0.7980000000000006,-0.0006629192649343585,-0.018572289465475605,0.019628738604108655,0.007241524606559437,1.4310165049745385e-07
0.8000000000000006,-0.0006629107401919088,-0.018572123698446383,0.01962943831564194,0.007241381451958036,1.4310589550965427e-07
0.8020000000000006,-0.0006629027437797334,-0.018571991155836822,0.01963008854430856,0.007241253384393153,1.4310969431851733e-07
0.8040000000000006,-0.0006628952429831172,-0.01857188651235574,0.019630691819752605,0.007241138977284013,1.431130764457548e-07
0.8060000000000006,-0.0006628882070421244,-0.01857180524097063,0.01963125070691658,0.007241036918733016,1.431160723038152e-07
0.8080000000000006,-0.0006628816070548118,-0.018571743495971352,0.019631767767771077,0.007240946004980093,1.4311871244282773e-07
0.8100000000000006,-0.0006628754158806581,-0.018571698013030314,0.019632245531112525,0.007240865133828704,1.4312102697036316e-07
0.8120000000000006,-0.0006628696080453758,-0.01857166602379493,0.01963268646909697,0.007240793298126527,1.4312304511365634e-07
0.8140000000000006,-0.0006628641596479842,-0.018571645182905168,0.019633092979377074,0.007240729579367651,1.431247948986346e-07
0.8160000000000006,-0.0006628590482707761,-0.01857163350563426,0.019633467371880483,0.007240673141469136,1.4312630292411876e-07
0.8180000000000006,-0.0006628542528926292,-0.018571629314611586,0.01963381185941411,0.007240623224762754,1.431275942130017e-07
0.8200000000000006,-0.0006628497538059566,-0.01857163119431019,0.019634128551404343,0.0072405791402324355,1.4312869212514552e-07
0.8220000000000006,-0.0006628455325374758,-0.018571637952172173,0.01963441945019051,0.007240540264019258,1.4312961831924153e-07
0.8240000000000006,-0.0006628415717728818,-0.018571648585408534,0.019634686449380614,0.007240506032208439,1.4313039275300933e-07
0.8260000000000006,-0.0006628378552854381,-0.01857166225264969,0.01963493133385674,0.007240475935906658,1.4313103371292243e-07
0.8280000000000006,-0.0006628343678684443,-0.01857167824974225,0.019635155781084292,0.007240449516612971,1.431315578661852e-07
0.8300000000000006,-0.0006628310952715003,-0.01857169598908978,0.019635361363436205,0.007240426361882388,1.4313198032898738e-07
0.8320000000000006,-0.000662828024140453,-0.018571714982022588,0.01963554955129161,0.0072404061012778815,1.4313231474616174e-07
0.8340000000000006,-0.0006628251419608941,-0.018571734823756167,0.019635721716709673,0.00724038840260386,1.431325733782966e-07
0.8360000000000006,-0.0006628224370050625,-0.01857175518056193,0.019635879137514103,0.007240372968412131,1.4313276719313303e-07
0.8380000000000006,-0.0006628198982819922,-0.01857177577882829,0.019636023001653517,0.0072403595327697546,1.4313290595872852e-07
0.8400000000000006,-0.0006628175154907481,-0.018571796395736927,0.019636154411727603,0.007240347858277104,1.431329983364124e-07
0.8420000000000006,-0.0006628152789765858,-0.01857181685131899,0.01963627438959027,0.007240337733323624,1.431330519720104e-07
0.8440000000000006,-0.0006628131796898763,-0.018571837001690045,0.019636383880958508,0.007240328969568334,1.4313307358418922e-07
0.8460000000000006,-0.0006628112091476356,-0.018571856733291925,0.019636483759970604,0.007240321399631887,1.4313306904908016e-07
0.8480000000000006,-0.0006628093593975087,-0.018571875957994352,0.01963657483364973,0.007240314874986974,1.4313304348059134e-07
0.8500000000000006,-0.0006628076229840585,-0.018571894608930793,0.01963665784623926,0.007240309264034018,1.4313300130602302e-07
0.8520000000000006,-0.0006628059929172193,-0.018571912636961063,0.019636733483384735,0.0072403044503493615,1.431329463367642e-07
0.8540000000000006,-0.0006628044626427791,-0.0185719300076689,0.019636802376144475,0.007240300331093553,1.4313288183397994e-07
0.8560000000000006,-0.0006628030260147637,-0.018571946698816025,0.019636865104816662,0.007240296815567784,1.431328105693008e-07
0.8580000000000007,-0.0006628016772695999,-0.018571962698185618,0.01963692220257542,0.007240293823907053,1.4313273488060687e-07
0.8600000000000007,-0.0006628004110019447,-0.0185719780017579,0.019636974158912295,0.007240291285899175,1.4313265672305706e-07
0.8620000000000007,-0.0006627992221420721,-0.018571992612168815,0.01963702142288262,0.007240289139919366,1.4313257771556045e-07
0.8640000000000007,-0.0006627981059347167,-0.018572006537410007,0.019637064406158627,0.007240287331970688,1.431324991829164e-07
0.8660000000000007,-0.0006627970579192771,-0.018572019789734266,0.019637103485893172,0.007240285814821284,1.4313242219387148e-07
0.8680000000000007,-0.000662796073911294,-0.018572032384735957,0.019637139007399333,0.007240284547229888,1.4313234759535323e-07
0.8700000000000007,-0.0006627951499851148,-0.018572044340580303,0.01963717128665225,0.007240283493251696,1.4313227604314517e-07
0.8720000000000007,-0.0006627942824576709,-0.018572055677359235,0.01963720061262041,0.007240282621617257,1.431322080292686e-07
0.8740000000000007,-0.0006627934678732921,-0.01857206641655481,0.019637227249434046,0.0072402819051775695,1.431321439063308e-07
0.8760000000000007,-0.0006627927029894913,-0.0185720765805939,0.01963725143839872,0.007240281320409116,1.431320839090929e-07
0.8780000000000007,-0.0006627919847636553,-0.01857208619248035,0.019637273399862303,0.007240280846973041,1.4313202817349978e-07
0.8800000000000007,-0.0006627913103405832,-0.018572095275492702,0.019637293334943583,0.007240280467323175,1.4313197675340307e-07
0.8820000000000007,-0.0006627906770408161,-0.018572103852937456,0.019637311427130728,0.007240280166358033,1.4313192963519556e-07
0.8840000000000007,-0.0006627900823497065,-0.0185721119479492,0.01963732784375757,0.007240279931112349,1.4313188675056145e-07
0.8860000000000007,-0.0006627895239071804,-0.01857211958333033,0.019637342737365587,0.007240279750484082,1.4313184798753376e-07
0.8880000000000007,-0.0006627889994981457,-0.018572126781424055,0.01963735624695908,0.007240279614993207,1.4313181320003532e-07
0.8900000000000007,-0.0006627885070435055,-0.018572133564015388,0.019637368499160823,0.007240279516568943,1.4313178221606748e-07
0.8920000000000007,-0.0006627880445917374,-0.0185721399522556,0.01963737960927512,0.007240279448362359,1.431317548446959e-07
0.8940000000000007,-0.0006627876103110021,-0.018572145966606255,0.019637389682264823,0.0072402794045816335,1.431317308819713e-07
0.8960000000000007,-0.0006627872024817468,-0.018572151626799566,0.019637398813648593,0.007240279380347454,1.4313171011591007e-07
0.8980000000000007,-0.0006627868194897724,-0.01857215695181228,0.01963740709032426,0.007240279371566332,1.4313169233064843e-07
0.9000000000000007,-0.0006627864598197343,-0.018572161959850758,0.019637414591323874,0.007240279374819819,1.431316773098726e-07
0.9020000000000007,-0.0006627861220490489,-0.018572166668345175,0.0196374213885056,0.007240279387267786,1.43131664839618e-07
0.9040000000000007,-0.00066278580484218,-0.018572171093951265,0.01963742754718739,0.0072402794065641735,1.4313165471052025e-07
0.9060000000000007,-0.000662785506945282,-0.01857217525255805,0.01963743312672694,0.007240279430783726,1.4313164671959255e-07
0.9080000000000007,-0.000662785227181175,-0.018572179159300442,0.019637438181052215,0.0072402794583584255,1.431316406715959e-07
0.9100000000000007,-0.0006627849644446329,-0.01857218282857564,0.019637442759146473,0.007240279488022451,1.4313163638006092e-07
0.9120000000000007,-0.0006627847176979641,-0.018572186274062524,0.019637446905491483,0.00724027951876464,1.431316336680138e-07
0.9140000000000007,-0.0006627844859668651,-0.01857218950874324,0.019637450660472313,0.007240279549787512,1.4313163236845253e-07
0.9160000000000007,-0.0006627842683365316,-0.018572192544926498,0.019637454060746885,0.00724027958047205,1.4313163232461376e-07
0.9180000000000007,-0.0006627840639480104,-0.018572195394271955,0.019637457139583186,0.007240279610347511,1.4313163339006625e-07
0.9200000000000007,-0.0006627838719947757,-0.01857219806781539,0.019637459927166843,0.007240279639065607,1.4313163542866174e-07
0.9220000000000007,-0.0006627836917195174,-0.018572200575994218,0.019637462450881563,0.007240279666378518,1.431316383143702e-07
0.9240000000000007,-0.0006627835224111278,-0.01857220292867315,0.01963746473556472,0.0072402796921201985,1.4313164193102302e-07
0.9260000000000007,-0.0006627833634018733,-0.01857220513516974,0.019637466803740216,0.0072402797161905666,1.431316461719843e-07
0.9280000000000007,-0.0006627832140647407,-0.018572207204279594,0.019637468675830556,0.00724027973854217,1.4313165093976708e-07
0.9300000000000007,-0.0006627830738109466,-0.01857220914430117,0.019637470370349925,0.007240279759168993,1.431316561456099e-07
0.9320000000000007,-0.0006627829420876004,-0.018572210963059995,0.019637471904079908,0.007240279778097104,1.4313166170902553e-07
0.9340000000000007,-0.00066278281837551,-0.018572212667932228,0.019637473292229393,0.007240279795376881,1.431316675573327e-07
0.9360000000000007,-0.0006627827021871233,-0.018572214265867498,0.01963747454857998,0.007240279811076594,1.4313167362517937e-07
0.9380000000000007,-0.0006627825930645953,-0.018572215763410987,0.019637475685618237,0.007240279825277136,1.4313167985406495e-07
0.9400000000000007,-0.000662782490577974,-0.018572217166724678,0.01963747671465591,0.007240279838067731,1.4313168619186708e-07
0.9420000000000007,-0.0006627823943234979,-0.0185722184816078,0.01963747764593917,0.007240279849542479,1.4313169259237793e-07
0.9440000000000007,-0.0006627823039219972,-0.018572219713516434,0.0196374784887479,0.007240279859797598,1.431316990148536e-07
0.9460000000000007,-0.0006627822190173931,-0.018572220867582253,0.01963747925148584,0.007240279868929252,1.431317054235799e-07
0.9480000000000007,-0.0006627821392752896,-0.018572221948630455,0.01963747994176249,0.007240279877031876,1.4313171178745596e-07
0.9500000000000007,-0.0006627820643816506,-0.018572222961196868,0.019637480566467466,0.007240279884196902,1.4313171807959804e-07
0.9520000000000007,-0.0006627819940415585,-0.018572223909544227,0.019637481131837976,0.007240279890511836,1.4313172427696388e-07
0.9540000000000007,-0.0006627819279780482,-0.018572224797677683,0.019637481643520076,0.0072402798960595986,1.4313173035999878e-07
0.9560000000000007,-0.0006627818659310134,-0.01857222562935952,0.019637482106624245,0.007240279900918101,1.431317363123031e-07
0.9580000000000007,-0.0006627818076561785,-0.018572226408123154,0.019637482525775806,0.0072402799051599995,1.4313174212032148e-07
0.9600000000000007,-0.0006627817529241339,-0.018572227137286384,0.01963748290516065,0.007240279908852599,1.4313174777305346e-07
0.9620000000000007,-0.0006627817015194309,-0.01857222781996397,0.019637483248566706,0.007240279912057865,1.4313175326178476e-07
0.9640000000000007,-0.0006627816532397299,-0.018572228459079534,0.019637483559421548,0.0072402799148325305,1.4313175857983885e-07
0.9660000000000007,-0.0006627816078950032,-0.01857222905737683,0.019637483840826468,0.007240279917228269,1.4313176372234785e-07
0.9680000000000007,-0.0006627815653067843,-0.01857222961743039,0.019637484095587375,0.007240279919291909,1.4313176868604197e-07
0.9700000000000008,-0.0006627815253074643,-0.018572230141655585,0.01963748432624279,0.007240279921065696,1.4313177346905663e-07
0.9720000000000008,-0.0006627814877396301,-0.01857223063231814,0.01963748453508921,0.007240279922587564,1.431317780707564e-07
0.9740000000000008,-0.0006627814524554446,-0.01857223109154311,0.019637484724204093,0.007240279923891429,1.4313178249157434e-07
0.9760000000000008,-0.0006627814193160628,-0.01857223152132335,0.01963748489546668,0.007240279925007481,1.4313178673286654e-07
0.9780000000000008,-0.0006627813881910847,-0.018572231923527492,0.019637485050576844,0.00724027992596248,1.4313179079678017e-07
0.9800000000000008,-0.0006627813589580418,-0.018572232299907485,0.019637485191072158,0.007240279926780043,1.4313179468613441e-07
0.9820000000000008,-0.0006627813315019135,-0.018572232652105686,0.01963748531834337,0.007240279927480922,1.4313179840431339e-07
0.9840000000000008,-0.0006627813057146744,-0.018572232981661548,0.01963748543364838,0.007240279928083272,1.4313180195517018e-07
0.9860000000000008,-0.0006627812814948684,-0.018572233290017906,0.01963748553812494,0.007240279928602902,1.43131805342941e-07
0.9880000000000008,-0.0006627812587472092,-0.01857223357852691,0.01963748563280209,0.007240279929053511,1.431318085721686e-07
0.9900000000000008,-0.0006627812373822045,-0.018572233848455598,0.019637485718610567,0.007240279929446915,1.4313181164763447e-07
0.9920000000000008,-0.0006627812173158038,-0.01857223410099114,0.01963748579639217,0.007240279929793247,1.4313181457429895e-07
0.9940000000000008,-0.0006627811984690672,-0.01857223433724577,0.019637485866908288,0.00724027993010115,1.4313181735724817e-07
0.9960000000000008,-0.0006627811807678548,-0.018572234558261437,0.019637485930847576,0.007240279930377949,1.4313182000164795e-07
0.9980000000000008,-0.0006627811641425341,-0.01857223476501415,0.01963748598883291,0.007240279930629811,1.4313182251270338e-07
1.0000000000000007,-0.0006627811485277064,-0.01857223495841808,0.019637486041427697,0.007240279930861888,1.431318248956238e-07
1.0020000000000007,-0.0006627811338619491,-0.018572235139329426,0.019637486089141547,0.007240279931078449,1.4313182715559264e-07
1.0040000000000007,-0.0006627811200875737,-0.01857223530855001,0.019637486132435444,0.007240279931282997,1.431318292977417e-07
1.0060000000000007,-0.000662781107150399,-0.018572235466830695,0.019637486171726386,0.007240279931478373,1.4313183132712922e-07
1.0080000000000007,-0.0006627810949995376,-0.018572235614874564,0.01963748620739161,0.00724027993166685,1.4313183324872153e-07
1.0100000000000007,-0.0006627810835871956,-0.01857223575333992,0.019637486239772396,0.007240279931850218,1.4313183506737782e-07
1.0120000000000007,-0.0006627810728684846,-0.018572235882843104,0.01963748626917751,0.007240279932029858,1.4313183678783763e-07
1.0140000000000007,-0.0006627810628012448,-0.018572236003961122,0.019637486295886318,0.0072402799322068044,1.431318384147109e-07
1.0160000000000007,-0.0006627810533458793,-0.01857223611723413,0.019637486320151613,0.007240279932381805,1.4313183995247022e-07
1.0180000000000007,-0.0006627810444651983,-0.018572236223167764,0.019637486342202144,0.00724027993255537,1.4313184140544478e-07
1.0200000000000007,-0.0006627810361242726,-0.01857223632223531,0.019637486362244935,0.007240279932727816,1.4313184277781632e-07
1.0220000000000007,-0.0006627810282902961,-0.018572236414879754,0.019637486380467348,0.007240279932899301,1.4313184407361638e-07
1.0240000000000007,-0.0006627810209324568,-0.0185722365015157,0.01963748639703898,0.0072402799330698615,1.431318452967248e-07
1.0260000000000007,-0.0006627810140218157,-0.018572236582531168,0.01963748641211336,0.007240279933239435,1.4313184645086935e-07
1.0280000000000007,-0.0006627810075311927,-0.018572236658289287,0.01963748642582948,0.007240279933407888,1.4313184753962634e-07
1.0300000000000007,-0.0006627810014350597,-0.01857223672912987,0.019637486438313187,0.007240279933575032,1.4313184856642204e-07
1.0320000000000007,-0.0006627809957094405,-0.018572236795370893,0.019637486449678446,0.007240279933740643,1.4313184953453475e-07
1.0340000000000007,-0.0006627809903318161,-0.0185722368573099,0.01963748646002847,0.007240279933904473,1.4313185044709745e-07
1.0360000000000007,-0.000662780985281036,-0.018572236915225283,0.019637486469456747,0.007240279934066265,1.4313185130710096e-07
1.0380000000000007,-0.0006628170102433526,-0.018546210301438677,0.019679951235137917,0.0072484828853479595,1.4349505071746502e-07
1.0400000000000007,-0.0006820127581215829,-0.018896232795315323,0.02018600398673471,0.007705238570711406,1.4059533616396612e-07
1.0420000000000007,-0.000737782662291595,-0.019607329229951075,0.021138167882859202,0.008592754647518875,1.321150636001837e-07
1.0440000000000007,-0.0008521188669932732,-0.020665119906072546,0.02251957156904898,0.009893927325748402,1.1548213809207617e-07
1.0460000000000007,-0.001035239014866424,-0.02205583026621111,0.024313940967330548,0.011592319545950844,9.080299051831134e-08
1.0480000000000007,-0.0013007199678208195,-0.02376623429904254,0.026505575812703942,0.01367213347008637,5.767558279751056e-08
1.0500000000000007,-0.0016343306531407375,-0.02578369720750153,0.029079348341076953,0.016118193170534447,2.073576222089271e-08
1.0520000000000007,-0.0020206504775872208,-0.028096098315783427,0.03202067455296938,0.018915916316353674,-1.6068942760022247e-08
1.0540000000000007,-0.0024390392103503895,-0.03069182018701662,0.03531550058138934,0.02205129297948438,-4.868422841214933e-08
1.0560000000000007,-0.0028648164262741528,-0.03355972772310174,0.03895028667180614,0.025510864088003092,-7.322553221361007e-08
1.0580000000000007,-0.0032909853267908853,-0.036689104408652556,0.04291198125060486,0.02928169614072454,-8.979470207762441e-08
1.0600000000000007,-0.003704402522671999,-0.040069683033998015,0.04718801706790567,0.03335136623396063,-9.749833577687107e-08
1.0620000000000007,-0.004101452663453509,-0.04369159568309576,0.05176628833453259,0.03770793928570945,-9.74080401373449e-08
1.0640000000000007,-0.004470764589137247,-0.04754539249330508,0.056635144283683755,0.042339953148504424,-8.91148704500043e-08
1.0660000000000007,-0.004804857688334564,-0.051622001492894885,0.06178336868231567,0.04723639795762416,-7.307829862075963e-08
1.0680000000000007,-0.005097011497006443,-0.05591271921077449,0.06720016692457541,0.052386699391368,-4.989428902764075e-08
1.0700000000000007,-0.005346825069878415,-0.060409183864916435,0.07287514898380106,0.05778070050212146,-2.1240655692429943e-08
1.0720000000000007,-0.005566861523361188,-0.06509845435548237,0.07880374515563826,0.06331170306098767,9.221328188834957e-09
1.0740000000000007,-0.0057643486138858335,-0.06995579324483903,0.0849954255229663,0.06862810063312273,3.958031140681455e-08
1.0760000000000007,-0.0059559181075038575,-0.0749704327833623,0.09144494857232394,0.0736393845423509,6.655129614754924e-08
1.0780000000000007,-0.006157930625009633,-0.08013657402091814,0.09814221583063681,0.07834638588847699,8.756732465279239e-08
1.0800000000000007,-0.006371502911767573,-0.0854400196644273,0.10508741923387074,0.08257467471382327,1.0342821592766604e-07
1.0820000000000007,-0.006595667681908968,-0.09087143547641478,0.1122759516376399,0.08623748390472698,1.1518202405973991e-07
1.0840000000000007,-0.006828497332313035,-0.09642639849404341,0.11969819954414215,0.08934093299174774,1.2385903386204434e-07
1.0860000000000007,-0.007078656128033379,-0.10211405544016282,0.1273293128485494,0.09216589422705208,1.2834001388486791e-07
1.0880000000000007,-0.007349709319677682,-0.10794011979330352,0.1351488511050843,0.09492797098172015,1.287190009007006e-07
1.0900000000000007,-0.007643584018942725,-0.11390896125320543,0.1431383752218396,0.09781805314012441,1.2542363754471993e-07
1.0920000000000007,-0.007953728738514897,-0.12001670330842,0.15128963605901624,0.100857967167515,1.2040671876641104e-07
1.0940000000000007,-0.008273953657882804,-0.12625920289483128,0.15959519464841196,0.10406074365247607,1.1518108127605657e-07
1.0960000000000008,-0.008591159922659082,-0.13262540935376863,0.16805639346204837,0.10729106210556477,1.1223043856136511e-07
1.0980000000000008,-0.008902997661146453,-0.1391131506271414,0.17666440719599397,0.11059227498435086,1.1152814254713542e-07
1.1000000000000008,-0.009209590886162132,-0.14572080177005275,0.18541016240060298,0.1140173983603052,1.1257826294440885e-07
1.1020000000000008,-0.009513585891835845,-0.15244718044834576,0.194284432539408,0.11762746103083392,1.1451147663438045e-07
1.1040000000000008,-0.009817539949334817,-0.1592894093254587,0.20328044897915634,0.12144622699424837,1.1665353246183703e-07
1.1060000000000008,-0.010112504972373173,-0.16615387048950048,0.2120067177532398,0.125290732178848,1.2119547380692609e-07
1.1080000000000008,-0.010392876027642373,-0.17296578870198714,0.22013179639270206,0.12903228803506092,1.2915032579180622e-07
1.1100000000000008,-0.010655435242364588,-0.17972727691723525,0.22768254982021324,0.13256624058655442,1.4029308390646592e-07
1.1120000000000008,-0.010917927490984965,-0.1864575630395229,0.23466270926536514,0.1361697466019529,1.505582438420704e-07
1.1140000000000008,-0.011182489560954377,-0.1931614114239303,0.24109296372559574,0.13982192310649286,1.5959436762874888e-07
1.1160000000000008,-0.011447416336573066,-0.1998404889165268,0.2469967269644784,0.14344195511457236,1.678408313753739e-07
1.1180000000000008,-0.011718633028377739,-0.20650302777039944,0.25238773029653305,0.14710094994288575,1.742634911454682e-07
1.1200000000000008,-0.011994724323898597,-0.21315127833931052,0.2572863022724314,0.1507473018674832,1.7940406458264189e-07
1.1220000000000008,-0.012271207883292475,-0.2197884595071053,0.26172858400338933,0.1542927950490956,1.8423915431912696e-07
1.1240000000000008,-0.012545335138851059,-0.22644441343209523,0.26587248317653334,0.15769360742736171,1.890308733425413e-07
1.1260000000000008,-0.012822799270174027,-0.23319218308184633,0.270054875795206,0.1610584331892175,1.9216127005762095e-07
1.1280000000000008,-0.013105951889992369,-0.24007680959286595,0.2744966367993863,0.1644463110200918,1.9314612235567148e-07
1.1300000000000008,-0.013402800896403704,-0.24710602948557517,0.2792065185351268,0.16802576329209923,1.9093048105823865e-07
1.1320000000000008,-0.013708423340839724,-0.25427110591962987,0.28417857174932826,0.1717254881302773,1.87088411756336e-07
1.1340000000000008,-0.014017230371698712,-0.2615631866137778,0.28940771662825576,0.1754641088700041,1.8300403850533366e-07
1.1360000000000008,-0.01432952541761222,-0.2689782666434088,0.2948829821344528,0.179264630473576,1.7872609065317473e-07
1.1380000000000008,-0.01465164775010024,-0.276516665624875,0.30058810819617127,0.18324652279460865,1.7322989123792475e-07
1.1400000000000008,-0.014979121802831046,-0.2841700694928449,0.3065192729934505,0.18732719982247126,1.6763931036879396e-07
1.1420000000000008,-0.01530458180565212,-0.29192847965758534,0.3126756343804065,0.19137715396855176,1.6335129794080848e-07
1.1440000000000008,-0.015617527413637474,-0.29978044937831827,0.31905903543840036,0.19522368716469174,1.619958761055569e-07
1.1460000000000008,-0.015913988376356825,-0.3077203340379993,0.3256638426744869,0.19882149612382297,1.6366609248435503e-07
1.1480000000000008,-0.016188102702149917,-0.31571122164688564,0.3323261417416871,0.20210849526813635,1.689634038034411e-07
1.1500000000000008,-0.01644326711999503,-0.32373004124473587,0.33890438912541043,0.20517916817372295,1.7665019054814028e-07
1.1520000000000008,-0.016689475041436638,-0.33178791594384915,0.34540783272291775,0.20821431746405036,1.8433596735334353e-07
1.1540000000000008,-0.016936501177846484,-0.3398976230033309,0.3518645652735629,0.21136597047534986,1.901560522678741e-07
1.1560000000000008,-0.017187409755082213,-0.34804423454883315,0.35819469547197835,0.21465912998772224,1.9401397763140586e-07
1.1580000000000008,-0.017440712620125635,-0.35619966812936077,0.3642691671109069,0.21803659111704585,1.967377869561884e-07
1.1600000000000008,-0.017694362810363382,-0.3643439884319676,0.3699998894798025,0.2214310206274236,1.9903585687373208e-07
1.1620000000000008,-0.017945096105483938,-0.37246131334148735,0.3753205797686752,0.2247615733924027,2.0164886100506116e-07
1.1640000000000008,-0.018197830179848832,-0.38058372094821563,0.38038053349590983,0.22808164072427536,2.0341707089414777e-07
1.1660000000000008,-0.018461693537640433,-0.38876699173148277,0.38544241403936574,0.2315123832439811,2.0254025393804418e-07
1.1680000000000008,-0.018741182894168745,-0.3970445923683409,0.3906779655747521,0.23510561310306943,1.9856163539957247e-07
1.1700000000000008,-0.019029959691537476,-0.40511108256508094,0.39595763499739944,0.23873128602933688,1.931102098701952e-07
1.1720000000000008,-0.019321810821372853,-0.41266808765147195,0.4011728973327556,0.24228435161078746,1.874142448238109e-07
1.1740000000000008,-0.019609288204462987,-0.41960138367697336,0.4062462544661866,0.24567854707767245,1.8280079621000067e-07
1.1760000000000008,-0.019885978032109876,-0.4259192147922668,0.4111435035319978,0.24886664895887098,1.8018794191431873e-07
1.1780000000000008,-0.020155690684403794,-0.4316733014340574,0.41602435654374853,0.25195728557314057,1.7826394863798184e-07
1.1800000000000008,-0.020422711586725373,-0.436909915690383,0.42102866275720313,0.25505512946944037,1.7593472120217344e-07
1.1820000000000008,-0.020693084296282215,-0.44182961258114056,0.4261956640256004,0.2583000905447523,1.724201310530304e-07
1.1840000000000008,-0.020966191303036095,-0.4465660425589539,0.431547132609158,0.26169060845400777,1.6820545689134423e-07
1.1860000000000008,-0.021237604658654517,-0.4511657014351258,0.4370925612084308,0.26513976951162943,1.6425503203491906e-07
1.1880000000000008,-0.02151044892285518,-0.45583197813914317,0.4428623893103941,0.2686922273090599,1.6022637916772263e-07
1.1900000000000008,-0.02177889610384602,-0.4605247964570455,0.4487920839100519,0.2722196245144385,1.5724012843967877e-07
1.1920000000000008,-0.02204433841456532,-0.46534165014049383,0.4548400231220518,0.2757294727258538,1.5508567731562217e-07
1.1940000000000008,-0.022314781377029483,-0.47035058431719035,0.4610816792494833,0.27932137599120027,1.5224554878438353e-07
1.1960000000000008,-0.02259037465730627,-0.475527970127893,0.46742068457485814,0.2829718153470292,1.4903274337594986e-07
1.1980000000000008,-0.02287137075671309,-0.48085518340056355,0.4737819907439361,0.28666406946831635,1.4565034150439325e-07
1.2000000000000008,-0.02315873141454764,-0.4863220310078449,0.4801296749461626,0.2903981294499066,1.4208164670775977e-07
1.2020000000000008,-0.02344942471056861,-0.49190612949628293,0.4863708605608877,0.29412179233207664,1.3906418221623103e-07
1.2040000000000008,-0.0237330390747999,-0.49755883234605375,0.4922851719329518,0.2976842529845897,1.3859513983594024e-07
1.2060000000000008,-0.024010106186176678,-0.5032851216075993,0.49790102591364377,0.30110750682107623,1.4002339748071321e-07
1.2080000000000009,-0.02428485160096175,-0.5091082577905403,0.5033377820356615,0.304470330604766,1.4204904586584648e-07
1.2100000000000009,-0.0245583529127455,-0.515038397976475,0.5086578887012293,0.3078033883661069,1.4423795072460442e-07
1.2120000000000009,-0.024837184728663787,-0.5211088927774603,0.5140392074989009,0.3112145860065021,1.4515698964999375e-07
1.2140000000000009,-0.025115798560646257,-0.5272997639876572,0.51940747645805,0.31462922900866763,1.4607439124954123e-07
1.2160000000000009,-0.025390358775571425,-0.5335980522901052,0.5247180717870271,0.3179985344448223,1.4766824610377674e-07
1.2180000000000009,-0.025654139476798447,-0.5397908588275152,0.5298182362707939,0.3212186263433081,1.5092504130852992e-07
1.2200000000000009,-0.025911601592504344,-0.5459050607511695,0.5348283680993651,0.32436750727680175,1.5452342754695075e-07
1.2220000000000009,-0.02617691926368324,-0.5521926682226338,0.5400923335907606,0.3276707275972557,1.5566233871402468e-07
1.2240000000000009,-0.026453749189170837,-0.5586488075722273,0.545597611187665,0.33117587387981645,1.5425463745268268e-07
1.2260000000000009,-0.02673844933947878,-0.5651621314152796,0.5513221892260743,0.3347998392142257,1.5137466362288753e-07
1.2280000000000009,-0.027024023730393937,-0.571507882801942,0.5571044870072601,0.3384147957696544,1.485624235315977e-07
1.2300000000000009,-0.027305269330893903,-0.5775409350499037,0.5628102511855855,0.34193831450240686,1.4676122734435103e-07
1.2320000000000009,-0.027575369045166432,-0.5831074225131005,0.5682767126057497,0.34527403315485217,1.469975968155448e-07
1.2340000000000009,-0.02784201950617846,-0.5884654805414936,0.5737137810141283,0.3485656953341035,1.4744728299860645e-07
1.2360000000000009,-0.02811316926978248,-0.5938731053601785,0.5793210086180509,0.3519501972967355,1.4665065062955484e-07
1.2380000000000009,-0.02839456036476783,-0.5994753753692048,0.5851649413907034,0.3555170619550465,1.4396196429191596e-07
1.2400000000000009,-0.028682195253653602,-0.6052371380544017,0.5911949213118993,0.3591879423942086,1.405129885545699e-07
1.2420000000000009,-0.028969473448217417,-0.6110025828009051,0.5972231264348987,0.36284831535161144,1.3775637672573115e-07
1.2440000000000009,-0.029253298965235524,-0.6167124471000331,0.6031584445750997,0.36644660821769415,1.361852196927781e-07
1.2460000000000009,-0.029525974424490124,-0.6221864026408804,0.6088046991565702,0.36986455945386837,1.3698220489395638e-07
1.2480000000000009,-0.02978937039624254,-0.6275014859168527,0.6142152627226691,0.3731431844622456,1.3930642105625644e-07
1.2500000000000009,-0.030050795997251585,-0.632865360496698,0.6195754410679974,0.3764058323987403,1.414884081555749e-07
1.252000000000001,-0.030313892419051202,-0.6383673291426608,0.6249704066774773,0.37970886352861377,1.428716654506827e-07
1.254000000000001,-0.030586181576247488,-0.6440531622393345,0.6305480754840569,0.383153727447712,1.4218906766558391e-07
1.256000000000001,-0.030858693024132383,-0.6498199251152533,0.636114103965633,0.3866002896971434,1.415541238640696e-07
1.258000000000001,-0.03112837253803301,-0.6555660152327355,0.6415913789209206,0.38999614532749866,1.4149849575764504e-07
1.260000000000001,-0.03139069995344885,-0.6611561694425752,0.6468747700860722,0.3932717181298947,1.4268256119916686e-07
1.262000000000001,-0.031647672959090795,-0.6666339970634678,0.6520253404954837,0.3964646900781627,1.4443276891856992e-07
1.264000000000001,-0.03190732032780132,-0.672198399984036,0.6572471644462428,0.39970420618754304,1.451345811445222e-07
1.266000000000001,-0.03217374745732806,-0.677934524135579,0.6626380103565659,0.4030504420053821,1.442427142387258e-07
1.268000000000001,-0.03245546840665894,-0.683861530213408,0.6682664443044354,0.4066218389835841,1.406539173811324e-07
1.270000000000001,-0.03274027414729799,-0.6898623847565688,0.6739972983354976,0.41022232770133726,1.3704314089016076e-07
1.272000000000001,-0.03302290984459969,-0.6957942450763155,0.6797042882562191,0.4137695719178605,1.3439178204640802e-07
1.274000000000001,-0.033298880979886765,-0.7015440475880814,0.6852830362733339,0.417201052485089,1.3332195584557968e-07
1.276000000000001,-0.03357494097476039,-0.707297800163404,0.6908990670617879,0.42063123396003405,1.3230238178835571e-07
1.278000000000001,-0.033852238887623134,-0.713086039557077,0.6965736584586744,0.4240827798129678,1.3113270514554255e-07
1.280000000000001,-0.03413298118195496,-0.7189634512985921,0.7023491515791869,0.4275916303602015,1.2947547265332917e-07
1.282000000000001,-0.03442300880197097,-0.7250225901926375,0.7083399388807886,0.4312412977149284,1.2641301585421926e-07
1.284000000000001,-0.03471658912476923,-0.731167146232285,0.7144064728845022,0.43494204794601854,1.2333860647859298e-07
1.286000000000001,-0.035009188014790346,-0.737276078966589,0.7204314615341769,0.43862206268914405,1.2111246410900318e-07
1.288000000000001,-0.03529351254180106,-0.7431664298750021,0.7262422811474438,0.4421731662794632,1.2087674197968875e-07
1.290000000000001,-0.03557898933708826,-0.7490965614290591,0.7320683414328824,0.4457450535724645,1.205360249911379e-07
1.292000000000001,-0.03585934906577576,-0.7549078352788449,0.7377642003182981,0.4492438418638412,1.2121745579775114e-07
1.294000000000001,-0.03613777991622495,-0.7606915619236561,0.7434121041504366,0.45272177848138295,1.2211750331611088e-07
1.296000000000001,-0.03641840794224416,-0.7665558292012786,0.7491120847361352,0.45624127909648016,1.2243707949039393e-07
1.298000000000001,-0.03669418252706427,-0.7723144466523768,0.7547002809007469,0.4596939433638451,1.2352665830299962e-07
1.300000000000001,-0.036964108825934545,-0.7779451777615632,0.7601601129216012,0.46306722697413066,1.2536588791040755e-07
1.302000000000001,-0.03722238028267168,-0.7833045045778444,0.7653650127000702,0.4662783572667657,1.2877164912182828e-07
1.304000000000001,-0.03747374582684594,-0.7885260024732659,0.7704362163644215,0.46940553434143295,1.3250627756289967e-07
1.306000000000001,-0.037725294957494056,-0.793793710061847,0.7755412295078066,0.4725563731797763,1.3518616701379248e-07
1.308000000000001,-0.03798180534990521,-0.7992188624467474,0.780784107332961,0.47579657101318257,1.3615199838903335e-07
1.310000000000001,-0.038251207457620416,-0.8048503061693631,0.7862714969118,0.4792281716956998,1.3438611419248833e-07
1.312000000000001,-0.03852450084586306,-0.8106041736824035,0.7918650001923672,0.4827095625828252,1.3203567271193797e-07
1.314000000000001,-0.03879882070133512,-0.8163933977901666,0.797489027941863,0.4861908109837633,1.2976417369526906e-07
1.316000000000001,-0.03906614836117563,-0.8220050412436551,0.8029542285348227,0.4895518538884124,1.2898910434912136e-07
1.318000000000001,-0.03932811343370899,-0.8274847803630634,0.808299446283957,0.49282325458007503,1.2911016482191054e-07
1.320000000000001,-0.03959248799939671,-0.8330333639451735,0.8137020506637264,0.49612567896657145,1.2856902657840402e-07
1.322000000000001,-0.03986218641193186,-0.8387176022194407,0.8192226871400039,0.4995028365892329,1.2700025966046785e-07
1.324000000000001,-0.04014576041082808,-0.844600179387086,0.8249766166881028,0.5030731362825117,1.2318616193769912e-07
1.326000000000001,-0.04043246034065288,-0.8505763783363854,0.8308064493771575,0.5066783391100189,1.194719047239486e-07
1.328000000000001,-0.040718078535857634,-0.8565364701374202,0.8366155690489664,0.5102568119337667,1.1661785061499356e-07
1.330000000000001,-0.040993308401887335,-0.8622468085642272,0.8421963970303336,0.5136774041756683,1.1609124584058101e-07
1.332000000000001,-0.04126300988087181,-0.8678433924328195,0.847665928410646,0.5170215445387324,1.1654698070766839e-07
1.334000000000001,-0.04153130949015623,-0.87343562056017,0.8531194476635307,0.5203558456755519,1.1704275680566964e-07
1.336000000000001,-0.04182108650852009,-0.8792339095061745,0.8588015701101047,0.5239973886265091,1.1383216823315374e-07
1.338000000000001,-0.042122952560518595,-0.8852272998637166,0.8647118895549253,0.5278105948065633,1.091320584017757e-07
1.340000000000001,-0.042424699092967394,-0.8913871530660333,0.8707446502748614,0.531616632136529,1.0530730832624915e-07
1.342000000000001,-0.042720755204460115,-0.8975564964315863,0.8767631251103467,0.5353336995225816,1.0320506972613815e-07
1.344000000000001,-0.04300103865796985,-0.9034577932770109,0.8825238557861652,0.5388211290071135,1.0424950180348346e-07
1.346000000000001,-0.04326943319079575,-0.9091698054684877,0.8880932752816595,0.542146348341751,1.0710322461474722e-07
1.348000000000001,-0.04353056073084608,-0.9147821225127397,0.8935491899849054,0.5453844178499391,1.1056190701785916e-07
1.350000000000001,-0.0437907636163888,-0.9204217083022733,0.8990051099249284,0.5486299856435933,1.1337260606268013e-07
1.352000000000001,-0.04405730136773338,-0.9262332814008816,0.9045941232918672,0.5519840598975103,1.1439974481022372e-07
1.354000000000001,-0.04432421375708585,-0.9320280513494665,0.910161424789519,0.55535298029694,1.1504278684407856e-07
1.356000000000001,-0.044591140100519046,-0.9377745900233929,0.9156871370195935,0.5587260443129095,1.1543668222199503e-07
1.358000000000001,-0.04485111797279216,-0.9432888205984709,0.9210162655939715,0.5620000579345628,1.1681306232491563e-07
1.360000000000001,-0.04510515595762171,-0.9486052924741816,0.9261791847929347,0.5651905425235554,1.1875145476156593e-07
1.362000000000001,-0.04536662271512074,-0.9540725299764411,0.9314783399332842,0.5684880952784259,1.1879539050085137e-07
1.364000000000001,-0.045638388205596694,-0.9597452471395881,0.9369785538819063,0.5719260418270234,1.1683399434206604e-07
1.366000000000001,-0.045926678288140885,-0.9656229009779842,0.942709686751571,0.5755837069913313,1.1234515235044888e-07
1.368000000000001,-0.04622232533290483,-0.9716889235964066,0.9486246409226867,0.5793240566517506,1.0733705486084256e-07
1.370000000000001,-0.046518197743844865,-0.9777892472901485,0.9545776022631762,0.5830449533965982,1.0319955352818505e-07
1.372000000000001,-0.046803733900575205,-0.9836670024942008,0.9603436163994978,0.5866019283136042,1.0159748446161917e-07
1.374000000000001,-0.047083577544792414,-0.9894510426662075,0.9660258295346144,0.5900719401273136,1.0121775036124295e-07
1.376000000000001,-0.04736681673942487,-0.9953695079145128,0.971815451001561,0.5935915049445735,1.0026030065881261e-07
1.378000000000001,-0.04766260649211323,-1.0014839282885282,0.9778275326465207,0.5972876902739467,9.735860084255636e-08
1.380000000000001,-0.047964451829534634,-1.0077775029036158,0.9839975096599101,0.6010693021056348,9.39993060914193e-08
1.382000000000001,-0.04826238362964103,-1.0140236650622323,0.9901061801560611,0.6047970335016213,9.202888934999301e-08
1.384000000000001,-0.04854692330905205,-1.0199786466847471,0.9959428989746958,0.6083415768452326,9.278868729891286e-08
1.386000000000001,-0.04882902603776437,-1.0259147300609794,1.001736852917947,0.6118627470023746,9.383657941322264e-08
1.388000000000001,-0.04911190525133833,-1.0318992272423815,1.0075480884991521,0.6154057553100705,9.455469916963568e-08
1.390000000000001,-0.04939238599184873,-1.0378378315697603,1.013301436047613,0.6189241599538365,9.553679364246354e-08
1.392000000000001,-0.04967840905129969,-1.0439157499282778,1.0191607055264817,0.6225263243784783,9.537096890981298e-08
1.394000000000001,-0.049964191208516084,-1.0499729904843587,1.0249987633992026,0.6261262570998423,9.527019889324558e-08
1.396000000000001,-0.05024851462279944,-1.0559727676754114,1.0307902211778717,0.6297044934181109,9.541615112966461e-08
1.398000000000001,-0.05053384753672859,-1.061974927102937,1.0365900242639507,0.6332939652794554,9.532675761837598e-08
1.400000000000001,-0.05083805699819854,-1.0681745136600835,1.0426062948591996,0.6371388049326403,9.221562497545739e-08
1.402000000000001,-0.051153470271485764,-1.074561650039812,1.0488379472314122,0.6411223678772386,8.786263811916976e-08
1.404000000000001,-0.05147057038644069,-1.0810715554378945,1.055180986312869,0.6451118450766007,8.4093383217292e-08
1.406000000000001,-0.05177737051660003,-1.0874070367677675,1.061382710308115,0.6489443642393077,8.283901840439013e-08
1.408000000000001,-0.05206531021877247,-1.093359776053011,1.0672579084251088,0.6525119120507953,8.501405469370535e-08
1.410000000000001,-0.052344787576955744,-1.0991903345909995,1.0730130108540101,0.6559707406956442,8.813290495930406e-08
1.412000000000001,-0.052620935175888464,-1.1050131654699968,1.0787370798219675,0.6593987055823064,9.110777245427599e-08
1.414000000000001,-0.0529029888896929,-1.1110288917175415,1.084600976711066,0.6629244182840828,9.240368156612185e-08
1.416000000000001,-0.05319310463845874,-1.1172339692080262,1.0906253768106533,0.6665721394776742,9.20091442662172e-08
1.418000000000001,-0.053485585268170086,-1.1234943086281117,1.096680645858703,0.6702590258100206,9.124440840432182e-08
1.420000000000001,-0.05377433837411805,-1.1296406834803143,1.1026309079097707,0.67389717383965,9.120976847518137e-08
1.422000000000001,-0.05406944868408323,-1.1359127905650577,1.1086814373608807,0.6776218532240814,9.007670370389897e-08
1.424000000000001,-0.05437112225645732,-1.1423040078989424,1.1148356699721875,0.6814303872244555,8.805065823279187e-08
1.426000000000001,-0.05467940547927742,-1.1488087848324267,1.1210977120144578,0.6853188574392326,8.53286807102325e-08
1.428000000000001,-0.05498911406842411,-1.1552990031411516,1.127367226493971,0.689213951946793,8.293492458123475e-08
1.430000000000001,-0.05529646139077548,-1.1616908821820457,1.1335755937794667,0.6930652198644274,8.143767111193375e-08
1.432000000000001,-0.05559712906129231,-1.1678951713284502,1.1396443710894597,0.6968180855131887,8.135749406433767e-08
1.434000000000001,-0.05590238786186776,-1.1742074126752247,1.1458130814403216,0.7006309185385194,8.052610574195928e-08
1.436000000000001,-0.056212005016910836,-1.180628547755687,1.1520812777094245,0.7045018643701157,7.91387803897581e-08
1.438000000000001,-0.05652472999659245,-1.1871311254569863,1.1584254712420192,0.7084146690583857,7.752749177496082e-08
1.440000000000001,-0.056835009458346214,-1.1935814158962081,1.1647329256366168,0.712295059908832,7.666287419531724e-08
1.442000000000001,-0.057136734075792325,-1.1998363221964907,1.1708791855749547,0.716063112394035,7.738958982125649e-08
1.444000000000001,-0.05742236611454278,-1.2057237656778983,1.1767106632126887,0.7196217487261608,8.058244240920396e-08
1.446000000000001,-0.05769707279061221,-1.2113865730825069,1.182330889830459,0.7230465512670775,8.482574433337252e-08
1.448000000000001,-0.057970451859132,-1.2170664254943762,1.1879305766548114,0.726469108169132,8.827044154668075e-08
1.450000000000001,-0.05823987593209766,-1.2226943362886928,1.193451468206488,0.7298519243843389,9.14585790395768e-08
1.452000000000001,-0.05851763975696236,-1.228530570350274,1.1991336800494945,0.7333557815200517,9.239398145975748e-08
1.454000000000001,-0.05879780095286987,-1.234450738802379,1.204858007252144,0.7368952800378666,9.249873787383998e-08
1.456000000000001,-0.05907887922899188,-1.2404036569632566,1.2105921815673113,0.740445329732585,9.217824901320826e-08
1.458000000000001,-0.059364950214680724,-1.2464750395248239,1.2164172428454414,0.7440566304142732,9.08571768354194e-08
1.460000000000001,-0.05966673341499497,-1.252747108887345,1.2224599197098314,0.7478676778284805,8.710118221632002e-08
1.462000000000001,-0.0599806934080857,-1.2592110463424235,1.2287153560299116,0.7518254707904647,8.196702629597407e-08
1.464000000000001,-0.06029748053079275,-1.2657888615227386,1.235075458330975,0.7558044539692066,7.72478778536022e-08
1.466000000000001,-0.06060700721532433,-1.2722319434836142,1.2413391538814749,0.7596724664218274,7.453813730003288e-08
1.468000000000001,-0.060899215343804707,-1.2782983268477002,1.247301022048137,0.7633027552952153,7.506358195642862e-08
1.470000000000001,-0.06118490779298541,-1.2842563390884028,1.2531672936090388,0.7668493276525538,7.640074593170055e-08
1.472000000000001,-0.061497292318998815,-1.2904221301235999,1.2592445957160021,0.7706942242889233,7.342173420432813e-08
1.474000000000001,-0.06182882318487327,-1.2967872571625456,1.265526288714496,0.7748200629754164,6.806998901711114e-08
1.476000000000001,-0.062166217031042935,-1.30334043881136,1.2720155174965058,0.7790400242978532,6.275363356440807e-08
1.478000000000001,-0.06249445031129578,-1.3100228469877837,1.2785750375901677,0.7831530571095975,5.979973501148612e-08
1.480000000000001,-0.06280004654719952,-1.316463028933322,1.284900266974322,0.7869804417981929,6.094177726629966e-08
1.482000000000001,-0.06308633288621492,-1.322680695594413,1.290999583952195,0.7905692202097601,6.482738942699496e-08
1.484000000000001,-0.06336546504481325,-1.32889339098147,1.297046722733538,0.7940811870241905,6.895431779091079e-08
1.486000000000001,-0.06364725160989107,-1.3352513092049596,1.3031706070418103,0.7976423867041911,7.17145713951336e-08
1.488000000000001,-0.06392716904537157,-1.3415625105476452,1.3092279788363625,0.8011862577067771,7.411811882914064e-08
1.490000000000001,-0.06420040191392917,-1.347651394465566,1.3150850190867955,0.8046439064377198,7.699459415248212e-08
1.492000000000001,-0.06445884609050578,-1.3532920511754456,1.3205599184395143,0.8079055831581222,8.149213163354754e-08
1.494000000000001,-0.06469839838097916,-1.3583856556674283,1.325564714063929,0.8109178206733376,8.784568951688215e-08
1.496000000000001,-0.06493318642673904,-1.3632919210870862,1.3303812394324466,0.8138689844304092,9.33297634466371e-08
1.498000000000001,-0.06517610956324892,-1.36833902904071,1.3352771832506571,0.8169277771853193,9.598815562022925e-08
1.500000000000001,-0.06543827107551434,-1.373632362519332,1.340421725591685,0.8202342712807139,9.463734494005926e-08
1.5020000000000011,-0.06571671056776199,-1.3791613104892344,1.3458083759374175,0.8237441226969757,9.053806255395669e-08
1.5040000000000011,-0.06600711909740277,-1.3849153633479296,1.3514317904448365,0.8273964690332228,8.491225477131112e-08
1.5060000000000011,-0.06629646479363617,-1.3907770607120835,1.3571192757808521,0.831022061944621,8.014018588417355e-08
1.5080000000000011,-0.06660064833279745,-1.3968517054254712,1.3630302393794695,0.8348324916302442,7.373844036662237e-08
1.5100000000000011,-0.06691703962478797,-1.4031301719930969,1.3691586010614176,0.8387928174571958,6.649855036074231e-08
1.5120000000000011,-0.06724227907870027,-1.409603518574851,1.3754989907265502,0.8428591499538876,5.915863171272108e-08
1.5140000000000011,-0.06756768930629639,-1.4162615757144357,1.3820476153433614,0.8469169434398948,5.303124091259248e-08
1.5160000000000011,-0.06788476796327664,-1.422989603055722,1.388617002030561,0.8508647460035591,4.9322930525311625e-08
1.5180000000000011,-0.06818193903565242,-1.429444129254653,1.3949294893129134,0.854557541776789,4.942205329906821e-08
1.5200000000000011,-0.068461072214916,-1.4356037585532813,1.400960489730901,0.8580274313803051,5.2285662461319766e-08
1.5220000000000011,-0.06873169864652919,-1.4416309830803886,1.4068359671117872,0.8614039307297806,5.586072606301956e-08
1.5240000000000011,-0.06899901122639474,-1.4475879430192662,1.4126083800711022,0.864755163505736,5.917706123916436e-08
1.5260000000000011,-0.06927097929773955,-1.453613435473704,1.4183982836669133,0.868181916807782,6.10291443088905e-08
1.5280000000000011,-0.06955024001772626,-1.4597307854112596,1.424240049087661,0.8717121823463795,6.129260008900924e-08
1.5300000000000011,-0.06982757060412983,-1.4656987585712244,1.4299547753760877,0.8752186382566376,6.170417117903392e-08
1.5320000000000011,-0.07011032665733648,-1.4716934039345702,1.435693470335712,0.8787926267169323,6.107310012030292e-08
1.5340000000000011,-0.07040421978340423,-1.4778587387154825,1.4415848484254736,0.882503821460906,5.871901758773789e-08
1.5360000000000011,-0.07071135999253514,-1.4842264445419702,1.4476917792919726,0.8863746266483202,5.4671547842647275e-08
1.5380000000000011,-0.07102641036021093,-1.4907255046228995,1.4539417010519384,0.8903342490905147,5.0132267090930315e-08
1.5400000000000011,-0.07133875408797491,-1.4971258696388385,1.4601536269543998,0.894245077474168,4.686200069548013e-08
1.5420000000000011,-0.07164182742424977,-1.5033000726485957,1.466216988203016,0.898026035812799,4.562039504400539e-08
1.5440000000000011,-0.0719376529295408,-1.5093244175853322,1.4721774354454216,0.9017096764772072,4.5677205572005434e-08
1.5460000000000012,-0.0722406317776446,-1.515552062137608,1.4783106115615663,0.9054882094630342,4.455824520616264e-08
1.5480000000000012,-0.0725526756430813,-1.5219785254701224,1.484648129479534,0.9093866691969303,4.221788848879817e-08
1.5500000000000012,-0.0728619002572233,-1.5283917119568418,1.4909654427038195,0.9132533174031053,4.0761055396015e-08
1.5520000000000012,-0.07316217039382945,-1.5346437391761751,1.497136024520791,0.9170098511097836,4.095491945320306e-08
1.5540000000000012,-0.07344368576330473,-1.5405017016561064,1.5029602045467534,0.9205309044854365,4.3937639251722515e-08
1.5560000000000012,-0.07372035407030711,-1.5462949372466914,1.5086873471563245,0.923999056254068,4.6986754406375336e-08
1.5580000000000012,-0.07399731645857337,-1.5521340427508525,1.5144042645145965,0.9274796284579215,4.92691371379515e-08
1.5600000000000012,-0.07427770122072853,-1.5580768249272159,1.520163956390956,0.9310100218225402,5.043535466981815e-08
1.5620000000000012,-0.07456580362162375,-1.5642061308856785,1.5260463164060176,0.9346418103091635,5.004419611747838e-08
1.5640000000000012,-0.07485402222264124,-1.5703250768974277,1.5319100096673532,0.9382723193979101,4.9552380784011315e-08
1.5660000000000012,-0.07514185591779392,-1.5764129981988373,1.5377494805653484,0.9418930179866754,4.904539833983178e-08
1.5680000000000012,-0.07544064177502967,-1.5827056332217166,1.543783536629799,0.9456488768825275,4.680928901788314e-08
1.5700000000000012,-0.07575744765327487,-1.5891987580218891,1.5500268413580034,0.9496321785350342,4.225611719049244e-08
1.5720000000000012,-0.07608278027526313,-1.5958813840894948,1.5564786361399559,0.9537142438431598,3.720531987958623e-08
1.5740000000000012,-0.07641213597005073,-1.6027035191441306,1.5630747960934046,0.9578386809207842,3.2492863554706165e-08
1.5760000000000012,-0.07667464461465437,-1.6087745341617932,1.5691076041205794,0.9613744910272943,3.84552574162657e-08
1.5780000000000012,-0.0768564049628275,-1.6141250889767378,1.574596314842034,0.964344226386733,5.4521215987079986e-08
1.5800000000000012,-0.07695136620350507,-1.6187846258901082,1.5795595080204559,0.96676961179879,7.910599871521531e-08
1.5820000000000012,-0.07696569733641502,-1.622781729518893,1.5840144181779399,0.9686853976236507,1.0928062574470398e-07
1.5840000000000012,-0.07691447106196514,-1.6261435090415437,1.5879784120050198,0.9701111782509719,1.4152421241893725e-07
1.5860000000000012,-0.07681788064903876,-1.6288959812371586,1.5914682599846188,0.9710658259718556,1.723666677278513e-07
1.5880000000000012,-0.0766976130328245,-1.6310774313420413,1.5945009826374459,0.9715678413426624,1.988893899173883e-07
1.5900000000000012,-0.0765738767555369,-1.6326878243039442,1.5969344387407163,0.9716438827062744,2.19196331403718e-07
1.5920000000000012,-0.07646295461059631,-1.6337646081587374,1.5988566145592356,0.9713063193283445,2.3210982283554238e-07
1.5940000000000012,-0.07637411891906086,-1.6343374688396033,1.6003339808804617,0.9705681984730966,2.3771016206710627e-07
1.5960000000000012,-0.07630369438610067,-1.634429224310484,1.6014180405584995,0.969442830985598,2.3782263303731155e-07
1.5980000000000012,-0.0762556931143021,-1.6340605792788097,1.6021385583352612,0.9679443135169292,2.3302313251825e-07
1.6000000000000012,-0.07623143310338243,-1.6332504039809723,1.6025079941368645,0.9660872368175761,2.2419949062997486e-07
1.6020000000000012,-0.07622895904447897,-1.6320167946992246,1.6025383899448473,0.9638856417645099,2.125295511364418e-07
1.6040000000000012,-0.07624394496796118,-1.6303781155739605,1.602239232773821,0.9613956007082738,1.992705223976843e-07
1.6060000000000012,-0.07627050382035347,-1.6283600300971326,1.601602541834668,0.9590113118985578,1.8547862130216407e-07
1.6080000000000012,-0.07630261275461848,-1.6259848397279948,1.600625585795799,0.9570256099594628,1.7206615731796597e-07
1.6100000000000012,-0.07633494372881862,-1.6232703267932724,1.5993134604559769,0.955576694599292,1.5974004851159616e-07
1.6120000000000012,-0.076363391763952,-1.6202297807035677,1.5976791643830617,0.9546428776494623,1.4897145010902546e-07
1.6140000000000012,-0.07638650076070364,-1.6168759670830206,1.5957352079165965,0.9542033402546585,1.3977886609999157e-07
1.6160000000000012,-0.07640514466795717,-1.613221149141098,1.5934936291221797,0.9542380981845938,1.31860309004851e-07
1.6180000000000012,-0.0764200607198664,-1.6092771080477835,1.5909660105642378,0.9547279703408492,1.2497627135494828e-07
1.6200000000000012,-0.076431874582233,-1.6053306375887002,1.5881870226522712,0.9555398209032403,1.1908505072958968e-07
1.6220000000000012,-0.07644111447440016,-1.6018830439446792,1.5852055876880786,0.9565063179315837,1.1423582722315333e-07
